P3
400 225
255
220 235 255
220 235 255
220 235 255
220 235 255
220 235 255
220 235 255
220 235 255
220 235 255
220 235 255
220 235 255
220 235 255
220 235 255
220 235 255
220 235 255
220 235 255
220 235 255
220 235 255
220 235 255
220 235 255
220 235 255
220 235 255
220 235 255
220 235 255
220 235 255
220 235 255
220 235 255
220 235 255
220 235 255
220 235 255
220 235 255
220 235 255
220 235 255
220 235 255
220 235 255
220 235 255
220 235 255
220 235 255
220 235 255
220 235 255
220 235 255
220 235 255
220 235 255
220 235 255
220 235 255
220 235 255
220 235 255
220 235 255
220 235 255
220 235 255
220 235 255
220 235 255
220 235 255
220 235 255
220 235 255
220 235 255
220 235 255
220 235 255
220 235 255
220 235 255
220 235 255
220 235 255
220 235 255
220 235 255
220 235 255
220 235 255
220 235 255
220 235 255
220 235 255
220 235 255
220 235 255
220 235 255
220 235 255
220 235 255
220 235 255
220 235 255
220 235 255
220 235 255
220 235 255
220 235 255
220 235 255
220 235 255
220 235 255
220 235 255
220 235 255
220 235 255
220 235 255
220 235 255
220 235 255
220 235 255
220 235 255
220 235 255
220 235 255
220 235 255
220 235 255
220 235 255
220 235 255
220 235 255
220 235 255
220 235 255
220 235 255
220 235 255
220 235 255
220 235 255
220 235 255
220 235 255
220 235 255
220 235 255
220 235 255
220 235 255
220 235 255
220 235 255
220 235 255
220 235 255
220 235 255
220 235 255
220 235 255
220 235 255
220 235 255
220 235 255
220 235 255
220 235 255
220 235 255
220 235 255
220 235 255
220 235 255
220 235 255
220 235 255
220 235 255
220 235 255
220 235 255
220 235 255
220 235 255
220 235 255
220 235 255
220 235 255
220 235 255
220 235 255
220 235 255
220 235 255
220 235 255
220 235 255
220 235 255
220 235 255
220 235 255
220 235 255
220 235 255
220 235 255
220 235 255
220 235 255
220 235 255
220 235 255
220 235 255
220 235 255
220 235 255
220 235 255
220 235 255
220 235 255
220 235 255
220 235 255
220 235 255
220 235 255
220 235 255
220 235 255
220 235 255
220 235 255
220 235 255
220 235 255
220 235 255
220 235 255
220 235 255
220 235 255
220 235 255
220 235 255
220 235 255
220 235 255
220 235 255
220 235 255
220 235 255
220 235 255
220 235 255
220 235 255
220 235 255
220 235 255
220 235 255
220 235 255
220 235 255
220 235 255
220 235 255
220 235 255
220 235 255
220 235 255
220 235 255
220 235 255
220 235 255
220 235 255
220 235 255
220 235 255
220 235 255
220 235 255
220 235 255
220 235 255
220 235 255
220 235 255
220 235 255
220 235 255
220 235 255
220 235 255
220 235 255
220 235 255
220 235 255
220 235 255
220 235 255
220 235 255
220 235 255
220 235 255
220 235 255
220 235 255
220 235 255
220 235 255
220 235 255
220 235 255
220 235 255
220 235 255
220 235 255
220 235 255
220 235 255
220 235 255
220 235 255
220 235 255
220 235 255
220 235 255
220 235 255
220 235 255
220 235 255
220 235 255
220 235 255
220 235 255
220 235 255
220 235 255
220 235 255
220 235 255
220 235 255
220 235 255
220 235 255
220 235 255
220 235 255
220 235 255
220 235 255
220 235 255
220 235 255
220 235 255
220 235 255
220 235 255
220 235 255
220 235 255
220 235 255
220 235 255
220 235 255
220 235 255
220 235 255
220 235 255
220 235 255
220 235 255
220 235 255
220 235 255
220 235 255
220 235 255
220 235 255
220 235 255
220 235 255
220 235 255
220 235 255
220 235 255
220 235 255
220 235 255
220 235 255
220 235 255
220 235 255
220 235 255
220 235 255
220 235 255
220 235 255
220 235 255
220 235 255
220 235 255
220 235 255
220 235 255
220 235 255
220 235 255
220 235 255
220 235 255
220 235 255
220 235 255
220 235 255
220 235 255
220 235 255
220 235 255
220 235 255
220 235 255
220 235 255
220 235 255
220 235 255
220 235 255
220 235 255
220 235 255
220 235 255
220 235 255
220 235 255
220 235 255
220 235 255
220 235 255
220 235 255
220 235 255
220 235 255
220 235 255
220 235 255
220 235 255
220 235 255
220 235 255
220 235 255
220 235 255
220 235 255
220 235 255
220 235 255
220 235 255
220 235 255
220 235 255
220 235 255
220 235 255
220 235 255
220 235 255
220 235 255
220 235 255
220 235 255
220 235 255
220 235 255
220 235 255
220 235 255
220 235 255
220 235 255
220 235 255
220 235 255
220 235 255
220 235 255
220 235 255
220 235 255
220 235 255
220 235 255
220 235 255
220 235 255
220 235 255
220 235 255
220 235 255
220 235 255
220 235 255
220 235 255
220 235 255
220 235 255
220 235 255
220 235 255
220 235 255
220 235 255
220 235 255
220 235 255
220 235 255
220 235 255
220 235 255
220 235 255
220 235 255
220 235 255
220 235 255
220 235 255
220 235 255
220 235 255
220 235 255
220 235 255
220 235 255
220 235 255
220 235 255
220 235 255
220 235 255
220 235 255
220 235 255
220 235 255
220 235 255
220 235 255
220 235 255
220 235 255
220 235 255
220 235 255
220 235 255
220 235 255
220 235 255
220 235 255
220 235 255
220 235 255
220 235 255
220 235 255
220 235 255
220 235 255
220 235 255
220 235 255
220 235 255
220 235 255
220 235 255
220 235 255
220 235 255
220 235 255
220 235 255
220 235 255
220 235 255
220 235 255
220 235 255
220 235 255
220 235 255
220 235 255
220 235 255
220 235 255
220 235 255
220 235 255
220 235 255
220 235 255
220 235 255
220 235 255
220 235 255
220 235 255
220 235 255
220 235 255
220 235 255
220 235 255
220 235 255
220 235 255
220 235 255
220 235 255
220 235 255
220 235 255
220 235 255
220 235 255
220 235 255
220 235 255
220 235 255
220 235 255
220 235 255
220 235 255
220 235 255
220 235 255
220 235 255
220 235 255
220 235 255
220 235 255
220 235 255
220 235 255
220 235 255
220 235 255
220 235 255
220 235 255
220 235 255
220 235 255
220 235 255
220 235 255
220 235 255
220 235 255
220 235 255
220 235 255
220 235 255
220 235 255
220 235 255
220 235 255
220 235 255
220 235 255
220 235 255
220 235 255
220 235 255
220 235 255
220 235 255
220 235 255
220 235 255
220 235 255
220 235 255
220 235 255
220 235 255
220 235 255
220 235 255
220 235 255
220 235 255
220 235 255
220 235 255
220 235 255
220 235 255
220 235 255
220 235 255
220 235 255
220 235 255
220 235 255
220 235 255
220 235 255
220 235 255
220 235 255
220 235 255
220 235 255
220 235 255
220 235 255
220 235 255
220 235 255
220 235 255
220 235 255
220 235 255
220 235 255
220 235 255
220 235 255
220 235 255
220 235 255
220 235 255
220 235 255
220 235 255
220 235 255
220 235 255
220 235 255
220 235 255
220 235 255
220 235 255
220 235 255
220 235 255
220 235 255
220 235 255
220 235 255
220 235 255
220 235 255
220 235 255
220 235 255
220 235 255
220 235 255
220 235 255
220 235 255
220 235 255
220 235 255
220 235 255
220 235 255
220 235 255
220 235 255
220 235 255
220 235 255
220 235 255
220 235 255
220 235 255
220 235 255
220 235 255
220 235 255
220 235 255
220 235 255
220 235 255
220 235 255
220 235 255
220 235 255
220 235 255
220 235 255
220 235 255
220 235 255
220 235 255
220 235 255
220 235 255
220 235 255
220 235 255
220 235 255
220 235 255
220 235 255
220 235 255
220 235 255
220 235 255
220 235 255
220 235 255
220 235 255
220 235 255
220 235 255
220 235 255
220 235 255
220 235 255
220 235 255
220 235 255
220 235 255
220 235 255
220 235 255
220 235 255
220 235 255
220 235 255
220 235 255
220 235 255
220 235 255
220 235 255
220 235 255
220 235 255
220 235 255
220 235 255
220 235 255
220 235 255
220 235 255
220 235 255
220 235 255
220 235 255
220 235 255
220 235 255
220 235 255
220 235 255
220 235 255
220 235 255
220 235 255
220 235 255
220 235 255
220 235 255
220 235 255
220 235 255
220 235 255
220 235 255
220 235 255
220 235 255
220 235 255
220 235 255
220 235 255
220 235 255
220 235 255
220 235 255
220 235 255
220 235 255
220 235 255
220 235 255
220 235 255
220 235 255
220 235 255
220 235 255
220 235 255
220 235 255
220 235 255
220 235 255
220 235 255
220 235 255
220 235 255
220 235 255
220 235 255
220 235 255
220 235 255
220 235 255
220 235 255
220 235 255
220 235 255
220 235 255
220 235 255
220 235 255
220 235 255
220 235 255
220 235 255
220 235 255
220 235 255
220 235 255
220 235 255
220 235 255
220 235 255
220 235 255
220 235 255
220 235 255
220 235 255
220 235 255
220 235 255
220 235 255
220 235 255
220 235 255
220 235 255
220 235 255
220 235 255
220 235 255
220 235 255
220 235 255
220 235 255
220 235 255
220 235 255
220 235 255
220 235 255
220 235 255
220 235 255
220 235 255
220 235 255
220 235 255
220 235 255
220 235 255
220 235 255
220 235 255
220 235 255
220 235 255
220 235 255
220 235 255
220 235 255
220 235 255
220 235 255
220 235 255
220 235 255
220 235 255
220 235 255
220 235 255
220 235 255
220 235 255
220 235 255
220 235 255
220 235 255
220 235 255
220 235 255
220 235 255
220 235 255
220 235 255
220 235 255
220 235 255
220 235 255
220 235 255
220 235 255
220 235 255
220 235 255
220 235 255
220 235 255
220 235 255
220 235 255
220 235 255
220 235 255
220 235 255
220 235 255
220 235 255
220 235 255
220 235 255
220 235 255
220 235 255
220 235 255
220 235 255
220 235 255
220 235 255
220 235 255
220 235 255
220 235 255
220 235 255
220 235 255
220 235 255
220 235 255
220 235 255
220 235 255
220 235 255
220 235 255
220 235 255
220 235 255
220 235 255
220 235 255
220 235 255
220 235 255
220 235 255
220 235 255
220 235 255
220 235 255
220 235 255
220 235 255
220 235 255
220 235 255
220 235 255
220 235 255
220 235 255
220 235 255
220 235 255
220 235 255
220 235 255
220 235 255
220 235 255
220 235 255
220 235 255
220 235 255
220 235 255
220 235 255
220 235 255
220 235 255
220 235 255
220 235 255
220 235 255
220 235 255
220 235 255
220 235 255
220 235 255
220 235 255
220 235 255
220 235 255
220 235 255
220 235 255
220 235 255
220 235 255
220 235 255
220 235 255
220 235 255
220 235 255
220 235 255
220 235 255
220 235 255
220 235 255
220 235 255
220 235 255
220 235 255
220 235 255
220 235 255
220 235 255
220 235 255
220 235 255
220 235 255
220 235 255
220 235 255
220 235 255
220 235 255
220 235 255
220 235 255
220 235 255
220 235 255
220 235 255
220 235 255
220 235 255
220 235 255
220 235 255
220 235 255
220 235 255
220 235 255
220 235 255
220 235 255
220 235 255
220 235 255
220 235 255
220 235 255
220 235 255
220 235 255
220 235 255
220 235 255
220 235 255
220 235 255
220 235 255
220 235 255
220 235 255
220 235 255
220 235 255
220 235 255
220 235 255
220 235 255
220 235 255
220 235 255
220 235 255
220 235 255
220 235 255
220 235 255
220 235 255
220 235 255
220 235 255
220 235 255
220 235 255
220 235 255
220 235 255
220 235 255
220 235 255
220 235 255
220 235 255
220 235 255
220 235 255
220 235 255
220 235 255
220 235 255
220 235 255
220 235 255
220 235 255
220 235 255
220 235 255
220 235 255
220 235 255
220 235 255
220 235 255
220 235 255
220 235 255
220 235 255
220 235 255
220 235 255
220 235 255
220 235 255
220 235 255
220 235 255
220 235 255
220 235 255
220 235 255
220 235 255
220 235 255
220 235 255
220 235 255
220 235 255
220 235 255
220 235 255
220 235 255
220 235 255
220 235 255
220 235 255
220 235 255
220 235 255
220 235 255
220 235 255
220 235 255
220 235 255
220 235 255
220 235 255
220 235 255
220 235 255
220 235 255
220 235 255
220 235 255
220 235 255
220 235 255
220 235 255
220 235 255
220 235 255
220 235 255
220 235 255
220 235 255
220 235 255
220 235 255
220 235 255
220 235 255
220 235 255
220 235 255
220 235 255
220 235 255
220 235 255
220 235 255
220 235 255
220 235 255
220 235 255
220 235 255
220 235 255
220 235 255
220 235 255
220 235 255
220 235 255
220 235 255
220 235 255
220 235 255
220 235 255
220 235 255
220 235 255
220 235 255
220 235 255
220 235 255
220 235 255
220 235 255
220 235 255
220 235 255
220 235 255
220 235 255
220 235 255
220 235 255
220 235 255
220 235 255
220 235 255
220 235 255
220 235 255
220 235 255
220 235 255
220 235 255
220 235 255
220 235 255
220 235 255
220 235 255
220 235 255
220 235 255
220 235 255
220 235 255
220 235 255
220 235 255
220 235 255
220 235 255
220 235 255
220 235 255
220 235 255
220 235 255
220 235 255
220 235 255
220 235 255
220 235 255
220 235 255
220 235 255
220 235 255
220 235 255
220 235 255
220 235 255
220 235 255
220 235 255
220 235 255
220 235 255
220 235 255
220 235 255
220 235 255
220 235 255
220 235 255
220 235 255
220 235 255
220 235 255
220 235 255
220 235 255
220 235 255
220 235 255
220 235 255
220 235 255
220 235 255
220 235 255
220 235 255
220 235 255
220 235 255
220 235 255
220 235 255
220 235 255
220 235 255
220 235 255
220 235 255
220 235 255
220 235 255
220 235 255
220 235 255
220 235 255
220 235 255
220 235 255
220 235 255
220 235 255
220 235 255
220 235 255
220 235 255
220 235 255
220 235 255
220 235 255
220 235 255
220 235 255
220 235 255
220 235 255
220 235 255
220 235 255
220 235 255
220 235 255
220 235 255
220 235 255
220 235 255
220 235 255
220 235 255
220 235 255
220 235 255
220 235 255
220 235 255
220 235 255
220 235 255
220 235 255
220 235 255
220 235 255
220 235 255
220 235 255
220 235 255
220 235 255
220 235 255
220 235 255
220 235 255
220 235 255
220 235 255
220 235 255
220 235 255
220 235 255
220 235 255
220 235 255
220 235 255
220 235 255
220 235 255
220 235 255
220 235 255
220 235 255
220 235 255
220 235 255
220 235 255
220 235 255
220 235 255
220 235 255
220 235 255
220 235 255
220 235 255
220 235 255
220 235 255
220 235 255
220 235 255
220 235 255
220 235 255
220 235 255
220 235 255
220 235 255
220 235 255
220 235 255
220 235 255
220 235 255
220 235 255
220 235 255
220 235 255
220 235 255
220 235 255
220 235 255
220 235 255
220 235 255
220 235 255
220 235 255
220 235 255
220 235 255
220 235 255
220 235 255
220 235 255
220 235 255
220 235 255
220 235 255
220 235 255
220 235 255
220 235 255
220 235 255
220 235 255
220 235 255
220 235 255
220 235 255
220 235 255
220 235 255
220 235 255
220 235 255
220 235 255
220 235 255
220 235 255
220 235 255
220 235 255
220 235 255
220 235 255
220 235 255
220 235 255
220 235 255
220 235 255
220 235 255
220 235 255
220 235 255
220 235 255
220 235 255
220 235 255
220 235 255
220 235 255
220 235 255
220 235 255
220 235 255
220 235 255
220 235 255
220 235 255
220 235 255
220 235 255
220 235 255
220 235 255
220 235 255
220 235 255
220 235 255
220 235 255
220 235 255
220 235 255
220 235 255
220 235 255
220 235 255
220 235 255
220 235 255
220 235 255
220 235 255
220 235 255
220 235 255
220 235 255
220 235 255
220 235 255
220 235 255
220 235 255
220 235 255
220 235 255
220 235 255
220 235 255
220 235 255
220 235 255
220 235 255
220 235 255
220 235 255
220 235 255
220 235 255
220 235 255
220 235 255
220 235 255
220 235 255
220 235 255
220 235 255
220 235 255
220 235 255
220 235 255
220 235 255
220 235 255
220 235 255
220 235 255
220 235 255
220 235 255
220 235 255
220 235 255
220 235 255
220 235 255
220 235 255
220 235 255
220 235 255
220 235 255
220 235 255
220 235 255
220 235 255
220 235 255
220 235 255
220 235 255
220 235 255
220 235 255
220 235 255
220 235 255
220 235 255
220 235 255
220 235 255
220 235 255
220 235 255
220 235 255
220 235 255
220 235 255
220 235 255
220 235 255
220 235 255
220 235 255
220 235 255
220 235 255
220 235 255
220 235 255
220 235 255
220 235 255
220 235 255
220 235 255
220 235 255
220 235 255
220 235 255
220 235 255
220 235 255
220 235 255
220 235 255
220 235 255
220 235 255
220 235 255
220 235 255
220 235 255
220 235 255
220 235 255
220 235 255
220 235 255
220 235 255
220 235 255
220 235 255
220 235 255
220 235 255
220 235 255
220 235 255
220 235 255
220 235 255
220 235 255
220 235 255
220 235 255
220 235 255
220 235 255
220 235 255
220 235 255
220 235 255
220 235 255
220 235 255
220 235 255
220 235 255
220 235 255
220 235 255
220 235 255
220 235 255
220 235 255
220 235 255
220 235 255
220 235 255
220 235 255
220 235 255
220 235 255
220 235 255
220 235 255
220 235 255
220 235 255
220 235 255
220 235 255
220 235 255
220 235 255
220 235 255
220 235 255
220 235 255
220 235 255
220 235 255
220 235 255
220 235 255
220 235 255
220 235 255
220 235 255
220 235 255
220 235 255
220 235 255
220 235 255
220 235 255
220 235 255
220 235 255
220 235 255
220 235 255
220 235 255
220 235 255
220 235 255
220 235 255
220 235 255
220 235 255
220 235 255
220 235 255
220 235 255
220 235 255
220 235 255
220 235 255
220 235 255
220 235 255
220 235 255
220 235 255
220 235 255
220 235 255
220 235 255
220 235 255
220 235 255
220 235 255
220 235 255
220 235 255
220 235 255
220 235 255
220 235 255
220 235 255
220 235 255
220 235 255
220 235 255
220 235 255
220 235 255
220 235 255
220 235 255
220 235 255
220 235 255
220 235 255
220 235 255
220 235 255
220 235 255
220 235 255
220 235 255
220 235 255
220 235 255
220 235 255
220 235 255
220 235 255
220 235 255
220 235 255
220 235 255
220 235 255
220 235 255
220 235 255
220 235 255
220 235 255
220 235 255
220 235 255
220 235 255
220 235 255
220 235 255
220 235 255
220 235 255
220 235 255
220 235 255
220 235 255
220 235 255
220 235 255
220 235 255
220 235 255
220 235 255
220 235 255
220 235 255
220 235 255
220 235 255
220 235 255
220 235 255
220 235 255
220 235 255
220 235 255
220 235 255
220 235 255
220 235 255
220 235 255
220 235 255
220 235 255
220 235 255
220 235 255
220 235 255
220 235 255
220 235 255
220 235 255
220 235 255
220 235 255
220 235 255
220 235 255
220 235 255
220 235 255
220 235 255
220 235 255
220 235 255
220 235 255
220 235 255
220 235 255
220 235 255
220 235 255
220 235 255
220 235 255
220 235 255
220 235 255
220 235 255
220 235 255
220 235 255
220 235 255
220 235 255
220 235 255
220 235 255
220 235 255
220 235 255
220 235 255
220 235 255
220 235 255
220 235 255
220 235 255
220 235 255
220 235 255
220 235 255
220 235 255
220 235 255
220 235 255
220 235 255
220 235 255
220 235 255
220 235 255
220 235 255
220 235 255
220 235 255
220 235 255
220 235 255
220 235 255
220 235 255
220 235 255
220 235 255
220 235 255
220 235 255
220 235 255
220 235 255
220 235 255
220 235 255
220 235 255
220 235 255
220 235 255
220 235 255
220 235 255
220 235 255
220 235 255
220 235 255
220 235 255
220 235 255
220 235 255
220 235 255
220 235 255
220 235 255
220 235 255
220 235 255
220 235 255
220 235 255
220 235 255
220 235 255
220 235 255
220 235 255
220 235 255
220 235 255
220 235 255
220 235 255
220 235 255
220 235 255
220 235 255
220 235 255
220 235 255
220 235 255
220 235 255
220 235 255
220 235 255
220 235 255
220 235 255
220 235 255
220 235 255
220 235 255
220 235 255
220 235 255
220 235 255
220 235 255
220 235 255
220 235 255
220 235 255
220 235 255
220 235 255
220 235 255
220 235 255
220 235 255
220 235 255
220 235 255
220 235 255
220 235 255
220 235 255
220 235 255
220 235 255
220 235 255
220 235 255
220 235 255
220 235 255
220 235 255
220 235 255
220 235 255
220 235 255
220 235 255
220 235 255
220 235 255
220 235 255
220 235 255
220 235 255
220 235 255
220 235 255
220 235 255
220 235 255
220 235 255
220 235 255
220 235 255
220 235 255
220 235 255
220 235 255
220 235 255
220 235 255
220 235 255
220 235 255
220 235 255
220 235 255
220 235 255
220 235 255
220 235 255
220 235 255
220 235 255
220 235 255
220 235 255
220 235 255
220 235 255
220 235 255
220 235 255
220 235 255
220 235 255
220 235 255
220 235 255
220 235 255
220 235 255
220 235 255
220 235 255
220 235 255
220 235 255
220 235 255
220 235 255
220 235 255
220 235 255
220 235 255
220 235 255
220 235 255
220 235 255
220 235 255
220 235 255
220 235 255
220 235 255
220 235 255
220 235 255
220 235 255
220 235 255
220 235 255
220 235 255
220 235 255
220 235 255
220 235 255
220 235 255
220 235 255
220 235 255
220 235 255
220 235 255
220 235 255
220 235 255
220 235 255
220 235 255
220 235 255
221 235 255
221 235 255
221 235 255
221 235 255
221 235 255
221 235 255
221 235 255
221 235 255
221 235 255
221 235 255
221 235 255
221 235 255
221 235 255
221 235 255
221 235 255
221 235 255
221 235 255
221 235 255
221 235 255
221 235 255
221 235 255
221 235 255
221 235 255
221 235 255
221 235 255
221 235 255
221 235 255
221 235 255
221 235 255
221 235 255
221 235 255
221 235 255
221 235 255
221 235 255
221 235 255
221 235 255
221 235 255
221 235 255
221 235 255
221 235 255
221 235 255
221 235 255
221 235 255
221 235 255
221 235 255
221 235 255
221 235 255
221 235 255
221 235 255
221 235 255
221 235 255
221 235 255
221 235 255
221 235 255
221 235 255
221 235 255
221 235 255
221 235 255
221 235 255
221 235 255
221 235 255
221 235 255
221 235 255
221 235 255
221 235 255
221 235 255
221 235 255
221 235 255
221 235 255
221 235 255
221 235 255
221 235 255
221 235 255
221 235 255
221 235 255
221 235 255
221 235 255
221 235 255
221 235 255
221 235 255
221 235 255
221 235 255
221 235 255
221 235 255
221 235 255
221 235 255
221 235 255
221 235 255
221 235 255
221 235 255
221 235 255
221 235 255
221 235 255
221 235 255
221 235 255
221 235 255
221 235 255
221 235 255
221 235 255
221 235 255
221 235 255
221 235 255
221 235 255
221 235 255
221 235 255
221 235 255
221 235 255
221 235 255
221 235 255
221 235 255
221 235 255
221 235 255
221 235 255
221 235 255
221 235 255
221 235 255
221 235 255
221 235 255
221 235 255
221 235 255
221 235 255
221 235 255
221 235 255
221 235 255
221 235 255
221 235 255
221 235 255
221 235 255
221 235 255
221 235 255
221 235 255
221 235 255
221 235 255
221 235 255
221 235 255
221 235 255
221 235 255
221 235 255
221 235 255
221 235 255
221 235 255
221 235 255
221 235 255
221 235 255
221 235 255
221 235 255
221 235 255
221 235 255
221 235 255
221 235 255
221 235 255
221 235 255
221 235 255
221 235 255
221 235 255
221 235 255
221 235 255
221 235 255
221 235 255
221 235 255
221 235 255
221 235 255
221 235 255
221 235 255
221 235 255
221 235 255
221 235 255
221 235 255
221 235 255
221 235 255
221 235 255
221 235 255
221 235 255
221 235 255
221 235 255
221 235 255
221 235 255
221 235 255
221 235 255
221 235 255
221 235 255
221 235 255
221 235 255
221 235 255
221 235 255
221 235 255
221 235 255
221 235 255
221 235 255
221 235 255
221 235 255
221 235 255
221 235 255
221 235 255
221 235 255
221 235 255
221 235 255
221 235 255
221 235 255
221 235 255
221 235 255
221 235 255
221 235 255
221 235 255
221 235 255
221 235 255
221 235 255
221 235 255
221 235 255
221 235 255
220 235 255
221 235 255
221 235 255
221 235 255
221 235 255
221 235 255
221 235 255
221 235 255
221 235 255
221 235 255
221 235 255
221 235 255
221 235 255
221 235 255
221 235 255
221 235 255
221 235 255
221 235 255
221 235 255
221 235 255
221 235 255
221 235 255
221 235 255
221 235 255
221 235 255
221 235 255
221 235 255
221 235 255
221 235 255
221 235 255
221 235 255
221 235 255
221 235 255
221 235 255
221 235 255
221 235 255
221 235 255
221 235 255
221 235 255
221 235 255
221 235 255
221 235 255
221 235 255
221 235 255
221 235 255
221 235 255
221 235 255
221 235 255
221 235 255
221 235 255
221 235 255
221 235 255
221 235 255
221 235 255
221 235 255
221 235 255
221 235 255
221 235 255
221 235 255
221 235 255
221 235 255
221 235 255
221 235 255
221 235 255
221 235 255
221 235 255
221 235 255
221 235 255
221 235 255
221 235 255
221 235 255
221 235 255
221 235 255
221 235 255
221 235 255
221 235 255
221 235 255
221 235 255
221 235 255
221 235 255
221 235 255
221 235 255
221 235 255
221 235 255
221 235 255
221 235 255
221 235 255
221 235 255
221 235 255
221 235 255
221 235 255
221 235 255
221 235 255
221 235 255
221 235 255
221 235 255
221 235 255
221 235 255
221 235 255
221 235 255
221 235 255
221 235 255
221 235 255
221 235 255
221 235 255
221 235 255
221 235 255
221 235 255
221 235 255
221 235 255
221 235 255
221 235 255
221 235 255
221 235 255
221 235 255
221 235 255
221 235 255
221 235 255
221 235 255
221 235 255
221 235 255
221 235 255
221 235 255
221 235 255
221 235 255
221 235 255
221 235 255
221 235 255
221 235 255
221 235 255
221 235 255
221 235 255
221 235 255
221 235 255
221 235 255
221 235 255
221 235 255
221 235 255
221 235 255
221 235 255
221 235 255
221 235 255
221 235 255
221 235 255
221 235 255
221 235 255
221 235 255
221 235 255
221 235 255
221 235 255
221 235 255
221 235 255
221 235 255
221 235 255
221 235 255
221 235 255
221 235 255
221 235 255
221 235 255
221 235 255
221 235 255
221 235 255
221 235 255
221 235 255
221 235 255
221 235 255
221 235 255
221 235 255
221 235 255
221 235 255
221 235 255
221 235 255
221 235 255
221 235 255
221 235 255
221 235 255
221 235 255
221 235 255
221 235 255
221 235 255
221 235 255
221 235 255
221 235 255
221 235 255
221 235 255
221 235 255
221 235 255
221 235 255
221 235 255
221 235 255
221 235 255
221 235 255
221 235 255
221 235 255
221 235 255
221 235 255
221 235 255
221 235 255
221 235 255
221 235 255
221 235 255
221 235 255
221 235 255
221 235 255
221 235 255
221 235 255
221 235 255
221 235 255
221 235 255
221 235 255
221 235 255
221 235 255
221 235 255
221 235 255
221 235 255
221 235 255
221 235 255
221 235 255
221 235 255
221 235 255
221 235 255
221 235 255
221 235 255
221 235 255
221 235 255
221 235 255
221 235 255
221 235 255
221 235 255
221 235 255
221 235 255
221 235 255
221 235 255
221 235 255
221 235 255
221 235 255
221 235 255
221 235 255
221 235 255
221 235 255
221 235 255
221 235 255
221 235 255
221 235 255
221 235 255
221 235 255
221 235 255
221 235 255
221 235 255
221 235 255
221 235 255
221 235 255
221 235 255
221 235 255
221 235 255
221 235 255
221 235 255
221 235 255
221 235 255
221 235 255
221 235 255
221 235 255
221 235 255
221 235 255
221 235 255
221 235 255
221 235 255
221 235 255
221 235 255
221 235 255
221 235 255
221 235 255
221 235 255
221 235 255
221 235 255
221 235 255
221 235 255
221 235 255
221 235 255
221 235 255
221 235 255
221 235 255
221 235 255
221 235 255
221 235 255
221 235 255
221 235 255
221 235 255
221 235 255
221 235 255
221 235 255
221 235 255
221 235 255
221 235 255
221 235 255
221 235 255
221 235 255
221 235 255
221 235 255
221 235 255
221 235 255
221 235 255
221 235 255
221 235 255
221 235 255
221 235 255
221 235 255
221 235 255
221 235 255
221 235 255
221 235 255
221 235 255
221 235 255
221 235 255
221 235 255
221 235 255
221 235 255
221 235 255
221 235 255
221 235 255
221 235 255
221 235 255
221 235 255
221 235 255
221 235 255
221 235 255
221 235 255
221 235 255
221 235 255
221 235 255
221 235 255
221 235 255
221 235 255
221 235 255
221 235 255
221 235 255
221 235 255
221 235 255
221 235 255
221 235 255
221 235 255
221 235 255
221 235 255
221 235 255
221 235 255
221 235 255
221 235 255
221 235 255
221 235 255
221 235 255
221 235 255
221 235 255
221 235 255
221 235 255
221 235 255
221 235 255
221 235 255
221 235 255
221 235 255
221 235 255
221 235 255
221 235 255
221 235 255
221 235 255
221 235 255
221 235 255
221 235 255
221 235 255
221 235 255
221 235 255
221 235 255
221 235 255
221 235 255
221 235 255
221 235 255
221 235 255
221 235 255
221 235 255
221 235 255
221 235 255
221 235 255
221 235 255
221 235 255
221 235 255
221 235 255
221 235 255
221 235 255
221 235 255
221 235 255
221 235 255
221 235 255
221 235 255
221 235 255
221 235 255
221 235 255
221 235 255
221 235 255
221 235 255
221 235 255
221 235 255
221 235 255
221 235 255
221 235 255
221 235 255
221 235 255
221 235 255
221 235 255
221 235 255
221 235 255
221 235 255
221 235 255
221 235 255
221 235 255
221 235 255
221 235 255
221 235 255
221 235 255
221 235 255
221 235 255
221 235 255
221 235 255
221 235 255
221 235 255
221 235 255
221 235 255
221 235 255
221 235 255
221 235 255
221 235 255
221 235 255
221 235 255
221 235 255
221 235 255
221 235 255
221 235 255
221 235 255
221 235 255
221 235 255
221 235 255
221 235 255
221 235 255
221 235 255
221 235 255
221 235 255
221 235 255
221 235 255
221 235 255
221 235 255
221 235 255
221 235 255
221 235 255
221 235 255
221 235 255
221 235 255
221 235 255
221 235 255
221 235 255
221 235 255
221 235 255
221 235 255
221 235 255
221 235 255
221 235 255
221 235 255
221 235 255
221 235 255
221 235 255
221 235 255
221 235 255
221 235 255
221 235 255
221 235 255
221 235 255
221 235 255
221 235 255
221 235 255
221 235 255
221 235 255
221 235 255
221 235 255
221 235 255
221 235 255
221 235 255
221 235 255
221 235 255
221 235 255
221 235 255
221 235 255
221 235 255
221 235 255
221 235 255
221 235 255
221 235 255
221 235 255
221 235 255
221 235 255
221 235 255
221 235 255
221 235 255
221 235 255
221 235 255
221 235 255
221 235 255
221 235 255
221 235 255
221 235 255
221 235 255
221 235 255
221 235 255
221 235 255
221 235 255
221 235 255
221 235 255
221 235 255
221 235 255
221 235 255
221 235 255
221 235 255
221 235 255
221 235 255
221 235 255
221 235 255
221 235 255
221 235 255
221 235 255
221 235 255
221 235 255
221 235 255
221 235 255
221 235 255
221 235 255
221 235 255
221 235 255
221 235 255
221 235 255
221 235 255
221 235 255
221 235 255
221 235 255
221 235 255
221 235 255
221 235 255
221 235 255
221 235 255
221 235 255
221 235 255
221 235 255
221 235 255
221 235 255
221 235 255
221 235 255
221 235 255
221 235 255
221 235 255
221 235 255
221 235 255
221 235 255
221 235 255
221 235 255
221 235 255
221 235 255
221 235 255
221 235 255
221 235 255
221 235 255
221 235 255
221 235 255
221 235 255
221 235 255
221 235 255
221 235 255
221 235 255
221 235 255
221 235 255
221 235 255
221 235 255
221 235 255
221 235 255
221 235 255
221 235 255
221 235 255
221 235 255
221 235 255
221 235 255
221 235 255
221 235 255
221 235 255
221 235 255
221 235 255
221 235 255
221 235 255
221 235 255
221 235 255
221 235 255
221 235 255
221 235 255
221 235 255
221 235 255
221 235 255
221 235 255
221 235 255
221 235 255
221 235 255
221 235 255
221 235 255
221 235 255
221 235 255
221 235 255
221 235 255
221 235 255
221 235 255
221 235 255
221 235 255
221 235 255
221 235 255
221 235 255
221 235 255
221 235 255
221 235 255
221 235 255
221 235 255
221 235 255
221 235 255
221 235 255
221 235 255
221 235 255
221 235 255
221 235 255
221 235 255
221 235 255
221 235 255
221 235 255
221 235 255
221 235 255
221 235 255
221 235 255
221 235 255
221 235 255
221 235 255
221 235 255
221 235 255
221 235 255
221 235 255
221 235 255
221 235 255
221 235 255
221 235 255
221 235 255
221 235 255
221 235 255
221 235 255
221 235 255
221 235 255
221 235 255
221 235 255
221 235 255
221 235 255
221 235 255
221 235 255
221 235 255
221 235 255
221 235 255
221 235 255
221 235 255
221 235 255
221 235 255
221 235 255
221 235 255
221 235 255
221 235 255
221 235 255
221 235 255
221 235 255
221 235 255
221 235 255
221 235 255
221 235 255
221 235 255
221 235 255
221 235 255
221 235 255
221 235 255
221 235 255
221 235 255
221 235 255
221 235 255
221 235 255
221 235 255
221 235 255
221 235 255
221 235 255
221 235 255
221 235 255
221 235 255
221 235 255
221 235 255
221 235 255
221 235 255
221 235 255
221 235 255
221 235 255
221 235 255
221 235 255
221 235 255
221 235 255
221 235 255
221 235 255
221 235 255
221 235 255
221 235 255
221 235 255
221 235 255
221 235 255
221 235 255
221 235 255
221 235 255
221 235 255
221 235 255
221 235 255
221 235 255
221 235 255
221 235 255
221 235 255
221 235 255
221 235 255
221 235 255
221 235 255
221 235 255
221 235 255
221 235 255
221 235 255
221 235 255
221 235 255
221 235 255
221 235 255
221 235 255
221 235 255
221 235 255
221 235 255
221 235 255
221 235 255
221 235 255
221 235 255
221 235 255
221 235 255
221 235 255
221 235 255
221 235 255
221 235 255
221 235 255
221 235 255
221 235 255
221 235 255
221 235 255
221 235 255
221 235 255
221 235 255
221 235 255
221 235 255
221 235 255
221 235 255
221 235 255
221 235 255
221 235 255
221 235 255
221 235 255
221 235 255
221 235 255
221 235 255
221 235 255
221 235 255
221 235 255
221 235 255
221 235 255
221 235 255
221 235 255
221 235 255
221 235 255
221 235 255
221 235 255
221 235 255
221 235 255
221 235 255
221 235 255
221 235 255
221 235 255
221 235 255
221 235 255
221 235 255
221 235 255
221 235 255
221 235 255
221 235 255
221 235 255
221 235 255
221 235 255
221 235 255
221 235 255
221 235 255
221 235 255
221 235 255
221 235 255
221 235 255
221 235 255
221 235 255
221 235 255
221 235 255
221 235 255
221 235 255
221 235 255
221 235 255
221 235 255
221 235 255
221 235 255
221 235 255
221 235 255
221 235 255
221 235 255
221 235 255
221 235 255
221 235 255
221 235 255
221 235 255
221 235 255
221 235 255
221 235 255
221 235 255
221 235 255
221 235 255
221 235 255
221 235 255
221 235 255
221 235 255
221 235 255
221 235 255
221 235 255
221 235 255
221 235 255
221 235 255
221 235 255
221 235 255
221 235 255
221 235 255
221 235 255
221 235 255
221 235 255
221 235 255
221 235 255
221 235 255
221 235 255
221 235 255
221 235 255
221 235 255
221 235 255
221 235 255
221 235 255
221 235 255
221 235 255
221 235 255
221 235 255
221 235 255
221 235 255
221 235 255
221 235 255
221 235 255
221 235 255
221 235 255
221 235 255
221 235 255
221 235 255
221 235 255
221 235 255
221 235 255
221 235 255
221 235 255
221 235 255
221 235 255
221 235 255
221 235 255
221 235 255
221 235 255
221 235 255
221 235 255
221 235 255
221 235 255
221 235 255
221 235 255
221 235 255
221 235 255
221 235 255
221 235 255
221 235 255
221 235 255
221 235 255
221 235 255
221 235 255
221 235 255
221 235 255
221 235 255
221 235 255
221 235 255
221 235 255
221 235 255
221 235 255
221 235 255
221 235 255
221 235 255
221 235 255
221 235 255
221 235 255
221 235 255
221 235 255
221 235 255
221 235 255
221 235 255
221 235 255
221 235 255
221 235 255
221 235 255
221 235 255
221 235 255
221 235 255
221 235 255
221 235 255
221 235 255
221 235 255
221 235 255
221 235 255
221 235 255
221 235 255
221 235 255
221 235 255
221 235 255
221 235 255
221 235 255
221 235 255
221 235 255
221 235 255
221 235 255
221 235 255
221 235 255
221 235 255
221 235 255
221 235 255
221 235 255
221 235 255
221 235 255
221 235 255
221 235 255
221 235 255
221 235 255
221 235 255
221 235 255
221 235 255
221 235 255
221 235 255
221 235 255
221 235 255
221 235 255
221 235 255
221 235 255
221 235 255
221 235 255
221 235 255
221 235 255
221 235 255
221 235 255
221 235 255
221 235 255
221 235 255
221 235 255
221 235 255
221 235 255
221 235 255
221 235 255
221 235 255
221 235 255
221 235 255
221 235 255
221 235 255
221 235 255
221 235 255
221 235 255
221 235 255
221 235 255
221 235 255
221 235 255
221 235 255
221 235 255
221 235 255
221 235 255
221 235 255
221 235 255
221 235 255
221 235 255
221 235 255
221 235 255
221 235 255
221 235 255
221 235 255
221 235 255
221 235 255
221 235 255
221 235 255
221 235 255
221 235 255
221 235 255
221 235 255
221 235 255
221 235 255
221 235 255
221 235 255
221 235 255
221 235 255
221 235 255
221 235 255
221 235 255
221 235 255
221 235 255
221 235 255
221 235 255
221 235 255
221 235 255
221 235 255
221 235 255
221 235 255
221 235 255
221 235 255
221 235 255
221 235 255
221 235 255
221 235 255
221 235 255
221 235 255
221 235 255
221 235 255
221 235 255
221 235 255
221 235 255
221 235 255
221 235 255
221 235 255
221 235 255
221 235 255
221 235 255
221 235 255
221 235 255
221 235 255
221 235 255
221 235 255
221 235 255
221 235 255
221 235 255
221 235 255
221 235 255
221 235 255
221 235 255
221 235 255
221 235 255
221 235 255
221 235 255
221 235 255
221 235 255
221 235 255
221 235 255
221 235 255
221 235 255
221 235 255
221 235 255
221 235 255
221 235 255
221 235 255
221 235 255
221 235 255
221 235 255
221 235 255
221 235 255
221 235 255
221 235 255
221 235 255
221 235 255
221 235 255
221 235 255
221 235 255
221 235 255
221 235 255
221 235 255
221 235 255
221 235 255
221 235 255
221 235 255
221 235 255
221 235 255
221 235 255
221 235 255
221 235 255
221 235 255
221 235 255
221 235 255
221 235 255
221 235 255
221 235 255
221 235 255
221 235 255
221 235 255
221 235 255
221 235 255
221 235 255
221 235 255
221 235 255
221 235 255
221 235 255
221 235 255
221 235 255
221 235 255
221 235 255
221 235 255
221 235 255
221 235 255
221 235 255
221 235 255
221 235 255
221 235 255
221 235 255
221 235 255
221 235 255
221 235 255
221 235 255
221 235 255
221 235 255
221 235 255
221 235 255
221 235 255
221 235 255
221 235 255
221 235 255
221 235 255
221 235 255
221 235 255
221 235 255
221 235 255
221 235 255
221 235 255
221 235 255
221 235 255
221 235 255
221 235 255
221 235 255
221 235 255
221 235 255
221 235 255
221 235 255
221 235 255
221 235 255
221 235 255
221 235 255
221 235 255
221 235 255
221 235 255
221 235 255
221 235 255
221 235 255
221 235 255
221 235 255
221 235 255
221 235 255
221 235 255
221 235 255
221 235 255
221 235 255
221 235 255
221 235 255
221 235 255
221 235 255
221 235 255
221 235 255
221 235 255
221 235 255
221 235 255
221 235 255
221 235 255
221 235 255
221 235 255
221 235 255
221 235 255
221 235 255
221 235 255
221 235 255
221 235 255
221 235 255
221 235 255
221 235 255
221 235 255
221 235 255
221 235 255
221 235 255
221 235 255
221 235 255
221 235 255
221 235 255
221 235 255
221 235 255
221 235 255
221 235 255
221 235 255
221 235 255
221 235 255
221 235 255
221 235 255
221 235 255
221 235 255
221 235 255
221 235 255
221 235 255
221 235 255
221 235 255
221 235 255
221 235 255
221 235 255
221 235 255
221 235 255
221 235 255
221 235 255
221 235 255
221 235 255
221 235 255
221 235 255
221 235 255
221 235 255
221 235 255
221 235 255
221 235 255
221 235 255
221 235 255
221 235 255
221 235 255
221 235 255
221 235 255
221 235 255
221 235 255
221 235 255
221 235 255
221 235 255
221 235 255
221 235 255
221 235 255
221 235 255
221 235 255
221 235 255
221 235 255
221 235 255
221 235 255
221 235 255
221 235 255
221 235 255
221 235 255
221 235 255
221 235 255
221 235 255
221 235 255
221 235 255
221 235 255
221 235 255
221 235 255
221 235 255
221 235 255
221 235 255
221 235 255
221 235 255
221 235 255
221 235 255
221 235 255
221 235 255
221 235 255
221 235 255
221 235 255
221 235 255
221 235 255
221 235 255
221 235 255
221 235 255
221 235 255
221 235 255
221 235 255
221 235 255
221 235 255
221 235 255
221 235 255
221 235 255
221 235 255
221 235 255
221 235 255
221 235 255
221 235 255
221 235 255
221 235 255
221 235 255
221 235 255
221 235 255
221 235 255
221 235 255
221 235 255
221 235 255
221 235 255
221 235 255
221 235 255
221 235 255
221 235 255
221 235 255
221 235 255
221 235 255
221 235 255
221 235 255
221 235 255
221 235 255
221 235 255
221 235 255
221 235 255
221 235 255
221 235 255
221 235 255
221 235 255
221 235 255
221 235 255
221 235 255
221 235 255
221 235 255
221 235 255
221 235 255
221 235 255
221 235 255
221 235 255
221 235 255
221 235 255
221 235 255
221 235 255
221 235 255
221 235 255
221 235 255
221 235 255
221 235 255
221 235 255
221 235 255
221 235 255
221 235 255
221 235 255
221 235 255
221 235 255
221 235 255
221 235 255
221 235 255
221 235 255
221 235 255
221 235 255
221 235 255
221 235 255
221 235 255
221 235 255
221 235 255
221 235 255
221 235 255
221 235 255
221 235 255
221 235 255
221 235 255
221 235 255
221 235 255
221 235 255
221 235 255
221 235 255
221 235 255
221 235 255
221 235 255
221 235 255
221 235 255
221 235 255
221 235 255
221 235 255
221 235 255
221 235 255
221 235 255
221 235 255
221 235 255
221 235 255
221 235 255
221 235 255
221 235 255
221 235 255
221 235 255
221 235 255
221 235 255
221 235 255
221 235 255
221 235 255
221 235 255
221 235 255
221 235 255
221 235 255
221 235 255
221 235 255
221 235 255
221 235 255
221 235 255
221 235 255
221 235 255
221 235 255
221 235 255
221 235 255
221 235 255
221 235 255
221 235 255
221 235 255
221 235 255
221 235 255
221 235 255
221 235 255
221 235 255
221 235 255
221 235 255
221 235 255
221 235 255
221 235 255
221 235 255
221 235 255
221 235 255
221 235 255
221 235 255
221 235 255
221 235 255
221 235 255
221 235 255
221 235 255
221 235 255
221 235 255
221 235 255
221 235 255
221 235 255
221 235 255
221 235 255
221 235 255
221 235 255
221 235 255
221 235 255
221 235 255
221 235 255
221 235 255
221 235 255
221 235 255
221 235 255
221 235 255
221 235 255
221 235 255
221 235 255
221 235 255
221 235 255
221 235 255
221 235 255
221 235 255
221 235 255
221 235 255
221 235 255
221 235 255
221 235 255
221 235 255
221 235 255
221 235 255
221 235 255
221 235 255
221 235 255
221 235 255
221 235 255
221 235 255
221 235 255
221 235 255
221 235 255
221 235 255
221 235 255
221 235 255
221 235 255
221 235 255
221 235 255
221 235 255
221 235 255
221 235 255
221 235 255
221 235 255
221 235 255
221 235 255
221 235 255
221 235 255
221 235 255
221 235 255
221 235 255
221 235 255
221 235 255
221 235 255
221 235 255
221 235 255
221 235 255
221 235 255
221 235 255
221 235 255
221 235 255
221 235 255
221 235 255
221 235 255
221 235 255
221 235 255
221 235 255
221 235 255
221 235 255
221 235 255
221 235 255
221 235 255
221 235 255
221 235 255
221 235 255
221 235 255
221 235 255
221 235 255
221 235 255
221 235 255
221 235 255
221 235 255
221 235 255
221 235 255
221 235 255
221 235 255
221 235 255
221 235 255
221 235 255
221 235 255
221 235 255
221 235 255
221 235 255
221 235 255
221 235 255
221 235 255
221 235 255
221 235 255
221 235 255
221 235 255
221 235 255
221 235 255
221 235 255
221 235 255
221 235 255
221 235 255
221 235 255
221 235 255
221 235 255
221 235 255
221 235 255
221 235 255
221 235 255
221 235 255
221 235 255
221 235 255
221 235 255
221 235 255
221 235 255
221 235 255
221 235 255
221 235 255
221 235 255
221 235 255
221 235 255
221 235 255
221 235 255
221 235 255
221 235 255
221 235 255
221 235 255
221 235 255
221 235 255
221 235 255
221 235 255
221 235 255
221 235 255
221 235 255
221 235 255
221 235 255
221 235 255
221 235 255
221 235 255
221 235 255
221 235 255
221 235 255
221 235 255
221 235 255
221 235 255
221 235 255
221 235 255
221 235 255
221 235 255
221 235 255
221 235 255
221 235 255
221 235 255
221 235 255
221 235 255
221 235 255
221 235 255
221 235 255
221 235 255
221 235 255
221 235 255
221 235 255
221 235 255
221 235 255
221 235 255
221 235 255
221 235 255
221 235 255
221 235 255
221 235 255
221 235 255
221 235 255
221 235 255
221 235 255
221 235 255
221 235 255
221 235 255
221 235 255
221 235 255
221 235 255
221 235 255
221 235 255
221 235 255
221 235 255
221 235 255
221 235 255
221 235 255
221 235 255
221 235 255
221 235 255
221 235 255
221 235 255
221 235 255
221 235 255
221 235 255
221 235 255
221 235 255
221 235 255
221 235 255
221 235 255
221 235 255
221 235 255
221 235 255
221 235 255
221 235 255
221 235 255
221 235 255
221 235 255
221 235 255
221 235 255
221 235 255
221 235 255
221 235 255
221 235 255
221 235 255
221 235 255
221 235 255
221 235 255
221 235 255
221 235 255
221 235 255
221 235 255
221 235 255
221 235 255
221 235 255
221 235 255
221 235 255
221 235 255
221 235 255
221 235 255
221 235 255
221 235 255
221 235 255
221 235 255
221 235 255
221 235 255
221 235 255
221 235 255
221 235 255
221 235 255
221 235 255
221 235 255
221 235 255
221 235 255
221 235 255
221 235 255
221 235 255
221 235 255
221 235 255
221 235 255
221 235 255
221 235 255
221 235 255
221 235 255
221 235 255
221 235 255
221 235 255
221 235 255
221 235 255
221 235 255
221 235 255
221 235 255
221 235 255
221 235 255
221 235 255
221 235 255
221 235 255
221 235 255
221 235 255
221 235 255
221 235 255
221 235 255
221 235 255
221 235 255
221 235 255
221 235 255
221 235 255
221 235 255
221 235 255
221 235 255
221 235 255
221 235 255
221 235 255
221 235 255
221 235 255
221 235 255
221 235 255
221 235 255
221 235 255
221 235 255
221 235 255
221 235 255
221 235 255
221 235 255
221 235 255
221 235 255
221 235 255
221 235 255
221 235 255
221 235 255
221 235 255
221 235 255
221 235 255
221 235 255
221 235 255
221 235 255
221 235 255
221 235 255
221 235 255
221 235 255
221 235 255
221 235 255
221 235 255
221 235 255
221 235 255
221 235 255
221 235 255
221 235 255
221 235 255
221 235 255
221 235 255
221 235 255
221 235 255
221 235 255
221 235 255
221 235 255
221 235 255
221 235 255
221 235 255
221 235 255
221 235 255
221 235 255
221 235 255
221 235 255
221 235 255
221 235 255
221 235 255
221 235 255
221 235 255
221 235 255
221 235 255
221 235 255
221 235 255
221 235 255
221 235 255
221 235 255
221 235 255
221 235 255
221 235 255
221 235 255
221 235 255
221 235 255
221 235 255
221 235 255
221 235 255
221 235 255
221 235 255
221 235 255
221 235 255
221 235 255
221 235 255
221 235 255
221 235 255
221 235 255
221 235 255
221 235 255
221 235 255
221 235 255
221 235 255
221 235 255
221 235 255
221 235 255
221 235 255
221 235 255
221 235 255
221 235 255
221 235 255
221 235 255
221 235 255
221 235 255
221 235 255
221 235 255
221 235 255
221 235 255
221 235 255
221 235 255
221 235 255
221 235 255
221 235 255
221 235 255
221 235 255
221 235 255
221 235 255
221 235 255
221 235 255
221 235 255
221 235 255
221 235 255
221 235 255
221 235 255
221 235 255
221 235 255
221 235 255
221 235 255
221 235 255
221 235 255
221 235 255
221 235 255
221 235 255
221 235 255
221 235 255
221 235 255
221 235 255
221 235 255
221 235 255
221 235 255
221 235 255
221 235 255
221 235 255
221 235 255
221 235 255
221 235 255
221 235 255
221 235 255
221 235 255
221 235 255
221 235 255
221 235 255
221 235 255
221 235 255
221 235 255
221 235 255
221 235 255
221 235 255
221 235 255
221 235 255
221 235 255
221 235 255
221 235 255
221 235 255
221 235 255
221 235 255
221 235 255
221 235 255
221 235 255
221 235 255
221 235 255
221 235 255
221 235 255
221 235 255
221 235 255
221 235 255
221 235 255
221 235 255
221 235 255
221 235 255
221 235 255
221 235 255
221 235 255
221 235 255
221 235 255
221 235 255
221 235 255
221 235 255
221 235 255
221 235 255
221 235 255
221 235 255
221 235 255
221 235 255
221 235 255
221 235 255
221 235 255
221 235 255
221 235 255
221 235 255
221 235 255
221 235 255
221 235 255
221 235 255
221 235 255
221 235 255
221 235 255
221 235 255
221 235 255
221 235 255
221 235 255
221 235 255
221 235 255
221 235 255
221 235 255
221 235 255
221 235 255
221 235 255
221 235 255
221 235 255
221 235 255
221 235 255
221 235 255
221 235 255
221 235 255
221 235 255
221 235 255
221 235 255
221 235 255
221 235 255
221 235 255
221 235 255
221 235 255
221 235 255
221 235 255
221 235 255
221 235 255
221 235 255
221 235 255
221 235 255
221 235 255
221 235 255
221 235 255
221 235 255
221 235 255
221 235 255
221 235 255
221 235 255
221 235 255
221 235 255
221 235 255
221 235 255
221 235 255
221 235 255
221 235 255
221 235 255
221 235 255
221 235 255
221 235 255
221 235 255
221 235 255
221 235 255
221 235 255
221 235 255
221 235 255
221 235 255
221 235 255
221 235 255
221 235 255
221 235 255
221 235 255
221 235 255
221 235 255
221 235 255
221 235 255
221 235 255
221 235 255
221 235 255
221 235 255
221 235 255
221 235 255
221 235 255
221 235 255
221 235 255
221 235 255
221 235 255
221 235 255
221 235 255
221 235 255
221 235 255
221 235 255
221 235 255
221 235 255
221 235 255
221 235 255
221 235 255
221 235 255
221 235 255
221 235 255
221 235 255
221 235 255
221 235 255
221 235 255
221 235 255
221 235 255
221 235 255
221 235 255
221 235 255
221 235 255
221 235 255
221 235 255
221 235 255
221 235 255
221 235 255
221 235 255
221 235 255
221 235 255
221 235 255
221 235 255
221 235 255
221 235 255
221 235 255
221 235 255
221 235 255
221 235 255
221 235 255
221 235 255
221 235 255
221 235 255
221 235 255
221 235 255
221 235 255
221 235 255
221 235 255
221 235 255
221 235 255
221 235 255
221 235 255
221 235 255
221 235 255
221 235 255
221 235 255
221 235 255
221 235 255
221 235 255
221 235 255
221 235 255
221 235 255
221 235 255
221 235 255
221 235 255
221 235 255
221 235 255
221 235 255
221 235 255
221 235 255
221 235 255
221 235 255
221 235 255
221 235 255
221 235 255
221 235 255
221 235 255
221 235 255
221 235 255
221 235 255
221 235 255
221 235 255
221 235 255
221 235 255
221 235 255
221 235 255
221 235 255
221 235 255
221 235 255
221 235 255
221 235 255
221 235 255
221 235 255
221 235 255
221 235 255
221 235 255
221 235 255
221 235 255
221 235 255
221 235 255
221 235 255
221 235 255
221 235 255
221 235 255
221 235 255
221 235 255
221 235 255
221 235 255
221 235 255
221 235 255
221 235 255
221 235 255
221 235 255
221 235 255
221 235 255
221 235 255
221 235 255
221 235 255
221 235 255
221 235 255
221 235 255
221 235 255
221 235 255
221 235 255
221 235 255
221 235 255
221 235 255
221 235 255
221 235 255
221 235 255
221 235 255
221 235 255
221 235 255
221 235 255
221 235 255
221 235 255
221 235 255
221 235 255
221 235 255
221 235 255
221 235 255
221 235 255
221 235 255
221 235 255
221 235 255
221 235 255
221 235 255
221 235 255
221 235 255
221 235 255
221 235 255
221 235 255
221 235 255
221 235 255
221 235 255
221 235 255
221 235 255
221 235 255
221 235 255
221 235 255
221 235 255
221 235 255
221 235 255
221 235 255
221 235 255
221 235 255
221 235 255
221 235 255
221 235 255
221 235 255
221 235 255
221 235 255
221 235 255
221 235 255
221 235 255
221 235 255
221 235 255
221 235 255
221 235 255
221 235 255
221 235 255
221 235 255
221 235 255
221 235 255
221 235 255
221 235 255
221 235 255
221 235 255
221 235 255
221 235 255
221 235 255
221 235 255
221 235 255
221 235 255
221 235 255
221 235 255
221 235 255
221 235 255
221 235 255
221 235 255
221 235 255
221 235 255
221 235 255
221 235 255
221 235 255
221 235 255
221 235 255
221 235 255
221 235 255
221 235 255
221 235 255
221 235 255
221 235 255
221 235 255
221 235 255
221 235 255
221 235 255
221 235 255
221 235 255
221 235 255
221 235 255
221 235 255
221 235 255
221 235 255
221 235 255
221 235 255
221 235 255
221 235 255
221 235 255
221 235 255
221 235 255
221 235 255
221 235 255
221 235 255
221 235 255
221 235 255
221 235 255
221 235 255
221 235 255
221 235 255
221 235 255
221 235 255
221 235 255
221 235 255
221 235 255
221 235 255
221 235 255
221 235 255
221 235 255
221 235 255
221 235 255
221 235 255
221 235 255
221 235 255
221 235 255
221 235 255
221 235 255
221 235 255
221 235 255
221 235 255
221 235 255
221 235 255
221 235 255
221 235 255
221 235 255
221 235 255
221 235 255
221 235 255
221 235 255
221 235 255
221 235 255
221 235 255
221 235 255
221 235 255
221 235 255
221 235 255
221 235 255
221 235 255
221 235 255
221 235 255
221 235 255
221 235 255
221 235 255
221 235 255
221 235 255
221 235 255
221 235 255
221 235 255
221 235 255
221 235 255
221 235 255
221 235 255
221 235 255
221 235 255
221 235 255
221 235 255
221 235 255
221 235 255
221 235 255
221 235 255
221 235 255
221 235 255
221 235 255
221 235 255
221 235 255
221 235 255
221 235 255
221 235 255
221 235 255
221 235 255
221 235 255
221 235 255
221 235 255
221 235 255
221 235 255
221 235 255
221 235 255
221 235 255
221 235 255
221 235 255
221 235 255
221 235 255
221 235 255
221 235 255
221 235 255
221 235 255
221 235 255
221 235 255
221 235 255
221 235 255
221 235 255
221 235 255
221 235 255
221 235 255
221 235 255
221 235 255
221 235 255
221 235 255
221 235 255
221 235 255
221 235 255
221 235 255
221 235 255
221 235 255
221 235 255
221 235 255
221 235 255
221 235 255
221 235 255
221 235 255
221 235 255
221 235 255
221 235 255
221 235 255
221 235 255
221 235 255
221 235 255
221 235 255
221 235 255
221 235 255
221 235 255
221 235 255
221 235 255
221 235 255
221 235 255
221 235 255
221 235 255
221 235 255
221 235 255
221 235 255
221 235 255
221 235 255
221 235 255
221 235 255
221 235 255
221 235 255
221 235 255
221 235 255
221 235 255
221 235 255
221 235 255
221 235 255
221 235 255
221 235 255
221 235 255
221 235 255
221 235 255
221 235 255
221 235 255
221 235 255
221 235 255
221 235 255
221 235 255
221 235 255
221 235 255
221 235 255
221 235 255
221 235 255
221 235 255
221 235 255
221 235 255
221 235 255
221 235 255
221 235 255
221 235 255
221 235 255
221 235 255
221 235 255
221 235 255
221 235 255
221 235 255
221 235 255
221 235 255
221 235 255
221 235 255
221 235 255
221 235 255
221 235 255
221 235 255
221 235 255
221 235 255
221 235 255
221 235 255
221 235 255
221 235 255
221 235 255
221 235 255
221 235 255
221 235 255
221 235 255
221 235 255
221 235 255
221 235 255
221 235 255
221 235 255
221 235 255
221 235 255
221 235 255
221 235 255
221 235 255
221 235 255
221 235 255
221 235 255
221 235 255
221 235 255
221 235 255
221 235 255
221 235 255
221 235 255
221 235 255
221 235 255
221 235 255
221 235 255
221 235 255
221 235 255
221 235 255
221 235 255
221 235 255
221 235 255
221 235 255
221 235 255
221 235 255
221 235 255
221 235 255
221 235 255
221 235 255
221 235 255
221 235 255
221 235 255
221 235 255
221 235 255
221 235 255
221 235 255
221 235 255
221 235 255
221 235 255
221 235 255
221 235 255
221 235 255
221 235 255
221 235 255
221 235 255
221 235 255
221 235 255
221 235 255
221 235 255
221 235 255
221 235 255
221 235 255
221 235 255
221 235 255
221 235 255
221 235 255
221 235 255
221 235 255
221 235 255
221 235 255
221 235 255
221 235 255
221 235 255
221 235 255
221 235 255
221 235 255
221 235 255
221 235 255
221 235 255
221 235 255
221 235 255
221 235 255
221 235 255
221 235 255
221 235 255
221 235 255
221 235 255
221 235 255
221 235 255
221 235 255
221 235 255
221 235 255
221 235 255
221 235 255
221 235 255
221 235 255
221 235 255
221 235 255
221 235 255
221 235 255
221 235 255
221 235 255
221 235 255
221 235 255
221 235 255
221 235 255
221 235 255
221 235 255
221 235 255
221 235 255
221 235 255
221 235 255
221 235 255
221 235 255
221 235 255
221 235 255
221 235 255
221 235 255
221 235 255
221 235 255
221 235 255
221 235 255
221 235 255
221 235 255
221 235 255
221 235 255
221 235 255
221 235 255
221 235 255
221 235 255
221 235 255
221 235 255
221 235 255
221 235 255
221 235 255
221 235 255
221 235 255
221 235 255
221 235 255
221 235 255
221 235 255
221 235 255
221 235 255
221 235 255
221 235 255
221 235 255
221 235 255
221 235 255
221 235 255
221 235 255
221 235 255
221 235 255
221 235 255
221 235 255
221 235 255
221 235 255
221 235 255
221 235 255
221 235 255
221 235 255
221 235 255
221 235 255
221 235 255
221 235 255
221 235 255
221 235 255
221 235 255
221 235 255
221 235 255
221 235 255
221 235 255
221 235 255
221 235 255
221 235 255
221 235 255
221 235 255
221 235 255
221 235 255
221 235 255
221 235 255
221 235 255
221 235 255
221 235 255
221 235 255
221 235 255
221 235 255
221 235 255
221 235 255
221 235 255
221 235 255
221 235 255
221 235 255
221 235 255
221 235 255
221 235 255
221 235 255
221 235 255
221 235 255
221 235 255
221 235 255
221 235 255
221 235 255
221 235 255
221 235 255
221 235 255
221 235 255
221 235 255
221 235 255
221 235 255
221 235 255
221 235 255
221 235 255
221 235 255
221 235 255
221 235 255
221 235 255
221 235 255
221 235 255
221 235 255
221 235 255
221 235 255
221 235 255
221 235 255
221 235 255
221 235 255
221 235 255
221 235 255
221 235 255
221 235 255
221 235 255
221 235 255
221 235 255
221 235 255
221 235 255
221 235 255
221 235 255
221 235 255
221 235 255
221 235 255
221 235 255
221 235 255
221 235 255
221 235 255
221 235 255
221 235 255
221 235 255
221 235 255
221 235 255
221 235 255
221 235 255
221 235 255
221 235 255
221 235 255
221 235 255
221 235 255
221 235 255
221 235 255
221 235 255
221 235 255
221 235 255
221 235 255
221 235 255
221 235 255
221 235 255
221 235 255
221 235 255
221 235 255
221 235 255
221 235 255
221 235 255
221 235 255
221 235 255
221 235 255
221 235 255
221 235 255
221 235 255
221 235 255
221 235 255
221 235 255
221 235 255
221 235 255
221 235 255
221 235 255
221 235 255
221 235 255
221 235 255
221 235 255
221 235 255
221 235 255
221 235 255
221 235 255
221 235 255
221 235 255
221 235 255
221 235 255
221 235 255
221 235 255
221 235 255
221 235 255
221 235 255
221 235 255
221 235 255
221 235 255
221 235 255
221 235 255
221 235 255
221 235 255
221 235 255
221 235 255
221 235 255
221 235 255
221 235 255
221 235 255
221 235 255
221 235 255
221 235 255
221 235 255
221 235 255
221 235 255
221 235 255
221 235 255
221 235 255
221 235 255
221 235 255
221 235 255
221 235 255
221 235 255
221 235 255
221 235 255
221 235 255
221 235 255
221 235 255
221 235 255
221 235 255
221 235 255
221 235 255
221 235 255
221 235 255
221 235 255
221 235 255
221 235 255
221 235 255
221 235 255
221 235 255
221 235 255
221 235 255
221 235 255
221 235 255
221 235 255
221 235 255
221 235 255
221 235 255
221 235 255
221 235 255
221 235 255
221 235 255
221 235 255
221 235 255
221 235 255
221 235 255
221 235 255
221 235 255
221 235 255
221 235 255
221 235 255
221 235 255
221 235 255
221 235 255
221 235 255
221 235 255
221 235 255
221 235 255
221 235 255
221 235 255
221 235 255
221 235 255
221 235 255
221 235 255
221 235 255
221 235 255
221 235 255
221 235 255
221 235 255
221 235 255
221 235 255
221 235 255
221 235 255
221 235 255
221 235 255
221 235 255
221 235 255
221 235 255
221 235 255
221 235 255
221 235 255
221 235 255
221 235 255
221 235 255
221 235 255
221 235 255
221 235 255
221 235 255
221 235 255
221 235 255
221 235 255
221 235 255
221 235 255
221 235 255
221 235 255
221 235 255
221 235 255
221 235 255
221 235 255
221 235 255
221 235 255
221 235 255
221 235 255
221 235 255
221 235 255
221 235 255
221 235 255
221 235 255
221 235 255
221 235 255
221 235 255
221 235 255
221 235 255
221 235 255
221 235 255
221 235 255
221 235 255
221 235 255
221 235 255
221 235 255
221 235 255
221 235 255
221 235 255
221 235 255
221 235 255
221 235 255
221 235 255
221 235 255
221 235 255
221 235 255
221 235 255
221 235 255
221 235 255
221 235 255
221 235 255
221 235 255
221 235 255
221 235 255
221 235 255
221 235 255
221 235 255
221 235 255
221 235 255
221 235 255
221 235 255
221 235 255
221 235 255
221 235 255
221 235 255
221 235 255
221 235 255
221 235 255
221 235 255
221 235 255
221 235 255
221 235 255
221 235 255
221 235 255
221 235 255
221 235 255
221 235 255
221 235 255
221 235 255
221 235 255
221 235 255
221 235 255
221 235 255
221 235 255
221 235 255
221 235 255
221 235 255
221 235 255
221 235 255
221 235 255
221 235 255
221 235 255
221 235 255
221 235 255
221 235 255
221 235 255
221 235 255
221 235 255
221 235 255
221 235 255
221 235 255
221 235 255
221 235 255
221 235 255
221 235 255
221 235 255
221 235 255
221 235 255
221 235 255
221 235 255
221 235 255
221 235 255
221 235 255
221 235 255
221 235 255
221 235 255
221 235 255
221 235 255
221 235 255
221 235 255
221 235 255
221 235 255
221 235 255
221 235 255
221 235 255
221 235 255
221 235 255
221 235 255
221 235 255
221 235 255
221 235 255
221 235 255
221 235 255
221 235 255
221 235 255
221 235 255
221 235 255
221 235 255
221 235 255
221 235 255
221 235 255
221 235 255
221 235 255
221 235 255
221 235 255
221 235 255
221 235 255
221 235 255
221 235 255
221 235 255
221 235 255
221 235 255
221 235 255
221 235 255
221 235 255
221 235 255
221 235 255
221 235 255
221 235 255
221 235 255
221 235 255
221 235 255
221 235 255
221 235 255
221 235 255
221 235 255
221 235 255
221 235 255
221 235 255
221 235 255
221 235 255
221 235 255
221 235 255
221 235 255
221 235 255
221 235 255
221 235 255
221 235 255
221 235 255
221 235 255
221 235 255
221 235 255
221 235 255
221 235 255
221 235 255
221 235 255
221 235 255
221 235 255
221 235 255
221 235 255
221 235 255
221 235 255
221 235 255
221 235 255
221 235 255
221 235 255
221 235 255
221 235 255
221 235 255
221 235 255
221 235 255
221 235 255
221 235 255
221 235 255
221 235 255
221 235 255
221 235 255
221 235 255
221 235 255
221 235 255
221 235 255
221 235 255
221 235 255
221 235 255
221 235 255
221 235 255
221 235 255
221 235 255
221 235 255
221 235 255
221 235 255
221 235 255
221 235 255
221 235 255
221 235 255
221 235 255
221 235 255
221 235 255
221 235 255
221 235 255
221 235 255
221 235 255
221 235 255
221 235 255
221 235 255
221 235 255
221 235 255
221 235 255
221 235 255
221 235 255
221 235 255
221 235 255
221 235 255
221 235 255
221 235 255
221 235 255
221 235 255
221 235 255
221 235 255
221 235 255
221 235 255
221 235 255
221 235 255
221 235 255
221 235 255
221 235 255
221 235 255
221 235 255
221 235 255
221 235 255
221 235 255
221 235 255
221 235 255
221 235 255
221 235 255
221 235 255
221 235 255
221 235 255
221 235 255
221 235 255
221 235 255
221 235 255
221 235 255
221 235 255
221 235 255
221 235 255
221 235 255
221 235 255
221 235 255
221 235 255
221 235 255
221 235 255
221 235 255
221 235 255
221 235 255
221 235 255
221 235 255
221 235 255
221 235 255
221 235 255
221 235 255
221 235 255
221 235 255
221 235 255
221 235 255
221 235 255
221 235 255
221 235 255
221 235 255
221 235 255
221 235 255
221 235 255
221 235 255
221 235 255
221 235 255
221 235 255
221 235 255
221 235 255
221 235 255
221 235 255
221 235 255
221 235 255
221 235 255
221 235 255
221 235 255
221 235 255
221 235 255
221 235 255
221 235 255
221 235 255
221 235 255
221 235 255
221 235 255
221 235 255
221 235 255
221 235 255
221 235 255
221 235 255
221 235 255
221 235 255
221 235 255
221 235 255
221 235 255
221 235 255
221 235 255
221 235 255
221 235 255
221 235 255
221 235 255
221 235 255
221 235 255
221 235 255
221 235 255
221 235 255
221 235 255
221 235 255
221 235 255
221 235 255
221 235 255
221 235 255
221 235 255
221 235 255
221 235 255
221 235 255
221 235 255
221 235 255
221 235 255
221 235 255
221 235 255
221 235 255
221 235 255
221 235 255
221 235 255
221 235 255
221 235 255
221 235 255
221 235 255
221 235 255
221 235 255
221 235 255
221 235 255
221 235 255
221 235 255
221 235 255
221 235 255
221 235 255
221 235 255
221 235 255
221 235 255
221 235 255
221 235 255
221 235 255
221 235 255
221 235 255
221 235 255
221 235 255
221 235 255
221 235 255
221 235 255
221 235 255
221 235 255
221 235 255
221 235 255
221 235 255
221 235 255
221 235 255
221 235 255
221 235 255
221 235 255
221 235 255
221 235 255
221 235 255
221 235 255
221 235 255
221 235 255
221 235 255
221 235 255
221 235 255
221 235 255
221 235 255
221 235 255
221 235 255
221 235 255
221 235 255
221 235 255
221 235 255
221 235 255
221 235 255
221 235 255
221 235 255
221 235 255
221 235 255
221 235 255
221 235 255
221 235 255
221 235 255
221 235 255
221 235 255
221 235 255
221 235 255
221 235 255
221 235 255
221 235 255
221 235 255
221 235 255
221 235 255
221 235 255
221 235 255
221 235 255
221 235 255
221 235 255
221 235 255
221 235 255
221 235 255
221 235 255
221 235 255
221 235 255
221 235 255
221 235 255
221 235 255
221 235 255
221 235 255
221 235 255
221 235 255
221 235 255
221 235 255
221 235 255
221 235 255
221 235 255
221 235 255
221 235 255
221 235 255
221 235 255
221 235 255
221 235 255
221 235 255
221 235 255
221 235 255
221 235 255
221 235 255
221 235 255
221 235 255
221 235 255
221 235 255
221 235 255
221 235 255
221 235 255
221 235 255
221 235 255
221 235 255
221 235 255
221 235 255
221 235 255
221 235 255
221 235 255
221 235 255
221 235 255
221 235 255
221 235 255
221 235 255
221 235 255
221 235 255
221 235 255
221 235 255
221 235 255
221 235 255
221 235 255
221 235 255
221 235 255
221 235 255
221 235 255
221 235 255
221 235 255
221 235 255
221 235 255
221 235 255
221 235 255
221 235 255
221 235 255
221 235 255
221 235 255
221 235 255
221 235 255
221 235 255
221 235 255
221 235 255
221 235 255
221 235 255
221 235 255
221 235 255
221 235 255
221 235 255
221 235 255
221 235 255
221 235 255
221 235 255
221 235 255
221 235 255
221 235 255
221 235 255
221 235 255
221 235 255
221 235 255
221 235 255
221 235 255
221 235 255
221 235 255
221 235 255
221 235 255
221 235 255
221 235 255
221 235 255
221 235 255
221 235 255
221 235 255
221 235 255
221 235 255
221 235 255
221 235 255
221 235 255
221 235 255
221 235 255
221 235 255
221 235 255
221 235 255
221 235 255
221 235 255
221 235 255
221 235 255
221 235 255
221 235 255
221 235 255
221 235 255
221 235 255
221 235 255
221 235 255
221 235 255
221 235 255
221 235 255
221 235 255
221 235 255
221 235 255
221 235 255
221 235 255
221 235 255
221 235 255
221 235 255
221 235 255
221 235 255
221 235 255
221 235 255
221 235 255
221 235 255
221 235 255
221 235 255
221 235 255
221 235 255
221 235 255
221 235 255
221 235 255
221 235 255
221 235 255
221 235 255
221 235 255
221 235 255
221 235 255
221 235 255
221 235 255
221 235 255
221 235 255
221 235 255
221 235 255
221 235 255
221 235 255
221 235 255
221 235 255
221 235 255
221 235 255
221 235 255
221 235 255
221 235 255
221 235 255
221 235 255
221 235 255
221 235 255
221 235 255
221 235 255
221 235 255
221 235 255
221 235 255
221 235 255
221 235 255
221 235 255
221 235 255
221 235 255
221 235 255
221 235 255
221 235 255
221 235 255
221 235 255
221 235 255
221 235 255
221 235 255
221 235 255
221 235 255
221 235 255
221 235 255
221 235 255
221 235 255
221 235 255
221 235 255
221 235 255
221 235 255
221 235 255
221 235 255
221 235 255
221 235 255
221 235 255
221 235 255
221 235 255
221 235 255
221 235 255
221 235 255
221 235 255
221 235 255
221 235 255
221 235 255
221 235 255
221 235 255
221 235 255
221 235 255
221 235 255
221 235 255
221 235 255
221 235 255
221 235 255
221 235 255
221 235 255
221 235 255
221 235 255
221 235 255
221 235 255
221 235 255
221 235 255
221 235 255
221 235 255
221 235 255
221 235 255
221 235 255
221 235 255
221 235 255
221 235 255
221 235 255
221 235 255
221 235 255
221 235 255
221 235 255
221 235 255
221 235 255
221 235 255
221 235 255
221 235 255
221 235 255
221 235 255
221 235 255
221 235 255
221 235 255
221 235 255
221 235 255
221 235 255
221 235 255
221 235 255
221 235 255
221 235 255
221 235 255
221 235 255
221 235 255
221 235 255
221 235 255
221 235 255
221 235 255
221 235 255
221 235 255
221 235 255
221 235 255
221 235 255
221 235 255
221 235 255
221 235 255
221 235 255
221 235 255
221 235 255
221 235 255
221 235 255
221 235 255
221 235 255
221 235 255
221 235 255
221 235 255
221 235 255
221 235 255
221 235 255
221 235 255
221 235 255
221 235 255
221 235 255
221 235 255
221 235 255
221 235 255
221 235 255
221 235 255
221 235 255
221 235 255
221 235 255
221 235 255
221 235 255
221 235 255
221 235 255
221 235 255
221 235 255
221 235 255
221 235 255
221 235 255
221 235 255
221 235 255
221 235 255
221 235 255
221 235 255
221 235 255
221 235 255
221 235 255
221 235 255
221 235 255
221 235 255
221 235 255
221 235 255
221 235 255
221 235 255
221 235 255
221 235 255
221 235 255
221 235 255
221 235 255
221 235 255
221 235 255
221 235 255
221 235 255
221 235 255
221 235 255
221 235 255
221 235 255
221 235 255
221 235 255
221 235 255
221 235 255
221 235 255
221 235 255
221 235 255
221 235 255
221 235 255
221 235 255
221 235 255
221 235 255
221 235 255
221 235 255
221 235 255
221 235 255
221 235 255
221 235 255
221 235 255
221 235 255
221 235 255
221 235 255
221 235 255
221 235 255
221 235 255
221 235 255
221 235 255
221 235 255
221 235 255
221 235 255
221 235 255
221 235 255
221 235 255
221 235 255
221 235 255
221 235 255
221 235 255
221 235 255
221 235 255
221 235 255
221 235 255
221 235 255
221 235 255
221 235 255
221 235 255
221 235 255
221 235 255
221 235 255
221 235 255
221 235 255
221 235 255
221 235 255
221 235 255
221 235 255
221 235 255
221 235 255
221 235 255
221 235 255
221 235 255
221 235 255
221 235 255
221 235 255
221 235 255
221 235 255
221 235 255
221 235 255
221 235 255
221 235 255
221 235 255
221 235 255
221 235 255
221 235 255
221 235 255
221 235 255
221 235 255
221 235 255
221 235 255
221 235 255
221 235 255
221 235 255
221 235 255
221 235 255
221 235 255
221 235 255
221 235 255
221 235 255
221 235 255
221 235 255
221 235 255
221 235 255
221 235 255
221 235 255
221 235 255
221 235 255
221 235 255
221 235 255
221 235 255
221 235 255
221 235 255
221 235 255
221 235 255
221 235 255
221 235 255
221 235 255
221 235 255
221 235 255
221 235 255
221 235 255
221 235 255
221 235 255
221 235 255
221 235 255
221 235 255
221 235 255
221 235 255
221 235 255
221 235 255
221 235 255
221 235 255
221 235 255
221 235 255
221 235 255
221 235 255
221 235 255
221 235 255
221 235 255
221 235 255
221 235 255
221 235 255
221 235 255
221 235 255
221 235 255
221 235 255
221 235 255
221 235 255
221 235 255
221 235 255
221 235 255
221 235 255
221 235 255
221 235 255
221 235 255
221 235 255
221 235 255
221 235 255
221 235 255
221 235 255
221 235 255
221 235 255
221 235 255
221 235 255
221 235 255
221 235 255
221 235 255
221 235 255
221 235 255
221 235 255
221 235 255
221 235 255
221 235 255
221 235 255
221 235 255
221 235 255
221 235 255
221 235 255
221 235 255
221 235 255
221 235 255
221 235 255
221 235 255
221 235 255
221 235 255
221 235 255
221 235 255
221 235 255
221 235 255
221 235 255
221 235 255
221 235 255
221 235 255
221 235 255
221 235 255
221 235 255
221 235 255
221 235 255
221 235 255
221 235 255
221 235 255
221 235 255
221 235 255
221 235 255
221 235 255
221 235 255
221 235 255
221 235 255
221 235 255
221 235 255
221 235 255
221 235 255
221 235 255
221 235 255
221 235 255
221 235 255
221 235 255
221 235 255
221 235 255
221 235 255
221 235 255
221 235 255
221 235 255
221 235 255
221 235 255
221 235 255
221 235 255
221 235 255
221 235 255
221 235 255
221 235 255
221 235 255
221 235 255
221 235 255
221 235 255
221 235 255
221 235 255
221 235 255
221 235 255
221 235 255
221 235 255
221 235 255
221 235 255
221 235 255
221 235 255
221 235 255
221 235 255
221 235 255
221 235 255
221 235 255
221 235 255
221 235 255
221 235 255
221 235 255
221 235 255
221 235 255
221 235 255
221 235 255
221 235 255
221 235 255
221 235 255
221 235 255
221 235 255
221 235 255
221 235 255
221 235 255
221 235 255
221 235 255
221 235 255
221 235 255
221 235 255
221 235 255
221 235 255
221 235 255
221 235 255
221 235 255
221 235 255
221 235 255
221 235 255
221 235 255
221 235 255
221 235 255
221 235 255
221 235 255
221 235 255
221 235 255
221 235 255
221 235 255
221 235 255
221 235 255
221 235 255
221 235 255
221 235 255
221 235 255
221 235 255
221 235 255
221 235 255
221 235 255
221 235 255
221 235 255
221 235 255
221 235 255
221 235 255
221 235 255
221 235 255
221 235 255
221 235 255
221 235 255
221 235 255
221 235 255
221 235 255
221 235 255
221 235 255
221 235 255
221 235 255
221 235 255
221 235 255
221 235 255
221 235 255
221 235 255
221 235 255
221 235 255
221 235 255
221 235 255
221 235 255
221 235 255
221 235 255
221 235 255
221 235 255
221 235 255
221 235 255
221 235 255
221 235 255
221 235 255
221 235 255
221 235 255
221 235 255
221 235 255
221 235 255
221 235 255
221 235 255
221 235 255
221 235 255
221 235 255
221 235 255
221 235 255
221 235 255
221 235 255
221 235 255
221 235 255
221 235 255
221 235 255
221 235 255
221 235 255
221 235 255
221 235 255
221 235 255
221 235 255
221 235 255
221 235 255
221 235 255
221 235 255
221 235 255
221 235 255
221 235 255
221 235 255
221 235 255
221 235 255
221 235 255
221 235 255
221 235 255
221 235 255
221 235 255
221 235 255
221 235 255
221 235 255
221 235 255
221 235 255
221 235 255
221 235 255
221 235 255
221 235 255
221 235 255
221 235 255
221 235 255
221 235 255
221 235 255
221 235 255
221 235 255
221 235 255
221 235 255
221 235 255
221 235 255
221 235 255
221 235 255
221 235 255
221 235 255
221 235 255
221 235 255
221 235 255
221 235 255
221 235 255
221 235 255
221 235 255
221 235 255
221 235 255
221 235 255
221 235 255
221 235 255
221 235 255
221 235 255
221 235 255
221 235 255
221 235 255
221 235 255
221 235 255
221 235 255
221 235 255
221 235 255
221 235 255
221 235 255
221 235 255
221 235 255
221 235 255
221 235 255
221 235 255
221 235 255
221 235 255
221 235 255
221 235 255
221 235 255
221 235 255
221 235 255
221 235 255
221 235 255
221 235 255
221 235 255
221 235 255
221 235 255
221 235 255
221 235 255
221 235 255
221 235 255
221 235 255
221 235 255
221 235 255
221 235 255
221 235 255
221 235 255
221 235 255
221 235 255
221 235 255
221 235 255
221 235 255
221 235 255
221 235 255
221 235 255
221 235 255
221 235 255
221 235 255
221 235 255
221 235 255
221 235 255
221 235 255
221 235 255
221 235 255
221 235 255
221 235 255
221 235 255
221 235 255
221 235 255
221 235 255
221 235 255
221 235 255
221 235 255
221 235 255
221 235 255
221 235 255
221 235 255
221 235 255
221 235 255
221 235 255
221 235 255
221 235 255
221 235 255
221 235 255
221 235 255
221 235 255
221 235 255
221 235 255
221 235 255
221 235 255
221 235 255
221 235 255
221 235 255
221 235 255
221 235 255
221 235 255
221 235 255
221 235 255
221 235 255
221 235 255
221 235 255
221 235 255
221 235 255
221 235 255
221 235 255
221 235 255
221 235 255
221 235 255
221 235 255
221 235 255
221 235 255
221 235 255
221 235 255
221 235 255
221 235 255
221 235 255
221 235 255
221 235 255
221 235 255
221 235 255
221 235 255
221 235 255
221 235 255
221 235 255
221 235 255
221 235 255
221 235 255
221 235 255
221 235 255
221 235 255
221 235 255
221 235 255
221 235 255
221 235 255
221 235 255
221 235 255
221 235 255
221 235 255
221 235 255
221 235 255
221 235 255
221 235 255
221 235 255
221 235 255
221 235 255
221 235 255
221 235 255
221 235 255
221 235 255
221 235 255
221 235 255
221 235 255
221 235 255
221 235 255
221 235 255
221 235 255
221 235 255
221 235 255
221 235 255
221 235 255
221 235 255
221 235 255
221 235 255
221 235 255
221 235 255
221 235 255
221 235 255
221 235 255
221 235 255
221 235 255
221 235 255
221 235 255
221 235 255
221 235 255
221 235 255
221 235 255
221 235 255
221 235 255
221 235 255
221 235 255
221 235 255
221 235 255
221 235 255
221 235 255
221 235 255
221 235 255
221 235 255
221 235 255
221 235 255
221 235 255
221 235 255
221 235 255
221 235 255
221 235 255
221 235 255
221 235 255
221 235 255
221 235 255
221 235 255
221 235 255
221 235 255
221 235 255
221 235 255
221 235 255
221 235 255
221 235 255
221 235 255
221 235 255
221 235 255
221 235 255
221 235 255
221 235 255
221 235 255
221 235 255
221 235 255
221 235 255
221 235 255
221 235 255
221 235 255
221 235 255
221 235 255
221 235 255
221 235 255
221 235 255
221 235 255
221 235 255
221 235 255
221 235 255
221 235 255
221 235 255
221 235 255
221 235 255
221 235 255
221 235 255
221 235 255
221 235 255
221 235 255
221 235 255
221 235 255
221 235 255
221 235 255
221 235 255
221 235 255
221 235 255
221 235 255
221 235 255
221 235 255
221 235 255
221 235 255
221 235 255
221 235 255
221 235 255
221 235 255
221 235 255
221 235 255
221 235 255
221 235 255
221 235 255
221 235 255
221 235 255
221 235 255
221 235 255
221 235 255
221 235 255
221 235 255
221 235 255
221 235 255
221 235 255
221 235 255
221 235 255
221 235 255
221 235 255
221 235 255
221 235 255
221 235 255
221 235 255
221 235 255
221 235 255
221 235 255
221 235 255
221 235 255
221 235 255
221 235 255
221 235 255
221 235 255
221 235 255
221 235 255
221 235 255
221 235 255
221 235 255
221 235 255
221 235 255
221 235 255
221 235 255
221 235 255
221 235 255
221 235 255
221 235 255
221 235 255
221 235 255
221 235 255
221 235 255
221 235 255
221 235 255
221 235 255
221 235 255
221 235 255
221 235 255
221 235 255
221 235 255
221 235 255
221 235 255
221 235 255
221 235 255
221 235 255
221 235 255
221 235 255
221 235 255
221 235 255
221 235 255
221 235 255
221 235 255
221 235 255
221 235 255
221 235 255
221 235 255
221 235 255
221 235 255
221 235 255
221 235 255
221 235 255
221 235 255
221 235 255
221 235 255
221 235 255
221 235 255
221 235 255
221 235 255
221 235 255
221 235 255
221 235 255
221 235 255
221 235 255
221 235 255
221 235 255
221 235 255
221 235 255
221 235 255
221 235 255
221 235 255
221 235 255
221 235 255
221 235 255
221 235 255
221 235 255
221 235 255
221 235 255
221 235 255
221 235 255
221 235 255
221 235 255
221 235 255
221 235 255
221 235 255
221 235 255
221 235 255
221 235 255
221 235 255
221 235 255
221 235 255
221 235 255
221 235 255
221 235 255
221 235 255
221 235 255
221 235 255
221 235 255
221 235 255
221 235 255
221 235 255
221 235 255
221 235 255
221 235 255
221 235 255
221 235 255
221 235 255
221 235 255
221 235 255
221 235 255
221 235 255
221 235 255
221 235 255
221 235 255
221 235 255
221 235 255
221 235 255
221 235 255
221 235 255
221 235 255
221 235 255
221 235 255
221 235 255
221 235 255
221 235 255
221 235 255
221 235 255
221 235 255
221 235 255
221 235 255
221 235 255
221 235 255
221 235 255
221 235 255
221 235 255
221 235 255
221 235 255
221 235 255
221 235 255
221 235 255
221 235 255
221 235 255
221 235 255
221 235 255
221 235 255
221 235 255
221 235 255
221 235 255
221 235 255
221 235 255
221 235 255
221 235 255
221 235 255
221 235 255
221 235 255
221 235 255
221 235 255
221 235 255
221 235 255
221 235 255
221 235 255
221 235 255
221 235 255
221 235 255
221 235 255
221 235 255
221 235 255
221 235 255
221 235 255
221 235 255
221 235 255
221 235 255
221 235 255
221 235 255
221 235 255
221 235 255
221 235 255
221 235 255
221 235 255
221 235 255
221 235 255
221 235 255
221 235 255
221 235 255
221 235 255
221 235 255
221 235 255
221 235 255
221 235 255
221 235 255
221 235 255
221 235 255
221 235 255
221 235 255
221 235 255
221 235 255
221 235 255
221 235 255
221 235 255
221 235 255
221 235 255
221 235 255
221 235 255
221 235 255
221 235 255
221 235 255
221 235 255
221 235 255
221 235 255
221 235 255
221 235 255
221 235 255
221 235 255
221 235 255
221 235 255
221 235 255
221 235 255
221 235 255
221 235 255
221 235 255
221 235 255
221 235 255
221 235 255
221 235 255
221 235 255
221 235 255
221 235 255
221 235 255
221 235 255
221 235 255
221 235 255
221 235 255
221 235 255
221 235 255
221 235 255
221 235 255
221 235 255
221 235 255
221 235 255
221 235 255
221 235 255
221 235 255
221 235 255
221 235 255
221 235 255
221 235 255
221 235 255
221 235 255
221 235 255
221 235 255
221 235 255
221 235 255
221 235 255
221 235 255
221 235 255
221 235 255
221 235 255
221 235 255
221 235 255
221 235 255
221 235 255
221 235 255
221 235 255
221 235 255
221 235 255
221 235 255
221 235 255
221 235 255
221 235 255
221 235 255
221 235 255
221 235 255
221 235 255
221 235 255
221 235 255
221 235 255
221 235 255
221 235 255
221 235 255
221 235 255
221 235 255
221 235 255
221 235 255
221 235 255
221 235 255
221 235 255
221 235 255
221 235 255
221 235 255
221 235 255
221 235 255
221 235 255
221 235 255
221 235 255
221 235 255
221 235 255
221 235 255
221 235 255
221 235 255
221 235 255
221 235 255
221 235 255
221 235 255
221 235 255
221 235 255
221 235 255
221 235 255
221 235 255
221 236 255
221 236 255
221 236 255
221 236 255
221 236 255
221 236 255
221 236 255
221 236 255
221 236 255
221 236 255
221 236 255
221 236 255
221 236 255
221 236 255
221 236 255
221 236 255
221 236 255
221 236 255
221 236 255
221 236 255
221 236 255
221 236 255
221 236 255
221 236 255
221 236 255
221 236 255
221 236 255
221 236 255
221 236 255
221 236 255
221 236 255
221 236 255
221 236 255
221 236 255
221 236 255
221 236 255
221 236 255
221 236 255
221 236 255
221 236 255
221 236 255
221 236 255
221 236 255
221 236 255
221 236 255
221 236 255
221 236 255
221 236 255
221 236 255
221 236 255
221 236 255
221 236 255
221 236 255
221 236 255
221 236 255
221 236 255
221 236 255
221 236 255
221 236 255
221 236 255
221 236 255
221 236 255
221 236 255
221 236 255
221 236 255
221 236 255
221 236 255
221 236 255
221 236 255
221 236 255
221 236 255
221 236 255
221 236 255
221 236 255
221 236 255
221 236 255
221 236 255
221 236 255
221 236 255
221 236 255
221 236 255
221 236 255
221 236 255
221 236 255
221 236 255
221 236 255
221 236 255
221 236 255
221 236 255
221 236 255
221 236 255
221 236 255
221 236 255
221 236 255
221 236 255
221 236 255
221 236 255
221 236 255
221 236 255
221 236 255
221 236 255
221 236 255
221 236 255
221 236 255
221 236 255
221 236 255
221 236 255
221 236 255
221 236 255
221 236 255
221 236 255
221 236 255
221 236 255
221 236 255
221 236 255
221 236 255
221 236 255
221 236 255
221 236 255
221 236 255
221 236 255
221 236 255
221 236 255
221 236 255
221 236 255
221 236 255
221 236 255
221 236 255
221 236 255
221 236 255
221 236 255
221 236 255
221 236 255
221 236 255
221 236 255
221 236 255
221 236 255
221 236 255
221 236 255
221 236 255
221 236 255
221 236 255
221 236 255
221 236 255
221 236 255
221 236 255
221 236 255
221 236 255
221 236 255
221 236 255
221 236 255
221 236 255
221 236 255
221 236 255
221 236 255
221 236 255
221 236 255
221 236 255
221 236 255
221 236 255
221 236 255
221 236 255
221 236 255
221 236 255
221 236 255
221 236 255
221 236 255
221 236 255
221 236 255
221 236 255
221 236 255
221 236 255
221 236 255
221 236 255
221 236 255
221 236 255
221 236 255
221 236 255
221 236 255
221 236 255
221 236 255
221 236 255
221 236 255
221 236 255
221 236 255
221 236 255
221 236 255
221 236 255
221 236 255
221 236 255
221 236 255
221 236 255
221 236 255
221 236 255
221 236 255
221 236 255
219 234 255
219 234 255
216 233 255
217 233 255
217 233 255
216 233 255
219 234 255
219 234 255
221 235 255
221 236 255
221 236 255
221 236 255
221 236 255
221 236 255
221 236 255
221 236 255
221 236 255
221 236 255
221 236 255
221 236 255
221 236 255
221 236 255
221 236 255
221 236 255
221 236 255
221 236 255
221 236 255
221 236 255
221 236 255
221 236 255
221 236 255
221 236 255
221 236 255
221 236 255
221 236 255
221 236 255
221 236 255
221 236 255
221 236 255
221 236 255
221 236 255
221 236 255
221 236 255
221 236 255
221 236 255
221 236 255
221 236 255
221 236 255
221 236 255
221 236 255
221 236 255
221 236 255
221 236 255
221 236 255
221 236 255
221 236 255
221 236 255
221 236 255
221 236 255
221 236 255
221 236 255
221 236 255
221 236 255
221 236 255
221 236 255
221 236 255
221 236 255
221 236 255
221 236 255
221 236 255
221 236 255
221 236 255
221 236 255
221 236 255
221 236 255
221 236 255
221 236 255
221 236 255
221 236 255
221 236 255
221 236 255
221 236 255
221 236 255
221 236 255
221 236 255
221 236 255
221 236 255
221 236 255
221 236 255
221 236 255
221 236 255
221 236 255
221 236 255
221 236 255
221 236 255
221 236 255
221 236 255
221 236 255
221 236 255
221 236 255
221 236 255
221 236 255
221 236 255
221 236 255
221 236 255
221 236 255
221 236 255
221 236 255
221 236 255
221 236 255
221 236 255
221 236 255
221 236 255
221 236 255
221 236 255
221 236 255
221 236 255
221 236 255
221 236 255
221 236 255
221 236 255
221 236 255
221 236 255
221 236 255
221 236 255
221 236 255
221 236 255
221 236 255
221 236 255
221 236 255
221 236 255
221 236 255
221 236 255
221 236 255
221 236 255
221 236 255
221 236 255
221 236 255
221 236 255
221 236 255
221 236 255
221 236 255
221 236 255
221 236 255
221 236 255
221 236 255
221 236 255
221 236 255
221 236 255
221 236 255
221 236 255
221 236 255
221 236 255
221 236 255
221 236 255
221 236 255
221 236 255
221 236 255
221 236 255
221 236 255
221 236 255
221 236 255
221 236 255
221 236 255
221 236 255
221 236 255
221 236 255
221 236 255
221 236 255
221 236 255
221 236 255
221 236 255
221 236 255
221 236 255
221 236 255
221 236 255
221 236 255
221 236 255
221 236 255
221 236 255
221 236 255
221 236 255
221 236 255
221 236 255
221 236 255
221 236 255
221 236 255
221 236 255
221 236 255
221 236 255
221 236 255
221 236 255
221 236 255
221 236 255
221 236 255
221 236 255
221 236 255
221 236 255
221 236 255
221 236 255
221 236 255
221 236 255
221 236 255
221 236 255
221 236 255
221 236 255
221 236 255
221 236 255
221 236 255
221 236 255
221 236 255
221 236 255
221 236 255
221 236 255
221 236 255
221 236 255
221 236 255
221 236 255
221 236 255
221 236 255
221 236 255
221 236 255
221 236 255
221 236 255
221 236 255
221 236 255
221 236 255
221 236 255
221 236 255
221 236 255
221 236 255
221 236 255
221 236 255
221 236 255
221 236 255
221 236 255
221 236 255
221 236 255
221 236 255
221 236 255
221 236 255
221 236 255
221 236 255
221 236 255
221 236 255
221 236 255
221 236 255
221 236 255
221 236 255
221 236 255
221 236 255
221 236 255
221 236 255
221 236 255
221 236 255
221 236 255
221 236 255
221 236 255
221 236 255
221 236 255
221 236 255
221 236 255
221 236 255
221 236 255
221 236 255
221 236 255
221 236 255
221 236 255
221 236 255
221 236 255
221 236 255
221 236 255
221 236 255
221 236 255
221 236 255
221 236 255
221 236 255
221 236 255
221 236 255
221 236 255
221 236 255
221 236 255
221 236 255
221 236 255
221 236 255
221 236 255
221 236 255
221 236 255
221 236 255
221 236 255
221 236 255
221 236 255
221 236 255
221 236 255
221 236 255
221 236 255
221 236 255
221 236 255
221 236 255
221 236 255
221 236 255
221 236 255
221 236 255
221 236 255
221 236 255
221 236 255
221 236 255
221 236 255
221 236 255
221 236 255
221 236 255
221 236 255
221 236 255
221 236 255
221 236 255
221 236 255
221 236 255
221 236 255
221 236 255
221 236 255
221 236 255
221 236 255
221 236 255
221 236 255
221 236 255
221 236 255
221 236 255
221 236 255
221 236 255
221 236 255
221 236 255
221 236 255
221 236 255
221 236 255
221 236 255
221 236 255
221 236 255
221 236 255
221 236 255
221 236 255
221 236 255
221 236 255
221 236 255
221 236 255
221 236 255
221 236 255
221 236 255
221 236 255
221 236 255
221 236 255
221 236 255
221 236 255
221 236 255
221 236 255
221 236 255
221 236 255
221 236 255
221 236 255
221 236 255
221 236 255
221 236 255
221 236 255
221 236 255
221 236 255
221 236 255
221 236 255
221 236 255
221 236 255
221 236 255
221 236 255
221 236 255
221 236 255
221 236 255
221 236 255
221 236 255
221 236 255
221 236 255
221 236 255
221 236 255
221 236 255
221 236 255
221 236 255
221 236 255
221 236 255
221 236 255
221 236 255
221 236 255
221 236 255
221 236 255
217 232 253
215 231 254
210 228 252
204 223 249
203 222 249
197 217 245
193 215 245
184 208 241
190 215 249
191 215 249
189 213 246
180 204 239
169 192 226
191 216 250
191 217 251
188 214 248
194 221 255
195 221 255
195 221 255
196 222 255
194 221 255
197 222 255
201 224 255
200 223 254
196 218 247
187 205 232
196 212 235
201 216 238
206 220 242
220 235 255
221 236 255
221 236 255
221 236 255
221 236 255
221 236 255
221 236 255
221 236 255
221 236 255
221 236 255
221 236 255
221 236 255
221 236 255
221 236 255
221 236 255
221 236 255
221 236 255
221 236 255
221 236 255
221 236 255
221 236 255
221 236 255
221 236 255
221 236 255
221 236 255
221 236 255
221 236 255
221 236 255
221 236 255
221 236 255
221 236 255
221 236 255
221 236 255
221 236 255
221 236 255
221 236 255
221 236 255
221 236 255
221 236 255
221 236 255
221 236 255
221 236 255
221 236 255
221 236 255
221 236 255
221 236 255
221 236 255
221 236 255
221 236 255
221 236 255
221 236 255
221 236 255
221 236 255
221 236 255
221 236 255
221 236 255
221 236 255
221 236 255
221 236 255
221 236 255
221 236 255
221 236 255
221 236 255
221 236 255
221 236 255
221 236 255
221 236 255
221 236 255
221 236 255
221 236 255
221 236 255
221 236 255
221 236 255
221 236 255
221 236 255
221 236 255
221 236 255
221 236 255
221 236 255
221 236 255
221 236 255
221 236 255
221 236 255
221 236 255
221 236 255
221 236 255
221 236 255
221 236 255
221 236 255
221 236 255
221 236 255
221 236 255
221 236 255
221 236 255
221 236 255
221 236 255
221 236 255
221 236 255
221 236 255
221 236 255
221 236 255
221 236 255
221 236 255
221 236 255
221 236 255
221 236 255
221 236 255
221 236 255
221 236 255
221 236 255
221 236 255
221 236 255
221 236 255
221 236 255
221 236 255
221 236 255
221 236 255
221 236 255
221 236 255
221 236 255
221 236 255
221 236 255
221 236 255
221 236 255
221 236 255
221 236 255
221 236 255
221 236 255
221 236 255
221 236 255
221 236 255
221 236 255
221 236 255
221 236 255
221 236 255
221 236 255
221 236 255
221 236 255
221 236 255
221 236 255
221 236 255
221 236 255
221 236 255
221 236 255
221 236 255
221 236 255
221 236 255
221 236 255
221 236 255
221 236 255
221 236 255
221 236 255
221 236 255
221 236 255
221 236 255
221 236 255
221 236 255
221 236 255
221 236 255
221 236 255
221 236 255
221 236 255
221 236 255
221 236 255
221 236 255
221 236 255
221 236 255
221 236 255
221 236 255
221 236 255
221 236 255
221 236 255
221 236 255
221 236 255
221 236 255
221 236 255
221 236 255
221 236 255
221 236 255
221 236 255
221 236 255
221 236 255
221 236 255
221 236 255
221 236 255
221 236 255
221 236 255
221 236 255
221 236 255
221 236 255
221 236 255
221 236 255
221 236 255
221 236 255
221 236 255
221 236 255
221 236 255
221 236 255
221 236 255
221 236 255
221 236 255
221 236 255
221 236 255
221 236 255
221 236 255
221 236 255
221 236 255
221 236 255
221 236 255
221 236 255
221 236 255
221 236 255
221 236 255
221 236 255
221 236 255
221 236 255
221 236 255
221 236 255
221 236 255
221 236 255
221 236 255
221 236 255
221 236 255
221 236 255
221 236 255
221 236 255
221 236 255
221 236 255
221 236 255
221 236 255
221 236 255
221 236 255
221 236 255
221 236 255
221 236 255
221 236 255
221 236 255
221 236 255
221 236 255
221 236 255
221 236 255
221 236 255
221 236 255
221 236 255
221 236 255
221 236 255
221 236 255
221 236 255
221 236 255
221 236 255
221 236 255
221 236 255
221 236 255
221 236 255
221 236 255
221 236 255
221 236 255
221 236 255
221 236 255
221 236 255
221 236 255
221 236 255
221 236 255
221 236 255
221 236 255
221 236 255
221 236 255
221 236 255
221 236 255
221 236 255
221 236 255
221 236 255
221 236 255
221 236 255
221 236 255
221 236 255
221 236 255
221 236 255
221 236 255
221 236 255
221 236 255
221 236 255
221 236 255
221 236 255
221 236 255
221 236 255
221 236 255
221 236 255
221 236 255
221 236 255
221 236 255
221 236 255
221 236 255
221 236 255
221 236 255
221 236 255
221 236 255
221 236 255
221 236 255
221 236 255
221 236 255
221 236 255
221 236 255
221 236 255
221 236 255
221 236 255
221 236 255
221 236 255
221 236 255
221 236 255
221 236 255
221 236 255
221 236 255
221 236 255
221 236 255
221 236 255
221 236 255
221 236 255
221 236 255
221 236 255
221 236 255
221 236 255
221 236 255
221 236 255
221 236 255
221 236 255
221 236 255
221 236 255
221 236 255
221 236 255
221 236 255
221 236 255
221 236 255
221 236 255
221 236 255
221 236 255
221 236 255
221 236 255
221 236 255
221 236 255
221 236 255
221 236 255
221 236 255
221 236 255
221 236 255
221 236 255
221 236 255
221 236 255
221 236 255
221 236 255
221 236 255
221 236 255
221 236 255
221 236 255
221 236 255
221 236 255
221 236 255
221 236 255
221 236 255
221 236 255
221 236 255
221 236 255
221 236 255
221 236 255
221 236 255
221 236 255
213 228 247
198 213 231
187 204 223
175 191 209
178 199 229
179 203 236
187 213 248
190 215 249
194 220 254
194 221 255
194 221 255
193 220 255
194 221 255
198 223 255
195 221 255
195 221 254
179 205 239
163 188 221
175 198 233
182 206 239
190 216 249
183 208 241
155 175 208
163 185 217
172 194 225
150 172 205
74 87 124
78 93 131
111 129 160
125 146 174
127 147 178
62 72 107
18 24 71
21 27 75
53 60 95
100 111 139
135 145 166
155 166 186
185 197 216
205 218 238
220 234 254
221 236 255
221 236 255
221 236 255
221 236 255
221 236 255
221 236 255
221 236 255
221 236 255
221 236 255
221 236 255
221 236 255
221 236 255
221 236 255
221 236 255
221 236 255
221 236 255
221 236 255
221 236 255
221 236 255
221 236 255
221 236 255
221 236 255
221 236 255
221 236 255
221 236 255
221 236 255
221 236 255
221 236 255
221 236 255
221 236 255
221 236 255
221 236 255
221 236 255
221 236 255
221 236 255
221 236 255
221 236 255
221 236 255
221 236 255
221 236 255
221 236 255
221 236 255
221 236 255
221 236 255
221 236 255
221 236 255
221 236 255
221 236 255
221 236 255
221 236 255
221 236 255
221 236 255
221 236 255
221 236 255
221 236 255
221 236 255
221 236 255
221 236 255
221 236 255
221 236 255
221 236 255
221 236 255
221 236 255
221 236 255
221 236 255
221 236 255
221 236 255
221 236 255
221 236 255
221 236 255
221 236 255
221 236 255
221 236 255
221 236 255
221 236 255
221 236 255
221 236 255
221 236 255
221 236 255
221 236 255
221 236 255
221 236 255
221 236 255
221 236 255
221 236 255
221 236 255
221 236 255
221 236 255
221 236 255
221 236 255
221 236 255
221 236 255
221 236 255
221 236 255
221 236 255
221 236 255
221 236 255
221 236 255
221 236 255
221 236 255
221 236 255
221 236 255
221 236 255
221 236 255
221 236 255
221 236 255
221 236 255
221 236 255
221 236 255
221 236 255
221 236 255
221 236 255
221 236 255
221 236 255
221 236 255
221 236 255
221 236 255
221 236 255
221 236 255
221 236 255
221 236 255
221 236 255
221 236 255
221 236 255
221 236 255
221 236 255
221 236 255
221 236 255
221 236 255
221 236 255
221 236 255
221 236 255
221 236 255
221 236 255
221 236 255
221 236 255
221 236 255
221 236 255
221 236 255
221 236 255
221 236 255
221 236 255
221 236 255
221 236 255
221 236 255
221 236 255
221 236 255
221 236 255
221 236 255
221 236 255
221 236 255
221 236 255
221 236 255
221 236 255
221 236 255
221 236 255
221 236 255
221 236 255
221 236 255
221 236 255
221 236 255
221 236 255
221 236 255
221 236 255
221 236 255
221 236 255
221 236 255
221 236 255
221 236 255
221 236 255
221 236 255
221 236 255
221 236 255
221 236 255
221 236 255
221 236 255
221 236 255
221 236 255
221 236 255
221 236 255
221 236 255
221 236 255
221 236 255
221 236 255
221 236 255
221 236 255
221 236 255
221 236 255
221 236 255
221 236 255
221 236 255
221 236 255
221 236 255
221 236 255
221 236 255
221 236 255
221 236 255
221 236 255
221 236 255
221 236 255
221 236 255
221 236 255
221 236 255
221 236 255
221 236 255
221 236 255
221 236 255
221 236 255
221 236 255
221 236 255
221 236 255
221 236 255
221 236 255
221 236 255
221 236 255
221 236 255
221 236 255
221 236 255
221 236 255
221 236 255
221 236 255
221 236 255
221 236 255
221 236 255
221 236 255
221 236 255
221 236 255
221 236 255
221 236 255
221 236 255
221 236 255
221 236 255
221 236 255
221 236 255
221 236 255
221 236 255
221 236 255
221 236 255
221 236 255
221 236 255
221 236 255
221 236 255
221 236 255
221 236 255
221 236 255
221 236 255
221 236 255
221 236 255
221 236 255
221 236 255
221 236 255
221 236 255
221 236 255
221 236 255
221 236 255
221 236 255
221 236 255
221 236 255
221 236 255
221 236 255
221 236 255
221 236 255
221 236 255
221 236 255
221 236 255
221 236 255
221 236 255
221 236 255
221 236 255
221 236 255
221 236 255
221 236 255
221 236 255
221 236 255
221 236 255
221 236 255
221 236 255
221 236 255
221 236 255
221 236 255
221 236 255
221 236 255
221 236 255
221 236 255
221 236 255
221 236 255
221 236 255
221 236 255
221 236 255
221 236 255
221 236 255
221 236 255
221 236 255
221 236 255
221 236 255
221 236 255
221 236 255
221 236 255
221 236 255
221 236 255
221 236 255
221 236 255
221 236 255
221 236 255
221 236 255
221 236 255
221 236 255
221 236 255
221 236 255
221 236 255
221 236 255
221 236 255
221 236 255
221 236 255
221 236 255
221 236 255
221 236 255
221 236 255
221 236 255
221 236 255
221 236 255
221 236 255
221 236 255
221 236 255
221 236 255
221 236 255
221 236 255
221 236 255
221 236 255
221 236 255
221 236 255
221 236 255
221 236 255
221 236 255
221 236 255
221 236 255
221 236 255
221 236 255
221 236 255
221 236 255
221 236 255
221 236 255
221 236 255
221 236 255
221 236 255
221 236 255
221 236 255
221 236 255
221 236 255
221 236 255
221 236 255
221 236 255
221 236 255
221 236 255
220 235 255
213 229 251
196 214 239
154 171 196
124 138 156
103 117 144
121 139 169
152 171 204
193 219 252
196 222 255
196 222 255
194 221 255
196 222 255
197 222 255
196 222 255
196 222 255
197 222 255
194 221 255
195 221 255
194 220 254
184 211 245
127 147 171
104 121 149
83 98 139
65 74 108
54 63 96
42 49 83
16 20 68
0 9 71
0 8 70
0 4 66
0 0 60
0 1 58
20 29 73
39 50 86
93 110 139
85 103 139
59 71 105
19 25 76
1 2 61
0 1 62
0 10 71
0 15 76
0 11 73
0 10 71
66 72 105
103 111 136
175 189 212
209 223 244
220 234 254
221 236 255
221 236 255
221 236 255
221 236 255
221 236 255
221 236 255
221 236 255
221 236 255
221 236 255
221 236 255
221 236 255
221 236 255
221 236 255
221 236 255
221 236 255
221 236 255
221 236 255
221 236 255
221 236 255
221 236 255
221 236 255
221 236 255
221 236 255
221 236 255
221 236 255
221 236 255
221 236 255
221 236 255
221 236 255
221 236 255
221 236 255
221 236 255
221 236 255
221 236 255
221 236 255
221 236 255
221 236 255
221 236 255
221 236 255
221 236 255
221 236 255
221 236 255
221 236 255
221 236 255
221 236 255
221 236 255
221 236 255
221 236 255
221 236 255
221 236 255
221 236 255
221 236 255
221 236 255
221 236 255
221 236 255
221 236 255
221 236 255
221 236 255
221 236 255
221 236 255
221 236 255
221 236 255
221 236 255
221 236 255
221 236 255
221 236 255
221 236 255
221 236 255
221 236 255
221 236 255
221 236 255
221 236 255
221 236 255
221 236 255
221 236 255
221 236 255
221 236 255
221 236 255
221 236 255
221 236 255
221 236 255
221 236 255
221 236 255
221 236 255
221 236 255
221 236 255
221 236 255
221 236 255
221 236 255
221 236 255
221 236 255
221 236 255
221 236 255
221 236 255
221 236 255
221 236 255
221 236 255
221 236 255
221 236 255
221 236 255
221 236 255
221 236 255
221 236 255
221 236 255
221 236 255
221 236 255
221 236 255
221 236 255
221 236 255
221 236 255
221 236 255
221 236 255
221 236 255
221 236 255
221 236 255
221 236 255
221 236 255
221 236 255
221 236 255
221 236 255
221 236 255
221 236 255
221 236 255
221 236 255
221 236 255
221 236 255
221 236 255
221 236 255
221 236 255
221 236 255
221 236 255
221 236 255
221 236 255
221 236 255
221 236 255
221 236 255
221 236 255
221 236 255
221 236 255
221 236 255
221 236 255
221 236 255
221 236 255
221 236 255
221 236 255
221 236 255
221 236 255
221 236 255
221 236 255
221 236 255
221 236 255
221 236 255
221 236 255
221 236 255
221 236 255
221 236 255
221 236 255
221 236 255
221 236 255
221 236 255
221 236 255
221 236 255
221 236 255
221 236 255
221 236 255
221 236 255
221 236 255
221 236 255
221 236 255
221 236 255
221 236 255
221 236 255
221 236 255
221 236 255
221 236 255
221 236 255
221 236 255
221 236 255
221 236 255
221 236 255
221 236 255
221 236 255
221 236 255
221 236 255
221 236 255
221 236 255
221 236 255
221 236 255
221 236 255
221 236 255
221 236 255
221 236 255
221 236 255
221 236 255
221 236 255
221 236 255
221 236 255
221 236 255
221 236 255
221 236 255
221 236 255
221 236 255
221 236 255
221 236 255
221 236 255
221 236 255
221 236 255
221 236 255
221 236 255
221 236 255
221 236 255
221 236 255
221 236 255
221 236 255
221 236 255
221 236 255
221 236 255
221 236 255
221 236 255
221 236 255
221 236 255
221 236 255
221 236 255
221 236 255
221 236 255
221 236 255
221 236 255
221 236 255
221 236 255
221 236 255
221 236 255
221 236 255
221 236 255
221 236 255
221 236 255
221 236 255
221 236 255
221 236 255
221 236 255
221 236 255
221 236 255
221 236 255
221 236 255
221 236 255
221 236 255
221 236 255
221 236 255
221 236 255
221 236 255
221 236 255
221 236 255
221 236 255
221 236 255
221 236 255
221 236 255
221 236 255
221 236 255
221 236 255
221 236 255
221 236 255
221 236 255
221 236 255
221 236 255
221 236 255
221 236 255
221 236 255
221 236 255
221 236 255
221 236 255
221 236 255
221 236 255
221 236 255
221 236 255
221 236 255
221 236 255
221 236 255
221 236 255
221 236 255
221 236 255
221 236 255
221 236 255
221 236 255
221 236 255
221 236 255
221 236 255
221 236 255
221 236 255
221 236 255
221 236 255
221 236 255
221 236 255
221 236 255
221 236 255
221 236 255
221 236 255
221 236 255
221 236 255
221 236 255
221 236 255
221 236 255
221 236 255
221 236 255
221 236 255
221 236 255
221 236 255
221 236 255
221 236 255
221 236 255
221 236 255
221 236 255
221 236 255
221 236 255
221 236 255
221 236 255
221 236 255
221 236 255
221 236 255
221 236 255
221 236 255
221 236 255
221 236 255
221 236 255
221 236 255
221 236 255
221 236 255
221 236 255
221 236 255
221 236 255
221 236 255
221 236 255
221 236 255
221 236 255
221 236 255
221 236 255
221 236 255
221 236 255
221 236 255
221 236 255
221 236 255
221 236 255
221 236 255
221 236 255
221 236 255
221 236 255
221 236 255
221 236 255
221 236 255
216 230 251
198 213 233
160 176 203
114 129 153
93 106 134
36 41 79
0 0 61
0 3 63
9 16 69
107 123 153
188 213 246
197 222 255
198 223 255
197 222 255
197 222 255
197 222 255
196 222 255
194 221 255
196 222 255
195 221 255
194 220 253
186 213 246
170 195 224
153 177 205
102 120 143
85 99 135
22 28 76
2 4 59
0 3 64
0 14 72
0 6 66
0 0 58
0 0 55
0 0 57
0 0 57
0 0 57
0 0 56
0 0 54
0 0 51
0 0 53
0 1 58
0 2 66
0 0 65
0 0 64
0 2 63
0 8 70
0 12 75
0 7 70
0 2 62
0 6 65
0 14 74
57 69 105
98 108 131
135 146 164
179 191 211
211 225 244
221 236 255
221 236 255
221 236 255
221 236 255
221 236 255
221 236 255
221 236 255
221 236 255
221 236 255
221 236 255
221 236 255
221 236 255
221 236 255
221 236 255
221 236 255
221 236 255
221 236 255
221 236 255
221 236 255
221 236 255
221 236 255
221 236 255
221 236 255
221 236 255
221 236 255
221 236 255
221 236 255
221 236 255
221 236 255
221 236 255
221 236 255
221 236 255
221 236 255
221 236 255
221 236 255
221 236 255
221 236 255
221 236 255
221 236 255
221 236 255
221 236 255
221 236 255
221 236 255
221 236 255
221 236 255
221 236 255
221 236 255
221 236 255
221 236 255
221 236 255
221 236 255
221 236 255
221 236 255
221 236 255
221 236 255
221 236 255
221 236 255
221 236 255
221 236 255
221 236 255
221 236 255
221 236 255
221 236 255
221 236 255
221 236 255
221 236 255
221 236 255
221 236 255
221 236 255
221 236 255
221 236 255
221 236 255
221 236 255
221 236 255
221 236 255
221 236 255
221 236 255
221 236 255
221 236 255
221 236 255
221 236 255
221 236 255
221 236 255
221 236 255
221 236 255
221 236 255
221 236 255
221 236 255
221 236 255
221 236 255
221 236 255
221 236 255
221 236 255
221 236 255
221 236 255
221 236 255
221 236 255
221 236 255
221 236 255
221 236 255
221 236 255
221 236 255
221 236 255
221 236 255
221 236 255
221 236 255
221 236 255
221 236 255
221 236 255
221 236 255
221 236 255
221 236 255
221 236 255
221 236 255
221 236 255
221 236 255
221 236 255
221 236 255
221 236 255
221 236 255
221 236 255
221 236 255
221 236 255
221 236 255
221 236 255
221 236 255
221 236 255
221 236 255
221 236 255
221 236 255
221 236 255
221 236 255
221 236 255
221 236 255
221 236 255
221 236 255
221 236 255
221 236 255
221 236 255
221 236 255
221 236 255
221 236 255
221 236 255
221 236 255
221 236 255
221 236 255
221 236 255
221 236 255
221 236 255
221 236 255
221 236 255
221 236 255
221 236 255
221 236 255
221 236 255
221 236 255
221 236 255
221 236 255
221 236 255
221 236 255
221 236 255
221 236 255
221 236 255
221 236 255
221 236 255
221 236 255
221 236 255
221 236 255
221 236 255
221 236 255
221 236 255
221 236 255
221 236 255
221 236 255
221 236 255
221 236 255
221 236 255
221 236 255
221 236 255
221 236 255
221 236 255
221 236 255
221 236 255
221 236 255
221 236 255
221 236 255
221 236 255
221 236 255
221 236 255
221 236 255
221 236 255
221 236 255
221 236 255
221 236 255
221 236 255
221 236 255
221 236 255
221 236 255
221 236 255
221 236 255
221 236 255
221 236 255
221 236 255
221 236 255
221 236 255
221 236 255
221 236 255
221 236 255
221 236 255
221 236 255
221 236 255
221 236 255
221 236 255
221 236 255
221 236 255
221 236 255
221 236 255
221 236 255
221 236 255
221 236 255
221 236 255
221 236 255
221 236 255
221 236 255
221 236 255
221 236 255
221 236 255
221 236 255
221 236 255
221 236 255
221 236 255
221 236 255
221 236 255
221 236 255
221 236 255
221 236 255
221 236 255
221 236 255
221 236 255
221 236 255
221 236 255
221 236 255
221 236 255
221 236 255
221 236 255
221 236 255
221 236 255
221 236 255
221 236 255
221 236 255
221 236 255
221 236 255
221 236 255
221 236 255
221 236 255
221 236 255
221 236 255
221 236 255
221 236 255
221 236 255
221 236 255
221 236 255
221 236 255
221 236 255
221 236 255
221 236 255
221 236 255
221 236 255
221 236 255
221 236 255
221 236 255
221 236 255
221 236 255
221 236 255
221 236 255
221 236 255
221 236 255
221 236 255
221 236 255
221 236 255
221 236 255
221 236 255
221 236 255
221 236 255
221 236 255
221 236 255
221 236 255
221 236 255
221 236 255
221 236 255
221 236 255
221 236 255
221 236 255
221 236 255
221 236 255
221 236 255
221 236 255
221 236 255
221 236 255
221 236 255
221 236 255
221 236 255
221 236 255
221 236 255
221 236 255
221 236 255
221 236 255
221 236 255
221 236 255
221 236 255
221 236 255
221 236 255
221 236 255
221 236 255
221 236 255
221 236 255
221 236 255
221 236 255
221 236 255
221 236 255
221 236 255
221 236 255
221 236 255
221 236 255
221 236 255
221 236 255
221 236 255
221 236 255
221 236 255
221 236 255
221 236 255
221 236 255
221 236 255
221 236 255
221 236 255
221 236 255
221 236 255
221 236 255
221 236 255
221 236 255
221 236 255
206 220 238
169 180 190
152 162 167
110 123 135
86 97 116
42 50 86
0 3 67
0 1 66
0 6 69
1 11 73
38 47 78
136 158 186
198 222 254
195 221 255
197 222 255
197 222 255
197 222 255
194 221 255
197 222 255
196 222 255
196 222 255
196 222 255
184 210 243
147 175 210
106 129 158
65 75 93
40 48 83
41 48 84
20 25 69
0 0 59
0 0 62
0 0 64
0 0 64
0 0 58
0 0 55
0 0 57
0 0 59
0 0 59
0 0 56
0 0 54
0 0 55
0 0 51
0 0 50
0 0 51
0 0 51
0 0 53
0 0 52
0 2 60
0 8 72
0 21 84
0 20 83
0 21 83
0 15 77
0 10 72
0 14 77
0 25 88
2 22 83
40 47 78
45 49 76
84 90 109
149 159 180
214 228 247
221 236 255
221 236 255
221 236 255
221 236 255
221 236 255
221 236 255
221 236 255
221 236 255
221 236 255
221 236 255
221 236 255
221 236 255
221 236 255
221 236 255
221 236 255
221 236 255
221 236 255
221 236 255
221 236 255
221 236 255
221 236 255
221 236 255
221 236 255
221 236 255
221 236 255
221 236 255
221 236 255
221 236 255
221 236 255
221 236 255
221 236 255
221 236 255
221 236 255
221 236 255
221 236 255
221 236 255
221 236 255
221 236 255
221 236 255
221 236 255
221 236 255
221 236 255
221 236 255
221 236 255
221 236 255
221 236 255
221 236 255
221 236 255
221 236 255
221 236 255
221 236 255
221 236 255
221 236 255
221 236 255
221 236 255
221 236 255
221 236 255
221 236 255
221 236 255
221 236 255
221 236 255
221 236 255
221 236 255
221 236 255
221 236 255
221 236 255
221 236 255
221 236 255
221 236 255
221 236 255
221 236 255
221 236 255
221 236 255
221 236 255
221 236 255
221 236 255
221 236 255
221 236 255
221 236 255
221 236 255
221 236 255
221 236 255
221 236 255
221 236 255
221 236 255
221 236 255
221 236 255
221 236 255
221 236 255
221 236 255
221 236 255
221 236 255
221 236 255
221 236 255
221 236 255
221 236 255
221 236 255
221 236 255
221 236 255
221 236 255
221 236 255
221 236 255
221 236 255
221 236 255
221 236 255
221 236 255
221 236 255
221 236 255
221 236 255
221 236 255
221 236 255
221 236 255
221 236 255
221 236 255
221 236 255
221 236 255
221 236 255
221 236 255
221 236 255
221 236 255
221 236 255
221 236 255
221 236 255
221 236 255
221 236 255
221 236 255
221 236 255
221 236 255
221 236 255
221 236 255
221 236 255
221 236 255
221 236 255
221 236 255
221 236 255
221 236 255
221 236 255
221 236 255
221 236 255
221 236 255
221 236 255
221 236 255
221 236 255
221 236 255
221 236 255
221 236 255
221 236 255
221 236 255
221 236 255
221 236 255
221 236 255
221 236 255
221 236 255
221 236 255
221 236 255
221 236 255
221 236 255
221 236 255
221 236 255
221 236 255
221 236 255
221 236 255
221 236 255
221 236 255
221 236 255
221 236 255
221 236 255
221 236 255
221 236 255
222 236 255
222 236 255
222 236 255
222 236 255
222 236 255
222 236 255
222 236 255
222 236 255
222 236 255
222 236 255
222 236 255
222 236 255
222 236 255
222 236 255
222 236 255
222 236 255
222 236 255
222 236 255
222 236 255
222 236 255
222 236 255
222 236 255
222 236 255
222 236 255
222 236 255
222 236 255
222 236 255
222 236 255
222 236 255
222 236 255
222 236 255
222 236 255
222 236 255
222 236 255
222 236 255
222 236 255
222 236 255
222 236 255
222 236 255
222 236 255
222 236 255
222 236 255
222 236 255
222 236 255
222 236 255
222 236 255
222 236 255
222 236 255
222 236 255
222 236 255
222 236 255
222 236 255
222 236 255
222 236 255
222 236 255
222 236 255
222 236 255
222 236 255
222 236 255
222 236 255
222 236 255
222 236 255
222 236 255
222 236 255
222 236 255
222 236 255
222 236 255
222 236 255
222 236 255
222 236 255
222 236 255
222 236 255
222 236 255
222 236 255
222 236 255
222 236 255
222 236 255
222 236 255
222 236 255
222 236 255
222 236 255
222 236 255
222 236 255
222 236 255
222 236 255
222 236 255
222 236 255
222 236 255
222 236 255
222 236 255
222 236 255
222 236 255
222 236 255
222 236 255
222 236 255
222 236 255
222 236 255
222 236 255
222 236 255
222 236 255
222 236 255
222 236 255
222 236 255
222 236 255
222 236 255
222 236 255
222 236 255
222 236 255
222 236 255
222 236 255
222 236 255
222 236 255
222 236 255
222 236 255
222 236 255
222 236 255
222 236 255
222 236 255
222 236 255
222 236 255
222 236 255
222 236 255
222 236 255
222 236 255
222 236 255
222 236 255
222 236 255
222 236 255
222 236 255
222 236 255
222 236 255
222 236 255
222 236 255
222 236 255
222 236 255
222 236 255
222 236 255
222 236 255
222 236 255
222 236 255
222 236 255
222 236 255
222 236 255
222 236 255
222 236 255
222 236 255
222 236 255
222 236 255
222 236 255
222 236 255
222 236 255
222 236 255
222 236 255
222 236 255
222 236 255
222 236 255
222 236 255
222 236 255
222 236 255
222 236 255
222 236 255
222 236 255
222 236 255
222 236 255
222 236 255
222 236 255
216 230 249
188 201 221
121 131 143
77 82 78
98 106 109
109 120 128
98 115 144
8 13 70
0 6 68
0 8 71
0 12 75
28 34 76
46 56 82
98 114 141
191 218 251
194 220 255
198 223 255
199 223 255
195 221 255
196 222 255
196 222 255
197 222 255
196 221 255
198 223 255
176 202 233
118 139 165
106 125 155
76 85 102
90 100 110
20 27 74
0 0 57
0 0 57
0 0 63
0 0 66
0 0 64
0 0 57
6 8 58
0 0 60
0 0 63
0 0 59
0 0 55
0 0 51
0 0 51
0 0 51
0 0 48
0 0 49
0 0 51
0 0 50
0 0 51
0 0 54
0 0 53
0 3 57
4 10 63
15 21 58
28 36 56
40 50 56
36 43 52
13 18 56
1 4 60
0 15 72
0 14 76
0 7 71
11 12 67
30 31 67
15 22 66
77 83 102
164 174 192
207 221 239
222 236 255
222 236 255
222 236 255
222 236 255
222 236 255
222 236 255
222 236 255
222 236 255
222 236 255
222 236 255
222 236 255
222 236 255
222 236 255
222 236 255
222 236 255
222 236 255
222 236 255
222 236 255
222 236 255
222 236 255
222 236 255
222 236 255
222 236 255
222 236 255
222 236 255
222 236 255
222 236 255
222 236 255
222 236 255
222 236 255
222 236 255
222 236 255
222 236 255
222 236 255
222 236 255
222 236 255
222 236 255
222 236 255
222 236 255
222 236 255
222 236 255
222 236 255
222 236 255
222 236 255
222 236 255
222 236 255
222 236 255
222 236 255
222 236 255
222 236 255
222 236 255
222 236 255
222 236 255
222 236 255
222 236 255
222 236 255
222 236 255
222 236 255
222 236 255
222 236 255
222 236 255
222 236 255
222 236 255
222 236 255
222 236 255
222 236 255
222 236 255
222 236 255
222 236 255
222 236 255
222 236 255
222 236 255
222 236 255
222 236 255
222 236 255
222 236 255
222 236 255
222 236 255
222 236 255
222 236 255
222 236 255
222 236 255
222 236 255
222 236 255
222 236 255
222 236 255
222 236 255
222 236 255
222 236 255
222 236 255
222 236 255
222 236 255
222 236 255
222 236 255
222 236 255
222 236 255
222 236 255
222 236 255
222 236 255
222 236 255
222 236 255
222 236 255
222 236 255
222 236 255
222 236 255
222 236 255
222 236 255
222 236 255
222 236 255
222 236 255
222 236 255
222 236 255
222 236 255
222 236 255
222 236 255
222 236 255
222 236 255
222 236 255
222 236 255
222 236 255
222 236 255
222 236 255
222 236 255
222 236 255
222 236 255
222 236 255
222 236 255
222 236 255
222 236 255
222 236 255
222 236 255
222 236 255
222 236 255
222 236 255
222 236 255
222 236 255
222 236 255
222 236 255
222 236 255
222 236 255
222 236 255
222 236 255
222 236 255
222 236 255
222 236 255
222 236 255
222 236 255
222 236 255
222 236 255
222 236 255
222 236 255
222 236 255
222 236 255
222 236 255
222 236 255
222 236 255
222 236 255
222 236 255
222 236 255
222 236 255
222 236 255
222 236 255
222 236 255
222 236 255
222 236 255
222 236 255
222 236 255
222 236 255
222 236 255
222 236 255
222 236 255
222 236 255
222 236 255
222 236 255
222 236 255
222 236 255
222 236 255
222 236 255
222 236 255
222 236 255
222 236 255
222 236 255
222 236 255
222 236 255
222 236 255
222 236 255
222 236 255
222 236 255
222 236 255
222 236 255
222 236 255
222 236 255
222 236 255
222 236 255
222 236 255
222 236 255
222 236 255
222 236 255
222 236 255
222 236 255
222 236 255
222 236 255
222 236 255
222 236 255
222 236 255
222 236 255
222 236 255
222 236 255
222 236 255
222 236 255
222 236 255
222 236 255
222 236 255
222 236 255
222 236 255
222 236 255
222 236 255
222 236 255
222 236 255
222 236 255
222 236 255
222 236 255
222 236 255
222 236 255
222 236 255
222 236 255
222 236 255
222 236 255
222 236 255
222 236 255
222 236 255
222 236 255
222 236 255
222 236 255
222 236 255
222 236 255
222 236 255
222 236 255
222 236 255
222 236 255
222 236 255
222 236 255
222 236 255
222 236 255
222 236 255
222 236 255
222 236 255
222 236 255
222 236 255
222 236 255
222 236 255
222 236 255
222 236 255
222 236 255
222 236 255
222 236 255
222 236 255
222 236 255
222 236 255
222 236 255
222 236 255
222 236 255
222 236 255
222 236 255
222 236 255
222 236 255
222 236 255
222 236 255
222 236 255
222 236 255
222 236 255
222 236 255
222 236 255
222 236 255
222 236 255
222 236 255
222 236 255
222 236 255
222 236 255
222 236 255
222 236 255
222 236 255
222 236 255
222 236 255
222 236 255
222 236 255
222 236 255
222 236 255
222 236 255
222 236 255
222 236 255
222 236 255
222 236 255
222 236 255
222 236 255
222 236 255
222 236 255
222 236 255
222 236 255
222 236 255
222 236 255
222 236 255
222 236 255
222 236 255
222 236 255
222 236 255
222 236 255
222 236 255
222 236 255
222 236 255
222 236 255
222 236 255
222 236 255
222 236 255
222 236 255
222 236 255
222 236 255
222 236 255
222 236 255
222 236 255
222 236 255
222 236 255
222 236 255
222 236 255
222 236 255
222 236 255
222 236 255
222 236 255
222 236 255
221 235 254
185 197 213
158 170 184
89 99 118
61 70 91
44 52 67
72 76 65
95 106 119
46 56 89
4 21 82
0 16 79
0 14 79
0 18 82
20 31 75
77 88 104
149 170 196
193 219 251
196 222 255
197 222 255
196 222 255
197 222 255
194 221 255
199 223 255
196 222 255
187 214 247
192 219 251
190 217 251
181 209 244
169 193 227
135 160 196
63 75 110
3 8 60
2 4 59
0 0 60
0 2 66
0 0 63
0 0 59
0 0 62
0 0 63
0 0 64
0 0 61
0 0 59
0 0 55
0 0 53
0 0 50
0 0 49
0 0 50
0 0 50
0 0 51
0 0 52
0 0 51
0 0 51
0 0 56
0 3 61
10 21 51
22 37 34
48 61 41
49 60 29
43 54 19
40 51 17
27 38 16
31 44 24
22 34 37
29 39 37
29 36 45
12 16 63
0 13 76
11 28 79
17 28 73
12 24 75
39 51 61
127 138 143
188 201 216
221 235 254
222 236 255
222 236 255
222 236 255
222 236 255
222 236 255
222 236 255
222 236 255
222 236 255
222 236 255
222 236 255
222 236 255
222 236 255
222 236 255
222 236 255
222 236 255
222 236 255
222 236 255
222 236 255
222 236 255
222 236 255
222 236 255
222 236 255
222 236 255
222 236 255
222 236 255
222 236 255
222 236 255
222 236 255
222 236 255
222 236 255
222 236 255
222 236 255
222 236 255
222 236 255
222 236 255
222 236 255
222 236 255
222 236 255
222 236 255
222 236 255
222 236 255
222 236 255
222 236 255
222 236 255
222 236 255
222 236 255
222 236 255
222 236 255
222 236 255
222 236 255
222 236 255
222 236 255
222 236 255
222 236 255
222 236 255
222 236 255
222 236 255
222 236 255
222 236 255
222 236 255
222 236 255
222 236 255
222 236 255
222 236 255
222 236 255
222 236 255
222 236 255
222 236 255
222 236 255
222 236 255
222 236 255
222 236 255
222 236 255
222 236 255
222 236 255
222 236 255
222 236 255
222 236 255
222 236 255
222 236 255
222 236 255
222 236 255
222 236 255
222 236 255
222 236 255
222 236 255
222 236 255
222 236 255
222 236 255
222 236 255
222 236 255
222 236 255
222 236 255
222 236 255
222 236 255
222 236 255
222 236 255
222 236 255
222 236 255
222 236 255
222 236 255
222 236 255
222 236 255
222 236 255
222 236 255
222 236 255
222 236 255
222 236 255
222 236 255
222 236 255
222 236 255
222 236 255
222 236 255
222 236 255
222 236 255
222 236 255
222 236 255
222 236 255
222 236 255
222 236 255
222 236 255
222 236 255
222 236 255
222 236 255
222 236 255
222 236 255
222 236 255
222 236 255
222 236 255
222 236 255
222 236 255
222 236 255
222 236 255
222 236 255
222 236 255
222 236 255
222 236 255
222 236 255
222 236 255
222 236 255
222 236 255
222 236 255
222 236 255
222 236 255
222 236 255
222 236 255
222 236 255
222 236 255
222 236 255
222 236 255
222 236 255
222 236 255
222 236 255
222 236 255
222 236 255
222 236 255
222 236 255
222 236 255
222 236 255
222 236 255
222 236 255
222 236 255
222 236 255
222 236 255
222 236 255
222 236 255
222 236 255
222 236 255
222 236 255
222 236 255
222 236 255
222 236 255
222 236 255
222 236 255
222 236 255
222 236 255
222 236 255
222 236 255
222 236 255
222 236 255
222 236 255
222 236 255
222 236 255
222 236 255
222 236 255
222 236 255
222 236 255
222 236 255
222 236 255
222 236 255
222 236 255
222 236 255
222 236 255
222 236 255
222 236 255
222 236 255
222 236 255
222 236 255
222 236 255
222 236 255
222 236 255
222 236 255
222 236 255
222 236 255
222 236 255
222 236 255
222 236 255
222 236 255
222 236 255
222 236 255
222 236 255
222 236 255
222 236 255
222 236 255
222 236 255
222 236 255
222 236 255
222 236 255
222 236 255
222 236 255
222 236 255
222 236 255
222 236 255
222 236 255
222 236 255
222 236 255
222 236 255
222 236 255
222 236 255
222 236 255
222 236 255
222 236 255
222 236 255
222 236 255
222 236 255
222 236 255
222 236 255
222 236 255
222 236 255
222 236 255
222 236 255
222 236 255
222 236 255
222 236 255
222 236 255
222 236 255
222 236 255
222 236 255
222 236 255
222 236 255
222 236 255
222 236 255
222 236 255
222 236 255
222 236 255
222 236 255
222 236 255
222 236 255
222 236 255
222 236 255
222 236 255
222 236 255
222 236 255
222 236 255
222 236 255
222 236 255
222 236 255
222 236 255
222 236 255
222 236 255
222 236 255
222 236 255
222 236 255
222 236 255
222 236 255
222 236 255
222 236 255
222 236 255
222 236 255
222 236 255
222 236 255
222 236 255
222 236 255
222 236 255
222 236 255
222 236 255
222 236 255
222 236 255
222 236 255
222 236 255
222 236 255
222 236 255
222 236 255
222 236 255
222 236 255
222 236 255
222 236 255
222 236 255
222 236 255
222 236 255
222 236 255
222 236 255
222 236 255
222 236 255
222 236 255
222 236 255
222 236 255
222 236 255
222 236 255
222 236 255
222 236 255
222 236 255
222 236 255
222 236 255
222 236 255
222 236 255
222 236 255
222 236 255
222 236 255
222 236 255
222 236 255
222 236 255
222 236 255
222 236 255
210 223 241
158 168 178
90 94 97
49 52 64
27 31 64
45 51 77
47 50 49
99 107 102
138 155 173
34 40 74
0 17 77
0 24 88
0 21 86
19 31 78
36 44 53
99 111 123
191 215 245
198 223 255
196 222 255
197 222 255
197 222 255
196 222 255
198 223 254
196 222 255
198 222 253
172 197 230
91 106 137
82 97 130
66 79 115
53 62 97
14 20 72
0 3 63
0 6 64
0 5 67
0 4 64
0 2 58
0 2 59
0 1 56
0 0 60
0 0 69
0 0 67
0 0 60
0 0 57
0 0 58
0 0 58
0 0 56
0 0 56
0 0 56
0 0 53
0 0 51
0 0 51
0 0 52
0 0 53
0 0 55
0 0 58
0 6 55
4 12 55
35 46 36
64 77 56
51 64 37
31 46 8
30 45 4
28 43 5
30 43 7
30 43 0
31 46 5
29 42 12
35 46 15
35 45 24
26 41 61
22 45 82
17 43 88
31 53 60
38 54 17
39 55 15
87 97 90
161 173 183
209 223 241
222 236 255
222 236 255
222 236 255
222 236 255
222 236 255
222 236 255
222 236 255
222 236 255
222 236 255
222 236 255
222 236 255
222 236 255
222 236 255
222 236 255
222 236 255
222 236 255
222 236 255
222 236 255
222 236 255
222 236 255
222 236 255
222 236 255
222 236 255
222 236 255
222 236 255
222 236 255
222 236 255
222 236 255
222 236 255
222 236 255
222 236 255
222 236 255
222 236 255
222 236 255
222 236 255
222 236 255
222 236 255
222 236 255
222 236 255
222 236 255
222 236 255
222 236 255
222 236 255
222 236 255
222 236 255
222 236 255
222 236 255
222 236 255
222 236 255
222 236 255
222 236 255
222 236 255
222 236 255
222 236 255
222 236 255
222 236 255
222 236 255
222 236 255
222 236 255
222 236 255
222 236 255
222 236 255
222 236 255
222 236 255
222 236 255
222 236 255
222 236 255
222 236 255
222 236 255
222 236 255
222 236 255
222 236 255
222 236 255
222 236 255
222 236 255
222 236 255
222 236 255
222 236 255
222 236 255
222 236 255
222 236 255
222 236 255
222 236 255
222 236 255
222 236 255
222 236 255
222 236 255
222 236 255
222 236 255
222 236 255
222 236 255
222 236 255
222 236 255
222 236 255
222 236 255
222 236 255
222 236 255
222 236 255
222 236 255
222 236 255
222 236 255
222 236 255
222 236 255
222 236 255
222 236 255
222 236 255
222 236 255
222 236 255
222 236 255
222 236 255
222 236 255
222 236 255
222 236 255
222 236 255
222 236 255
222 236 255
222 236 255
222 236 255
222 236 255
222 236 255
222 236 255
222 236 255
222 236 255
222 236 255
222 236 255
222 236 255
222 236 255
222 236 255
222 236 255
222 236 255
222 236 255
222 236 255
222 236 255
222 236 255
222 236 255
222 236 255
222 236 255
222 236 255
222 236 255
222 236 255
222 236 255
222 236 255
222 236 255
222 236 255
222 236 255
222 236 255
222 236 255
222 236 255
222 236 255
222 236 255
222 236 255
222 236 255
222 236 255
222 236 255
222 236 255
222 236 255
222 236 255
222 236 255
222 236 255
222 236 255
222 236 255
222 236 255
222 236 255
222 236 255
222 236 255
222 236 255
222 236 255
222 236 255
222 236 255
222 236 255
222 236 255
222 236 255
222 236 255
222 236 255
222 236 255
222 236 255
222 236 255
222 236 255
222 236 255
222 236 255
222 236 255
222 236 255
222 236 255
222 236 255
222 236 255
222 236 255
222 236 255
222 236 255
222 236 255
222 236 255
222 236 255
222 236 255
222 236 255
222 236 255
222 236 255
222 236 255
222 236 255
222 236 255
222 236 255
222 236 255
222 236 255
222 236 255
222 236 255
222 236 255
222 236 255
222 236 255
222 236 255
222 236 255
222 236 255
222 236 255
222 236 255
222 236 255
222 236 255
222 236 255
222 236 255
222 236 255
222 236 255
222 236 255
222 236 255
222 236 255
222 236 255
222 236 255
222 236 255
222 236 255
222 236 255
222 236 255
222 236 255
222 236 255
222 236 255
222 236 255
222 236 255
222 236 255
222 236 255
222 236 255
222 236 255
222 236 255
222 236 255
222 236 255
222 236 255
222 236 255
222 236 255
222 236 255
222 236 255
222 236 255
222 236 255
222 236 255
222 236 255
222 236 255
222 236 255
222 236 255
222 236 255
222 236 255
222 236 255
222 236 255
222 236 255
222 236 255
222 236 255
222 236 255
222 236 255
222 236 255
222 236 255
222 236 255
222 236 255
222 236 255
222 236 255
222 236 255
222 236 255
222 236 255
222 236 255
222 236 255
222 236 255
222 236 255
222 236 255
222 236 255
222 236 255
222 236 255
222 236 255
222 236 255
222 236 255
222 236 255
222 236 255
222 236 255
222 236 255
222 236 255
222 236 255
222 236 255
222 236 255
222 236 255
222 236 255
222 236 255
222 236 255
222 236 255
222 236 255
222 236 255
222 236 255
222 236 255
222 236 255
222 236 255
222 236 255
222 236 255
222 236 255
222 236 255
222 236 255
222 236 255
222 236 255
222 236 255
222 236 255
222 236 255
222 236 255
222 236 255
222 236 255
222 236 255
222 236 255
222 236 255
222 236 255
222 236 255
222 236 255
222 236 255
222 236 255
222 236 255
207 220 237
148 157 168
79 86 98
43 50 82
15 20 67
40 40 57
61 62 47
40 44 44
54 59 61
119 133 146
73 84 99
16 23 74
0 24 87
3 19 83
57 68 100
112 126 143
139 156 174
191 215 245
195 221 255
197 222 255
198 223 255
196 221 253
192 217 249
163 185 214
155 177 206
136 156 184
74 87 119
7 9 59
0 0 55
0 5 57
0 0 58
0 0 59
0 6 62
27 31 58
49 54 71
8 17 64
26 33 67
26 37 75
24 34 68
20 28 64
0 0 63
0 0 60
0 0 59
0 0 60
0 0 63
0 0 63
0 0 64
0 0 63
0 0 59
0 0 54
0 0 50
0 0 51
0 0 52
0 0 52
0 0 53
0 0 57
0 0 60
0 0 62
6 13 55
58 75 55
56 69 38
36 51 17
25 40 6
28 43 5
26 44 4
25 44 22
25 41 17
26 39 0
23 36 1
17 30 15
18 30 28
25 33 40
24 37 49
10 33 85
27 44 48
31 42 4
30 45 0
29 46 0
29 47 5
36 50 17
137 147 154
200 213 230
222 236 255
222 236 255
222 236 255
222 236 255
222 236 255
222 236 255
222 236 255
222 236 255
222 236 255
222 236 255
222 236 255
222 236 255
222 236 255
222 236 255
222 236 255
222 236 255
222 236 255
222 236 255
222 236 255
222 236 255
222 236 255
222 236 255
222 236 255
222 236 255
222 236 255
222 236 255
222 236 255
222 236 255
222 236 255
222 236 255
222 236 255
222 236 255
222 236 255
222 236 255
222 236 255
222 236 255
222 236 255
222 236 255
222 236 255
222 236 255
222 236 255
222 236 255
222 236 255
222 236 255
222 236 255
222 236 255
222 236 255
222 236 255
222 236 255
222 236 255
222 236 255
222 236 255
222 236 255
222 236 255
222 236 255
222 236 255
222 236 255
222 236 255
222 236 255
222 236 255
222 236 255
222 236 255
222 236 255
222 236 255
222 236 255
222 236 255
222 236 255
222 236 255
222 236 255
222 236 255
222 236 255
222 236 255
222 236 255
222 236 255
222 236 255
222 236 255
222 236 255
222 236 255
222 236 255
222 236 255
222 236 255
222 236 255
222 236 255
222 236 255
222 236 255
222 236 255
222 236 255
222 236 255
222 236 255
222 236 255
222 236 255
222 236 255
222 236 255
222 236 255
222 236 255
222 236 255
222 236 255
222 236 255
222 236 255
222 236 255
222 236 255
222 236 255
222 236 255
222 236 255
222 236 255
222 236 255
222 236 255
222 236 255
222 236 255
222 236 255
222 236 255
222 236 255
222 236 255
222 236 255
222 236 255
222 236 255
222 236 255
222 236 255
222 236 255
222 236 255
222 236 255
222 236 255
222 236 255
222 236 255
222 236 255
222 236 255
222 236 255
222 236 255
222 236 255
222 236 255
222 236 255
222 236 255
222 236 255
222 236 255
222 236 255
222 236 255
222 236 255
222 236 255
222 236 255
222 236 255
222 236 255
222 236 255
222 236 255
222 236 255
222 236 255
222 236 255
222 236 255
222 236 255
222 236 255
222 236 255
222 236 255
222 236 255
222 236 255
222 236 255
222 236 255
222 236 255
222 236 255
222 236 255
222 236 255
222 236 255
222 236 255
222 236 255
222 236 255
222 236 255
222 236 255
222 236 255
222 236 255
222 236 255
222 236 255
222 236 255
222 236 255
222 236 255
222 236 255
222 236 255
222 236 255
222 236 255
222 236 255
222 236 255
222 236 255
222 236 255
222 236 255
222 236 255
222 236 255
222 236 255
222 236 255
222 236 255
222 236 255
222 236 255
222 236 255
222 236 255
222 236 255
222 236 255
222 236 255
222 236 255
222 236 255
222 236 255
222 236 255
222 236 255
222 236 255
222 236 255
222 236 255
222 236 255
222 236 255
222 236 255
222 236 255
222 236 255
222 236 255
222 236 255
222 236 255
222 236 255
222 236 255
222 236 255
222 236 255
222 236 255
222 236 255
222 236 255
222 236 255
222 236 255
222 236 255
222 236 255
222 236 255
222 236 255
222 236 255
222 236 255
222 236 255
222 236 255
222 236 255
222 236 255
222 236 255
222 236 255
222 236 255
222 236 255
222 236 255
222 236 255
222 236 255
222 236 255
222 236 255
222 236 255
222 236 255
222 236 255
222 236 255
222 236 255
222 236 255
222 236 255
222 236 255
222 236 255
222 236 255
222 236 255
222 236 255
222 236 255
222 236 255
222 236 255
222 236 255
222 236 255
222 236 255
222 236 255
222 236 255
222 236 255
222 236 255
222 236 255
222 236 255
222 236 255
222 236 255
222 236 255
222 236 255
222 236 255
222 236 255
222 236 255
222 236 255
222 236 255
222 236 255
222 236 255
222 236 255
222 236 255
222 236 255
222 236 255
222 236 255
222 236 255
222 236 255
222 236 255
222 236 255
222 236 255
222 236 255
222 236 255
222 236 255
222 236 255
222 236 255
222 236 255
222 236 255
222 236 255
222 236 255
222 236 255
222 236 255
222 236 255
222 236 255
222 236 255
222 236 255
222 236 255
222 236 255
222 236 255
222 236 255
222 236 255
222 236 255
222 236 255
222 236 255
222 236 255
222 236 255
222 236 255
222 236 255
222 236 255
222 236 255
222 236 255
222 236 255
222 236 255
222 236 255
222 236 255
197 209 226
124 132 140
61 63 52
54 58 75
27 30 63
46 49 47
69 72 47
64 64 49
70 75 83
11 13 57
32 37 60
4 4 61
0 1 63
0 9 69
1 7 69
14 19 61
63 73 78
170 191 219
197 222 255
197 222 255
197 222 255
199 223 255
175 198 230
102 118 157
43 50 89
12 18 68
0 1 57
0 0 54
0 0 51
0 0 53
0 0 53
0 0 51
0 0 54
0 0 59
9 15 62
29 39 57
51 60 36
71 77 67
87 93 83
98 108 110
99 109 116
72 82 59
42 52 60
0 0 62
0 4 64
0 0 64
0 0 64
0 0 65
0 0 64
0 0 65
0 0 61
0 0 56
0 0 52
0 0 51
0 0 52
0 0 56
0 0 64
0 0 60
0 0 57
0 0 60
0 6 57
37 49 24
45 60 24
30 47 8
23 39 0
26 39 0
25 40 0
12 34 59
0 11 70
21 42 52
28 42 1
24 38 0
22 35 7
25 38 4
20 32 43
10 29 70
13 39 63
25 41 16
30 43 0
28 42 0
24 41 0
26 45 0
30 49 11
37 52 26
109 120 122
194 207 223
222 236 255
222 236 255
222 236 255
222 236 255
222 236 255
222 236 255
222 236 255
222 236 255
222 236 255
222 236 255
222 236 255
222 236 255
222 236 255
222 236 255
222 236 255
222 236 255
222 236 255
222 236 255
222 236 255
222 236 255
222 236 255
222 236 255
222 236 255
222 236 255
222 236 255
222 236 255
222 236 255
222 236 255
222 236 255
222 236 255
222 236 255
222 236 255
222 236 255
222 236 255
222 236 255
222 236 255
222 236 255
222 236 255
222 236 255
222 236 255
222 236 255
222 236 255
222 236 255
222 236 255
222 236 255
222 236 255
222 236 255
222 236 255
222 236 255
222 236 255
222 236 255
222 236 255
222 236 255
222 236 255
222 236 255
222 236 255
222 236 255
222 236 255
222 236 255
222 236 255
222 236 255
222 236 255
222 236 255
222 236 255
222 236 255
222 236 255
222 236 255
222 236 255
222 236 255
222 236 255
222 236 255
222 236 255
222 236 255
222 236 255
222 236 255
222 236 255
222 236 255
222 236 255
222 236 255
222 236 255
222 236 255
222 236 255
222 236 255
222 236 255
222 236 255
222 236 255
222 236 255
222 236 255
222 236 255
222 236 255
222 236 255
222 236 255
222 236 255
222 236 255
222 236 255
222 236 255
222 236 255
222 236 255
222 236 255
222 236 255
222 236 255
222 236 255
222 236 255
222 236 255
222 236 255
222 236 255
222 236 255
222 236 255
222 236 255
222 236 255
222 236 255
222 236 255
222 236 255
222 236 255
222 236 255
222 236 255
222 236 255
222 236 255
222 236 255
222 236 255
222 236 255
222 236 255
222 236 255
222 236 255
222 236 255
222 236 255
222 236 255
222 236 255
222 236 255
222 236 255
222 236 255
222 236 255
222 236 255
222 236 255
222 236 255
222 236 255
222 236 255
222 236 255
222 236 255
222 236 255
222 236 255
222 236 255
222 236 255
222 236 255
222 236 255
222 236 255
222 236 255
222 236 255
222 236 255
222 236 255
222 236 255
222 236 255
222 236 255
222 236 255
222 236 255
222 236 255
222 236 255
222 236 255
222 236 255
222 236 255
222 236 255
222 236 255
222 236 255
222 236 255
222 236 255
222 236 255
222 236 255
222 236 255
222 236 255
222 236 255
222 236 255
222 236 255
222 236 255
222 236 255
222 236 255
222 236 255
222 236 255
222 236 255
222 236 255
222 236 255
222 236 255
222 236 255
222 236 255
222 236 255
222 236 255
222 236 255
222 236 255
222 236 255
222 236 255
222 236 255
222 236 255
222 236 255
222 236 255
222 236 255
222 236 255
222 236 255
222 236 255
222 236 255
222 236 255
222 236 255
222 236 255
222 236 255
222 236 255
222 236 255
222 236 255
222 236 255
222 236 255
222 236 255
222 236 255
222 236 255
222 236 255
222 236 255
222 236 255
222 236 255
222 236 255
222 236 255
222 236 255
222 236 255
222 236 255
222 236 255
222 236 255
222 236 255
222 236 255
222 236 255
222 236 255
222 236 255
222 236 255
222 236 255
222 236 255
222 236 255
222 236 255
222 236 255
222 236 255
222 236 255
222 236 255
222 236 255
222 236 255
222 236 255
222 236 255
222 236 255
222 236 255
222 236 255
222 236 255
222 236 255
222 236 255
222 236 255
222 236 255
222 236 255
222 236 255
222 236 255
222 236 255
222 236 255
222 236 255
222 236 255
222 236 255
222 236 255
222 236 255
222 236 255
222 236 255
222 236 255
222 236 255
222 236 255
222 236 255
222 236 255
222 236 255
222 236 255
222 236 255
222 236 255
222 236 255
222 236 255
222 236 255
222 236 255
222 236 255
222 236 255
222 236 255
222 236 255
222 236 255
222 236 255
222 236 255
222 236 255
222 236 255
222 236 255
222 236 255
222 236 255
222 236 255
222 236 255
222 236 255
222 236 255
222 236 255
222 236 255
222 236 255
222 236 255
222 236 255
222 236 255
222 236 255
222 236 255
222 236 255
222 236 255
222 236 255
222 236 255
222 236 255
222 236 255
222 236 255
222 236 255
222 236 255
222 236 255
222 236 255
222 236 255
222 236 255
222 236 255
222 236 255
222 236 255
206 219 237
126 135 148
47 50 74
42 46 70
54 60 83
5 10 64
29 30 58
68 69 54
58 61 55
70 77 85
36 41 74
0 0 63
0 0 60
0 0 58
0 0 62
0 4 66
11 15 62
93 108 118
176 197 223
196 222 253
197 222 255
197 222 253
187 213 243
148 170 202
52 63 104
6 13 71
0 13 73
0 7 63
0 0 54
0 0 52
0 0 52
0 0 51
0 0 49
0 0 49
0 0 52
0 0 52
0 4 61
7 19 71
33 43 54
58 66 58
65 72 65
95 109 128
102 118 137
27 33 57
0 0 50
0 0 51
0 0 52
0 0 55
0 0 56
0 0 55
0 0 60
0 0 61
0 0 58
0 0 57
0 0 53
0 0 53
0 0 52
0 0 55
0 0 60
0 0 59
0 0 57
1 6 55
15 28 38
20 37 18
36 49 15
29 43 6
21 38 0
24 39 0
22 39 1
19 39 34
0 17 75
19 40 53
27 43 3
23 38 3
22 39 2
21 36 0
23 38 1
23 36 3
18 37 37
25 42 24
24 43 0
25 43 0
23 40 0
20 38 0
22 41 0
24 44 0
25 43 3
32 47 25
136 147 155
205 218 236
222 236 255
222 236 255
222 236 255
222 236 255
222 236 255
222 236 255
222 236 255
222 236 255
222 236 255
222 236 255
222 236 255
222 236 255
222 236 255
222 236 255
222 236 255
222 236 255
222 236 255
222 236 255
222 236 255
222 236 255
222 236 255
222 236 255
222 236 255
222 236 255
222 236 255
222 236 255
222 236 255
222 236 255
222 236 255
222 236 255
222 236 255
222 236 255
222 236 255
222 236 255
222 236 255
222 236 255
222 236 255
222 236 255
222 236 255
222 236 255
222 236 255
222 236 255
222 236 255
222 236 255
222 236 255
222 236 255
222 236 255
222 236 255
222 236 255
222 236 255
222 236 255
222 236 255
222 236 255
222 236 255
222 236 255
222 236 255
222 236 255
222 236 255
222 236 255
222 236 255
222 236 255
222 236 255
222 236 255
222 236 255
222 236 255
222 236 255
222 236 255
222 236 255
222 236 255
222 236 255
222 236 255
222 236 255
222 236 255
222 236 255
222 236 255
222 236 255
222 236 255
222 236 255
222 236 255
222 236 255
222 236 255
222 236 255
222 236 255
222 236 255
222 236 255
222 236 255
222 236 255
222 236 255
222 236 255
222 236 255
222 236 255
222 236 255
222 236 255
222 236 255
222 236 255
222 236 255
222 236 255
222 236 255
222 236 255
222 236 255
222 236 255
222 236 255
222 236 255
222 236 255
222 236 255
222 236 255
222 236 255
222 236 255
222 236 255
222 236 255
222 236 255
222 236 255
222 236 255
222 236 255
222 236 255
222 236 255
222 236 255
222 236 255
222 236 255
222 236 255
222 236 255
222 236 255
222 236 255
222 236 255
222 236 255
222 236 255
222 236 255
222 236 255
222 236 255
222 236 255
222 236 255
222 236 255
222 236 255
222 236 255
222 236 255
222 236 255
222 236 255
222 236 255
222 236 255
222 236 255
222 236 255
222 236 255
222 236 255
222 236 255
222 236 255
222 236 255
222 236 255
222 236 255
222 236 255
222 236 255
222 236 255
222 236 255
222 236 255
222 236 255
222 236 255
222 236 255
222 236 255
222 236 255
222 236 255
222 236 255
222 236 255
222 236 255
222 236 255
222 236 255
222 236 255
222 236 255
222 236 255
222 236 255
222 236 255
222 236 255
222 236 255
222 236 255
222 236 255
222 236 255
222 236 255
222 236 255
222 236 255
222 236 255
222 236 255
222 236 255
222 236 255
222 236 255
222 236 255
222 236 255
222 236 255
222 236 255
222 236 255
222 236 255
222 236 255
222 236 255
222 236 255
222 236 255
222 236 255
222 236 255
222 236 255
222 236 255
222 236 255
222 236 255
222 236 255
222 236 255
222 236 255
222 236 255
222 236 255
222 236 255
222 236 255
222 236 255
222 236 255
222 236 255
222 236 255
222 236 255
222 236 255
222 236 255
222 236 255
222 236 255
222 236 255
222 236 255
222 236 255
222 236 255
222 236 255
222 236 255
222 236 255
222 236 255
222 236 255
222 236 255
222 236 255
222 236 255
222 236 255
222 236 255
222 236 255
222 236 255
222 236 255
222 236 255
222 236 255
222 236 255
222 236 255
222 236 255
222 236 255
222 236 255
222 236 255
222 236 255
222 236 255
222 236 255
222 236 255
222 236 255
222 236 255
222 236 255
222 236 255
222 236 255
222 236 255
222 236 255
222 236 255
222 236 255
222 236 255
222 236 255
222 236 255
222 236 255
222 236 255
222 236 255
222 236 255
222 236 255
222 236 255
222 236 255
222 236 255
222 236 255
222 236 255
222 236 255
222 236 255
222 236 255
222 236 255
222 236 255
222 236 255
222 236 255
222 236 255
222 236 255
222 236 255
222 236 255
222 236 255
222 236 255
222 236 255
222 236 255
222 236 255
222 236 255
222 236 255
222 236 255
222 236 255
222 236 255
222 236 255
222 236 255
222 236 255
222 236 255
222 236 255
222 236 255
222 236 255
222 236 255
222 236 255
222 236 255
222 236 255
222 236 255
222 236 255
222 236 255
222 236 255
222 236 255
222 236 255
222 236 255
222 236 255
222 236 255
222 236 255
222 236 255
208 222 240
140 149 165
34 36 72
19 22 62
43 46 57
52 54 51
36 38 58
0 2 57
37 39 48
67 70 72
15 17 57
4 12 69
0 0 62
0 0 60
0 0 61
0 7 68
0 8 71
0 8 71
48 59 75
179 201 227
198 223 255
198 223 255
197 222 254
157 178 208
70 82 112
2 3 58
0 0 60
0 0 58
0 0 56
0 0 54
0 0 55
0 0 51
0 0 52
0 0 52
0 0 52
0 0 51
0 0 52
0 0 61
0 12 74
0 19 80
0 16 78
6 10 71
1 3 66
0 1 56
0 0 51
0 0 52
0 0 49
0 0 47
0 0 48
0 0 48
0 0 47
3 4 49
2 6 46
0 0 51
0 0 51
0 0 52
0 0 52
0 0 52
0 0 52
0 0 54
0 0 52
0 2 56
8 14 47
28 41 33
54 66 37
46 58 23
43 58 14
39 50 15
28 41 0
21 37 0
19 39 5
7 33 79
0 23 87
16 39 70
27 43 10
21 37 2
17 33 3
16 31 4
14 29 10
18 34 9
20 37 3
17 32 6
16 29 17
20 40 3
21 42 0
23 43 0
22 41 0
19 39 0
23 44 0
21 43 0
21 40 0
23 41 0
131 142 149
207 220 238
222 236 255
222 236 255
222 236 255
222 236 255
222 236 255
222 236 255
222 236 255
222 236 255
222 236 255
222 236 255
222 236 255
222 236 255
222 236 255
222 236 255
222 236 255
222 236 255
222 236 255
222 236 255
222 236 255
222 236 255
222 236 255
222 236 255
222 236 255
222 236 255
222 236 255
222 236 255
222 236 255
222 236 255
222 236 255
222 236 255
222 236 255
222 236 255
222 236 255
222 236 255
222 236 255
222 236 255
222 236 255
222 236 255
222 236 255
222 236 255
222 236 255
222 236 255
222 236 255
222 236 255
222 236 255
222 236 255
222 236 255
222 236 255
222 236 255
222 236 255
222 236 255
222 236 255
222 236 255
222 236 255
222 236 255
222 236 255
222 236 255
222 236 255
222 236 255
222 236 255
222 236 255
222 236 255
222 236 255
222 236 255
222 236 255
222 236 255
222 236 255
222 236 255
222 236 255
222 236 255
222 236 255
222 236 255
222 236 255
222 236 255
222 236 255
222 236 255
222 236 255
222 236 255
222 236 255
222 236 255
222 236 255
222 236 255
222 236 255
222 236 255
222 236 255
222 236 255
222 236 255
222 236 255
222 236 255
222 236 255
222 236 255
222 236 255
222 236 255
222 236 255
222 236 255
222 236 255
222 236 255
222 236 255
222 236 255
222 236 255
222 236 255
222 236 255
222 236 255
222 236 255
222 236 255
222 236 255
222 236 255
222 236 255
222 236 255
222 236 255
222 236 255
222 236 255
222 236 255
222 236 255
222 236 255
222 236 255
222 236 255
222 236 255
222 236 255
222 236 255
222 236 255
222 236 255
222 236 255
222 236 255
222 236 255
222 236 255
222 236 255
222 236 255
222 236 255
222 236 255
222 236 255
222 236 255
222 236 255
222 236 255
222 236 255
222 236 255
222 236 255
222 236 255
222 236 255
222 236 255
222 236 255
222 236 255
222 236 255
222 236 255
222 236 255
222 236 255
222 236 255
222 236 255
222 236 255
222 236 255
222 236 255
222 236 255
222 236 255
222 236 255
222 236 255
222 236 255
222 236 255
222 236 255
222 236 255
222 236 255
222 236 255
222 236 255
222 236 255
222 236 255
222 236 255
222 236 255
222 236 255
222 236 255
222 236 255
222 236 255
222 236 255
222 236 255
222 236 255
222 236 255
222 236 255
222 236 255
222 236 255
222 236 255
222 236 255
222 236 255
222 236 255
222 236 255
222 236 255
222 236 255
222 236 255
222 236 255
222 236 255
222 236 255
222 236 255
222 236 255
222 236 255
222 236 255
222 236 255
222 236 255
222 236 255
222 236 255
222 236 255
222 236 255
222 236 255
222 236 255
222 236 255
222 236 255
222 236 255
222 236 255
222 236 255
222 236 255
222 236 255
222 236 255
222 236 255
222 236 255
222 236 255
222 236 255
222 236 255
222 236 255
222 236 255
222 236 255
222 236 255
222 236 255
222 236 255
222 236 255
222 236 255
222 236 255
222 236 255
222 236 255
222 236 255
222 236 255
222 236 255
222 236 255
222 236 255
222 236 255
222 236 255
222 236 255
222 236 255
222 236 255
222 236 255
222 236 255
222 236 255
222 236 255
222 236 255
222 236 255
222 236 255
222 236 255
222 236 255
222 236 255
222 236 255
222 236 255
222 236 255
222 236 255
222 236 255
222 236 255
222 236 255
222 236 255
222 236 255
222 236 255
222 236 255
222 236 255
222 236 255
222 236 255
222 236 255
222 236 255
222 236 255
222 236 255
222 236 255
222 236 255
222 236 255
222 236 255
222 236 255
222 236 255
222 236 255
222 236 255
222 236 255
222 236 255
222 236 255
222 236 255
222 236 255
222 236 255
222 236 255
222 236 255
222 236 255
222 236 255
222 236 255
222 236 255
222 236 255
222 236 255
222 236 255
222 236 255
222 236 255
222 236 255
222 236 255
222 236 255
222 236 255
222 236 255
222 236 255
222 236 255
222 236 255
222 236 255
222 236 255
222 236 255
222 236 255
222 236 255
222 236 255
222 236 255
222 236 255
222 236 255
218 231 250
147 156 173
33 35 74
0 3 65
13 16 69
42 43 46
60 60 38
59 61 45
13 17 58
0 0 58
7 8 60
13 13 61
0 4 67
0 2 65
0 3 65
0 2 63
0 11 73
0 9 72
0 8 69
0 6 72
55 64 70
159 177 204
154 174 194
189 214 246
138 159 191
27 33 70
0 0 56
0 0 55
0 0 54
0 0 55
0 0 53
0 0 52
0 0 52
0 0 50
0 0 52
0 0 52
0 0 55
0 0 53
0 0 56
0 0 59
0 0 63
0 0 61
0 0 60
0 0 58
0 0 56
0 0 51
0 0 50
0 0 50
0 0 48
0 0 50
0 0 53
0 0 55
0 0 50
4 6 49
6 11 49
0 0 50
0 0 50
0 0 49
0 0 52
0 0 49
0 0 50
0 0 53
0 0 54
0 2 59
27 38 37
69 85 74
78 92 70
49 63 30
38 52 9
34 48 8
33 45 0
26 39 0
20 35 0
14 35 47
1 26 91
0 22 86
11 42 83
23 40 14
22 38 2
17 33 7
17 33 4
16 29 11
14 29 31
10 24 45
15 33 26
15 32 19
19 40 6
20 41 0
20 43 1
21 44 0
23 46 0
22 46 0
21 44 0
20 41 0
23 43 0
41 54 36
156 167 179
214 228 246
222 236 255
222 236 255
222 236 255
222 236 255
222 236 255
222 236 255
222 236 255
222 236 255
222 236 255
222 236 255
222 236 255
222 236 255
222 236 255
222 236 255
222 236 255
222 236 255
222 236 255
222 236 255
222 236 255
222 236 255
222 236 255
222 236 255
222 236 255
222 236 255
222 236 255
222 236 255
222 236 255
222 236 255
222 236 255
222 236 255
222 236 255
222 236 255
222 236 255
222 236 255
222 236 255
222 236 255
222 236 255
222 236 255
222 236 255
222 236 255
222 236 255
222 236 255
222 236 255
222 236 255
222 236 255
222 236 255
222 236 255
222 236 255
222 236 255
222 236 255
222 236 255
222 236 255
222 236 255
222 236 255
222 236 255
222 236 255
222 236 255
222 236 255
222 236 255
222 236 255
222 236 255
222 236 255
222 236 255
222 236 255
222 236 255
222 236 255
222 236 255
222 236 255
222 236 255
222 236 255
222 236 255
222 236 255
222 236 255
222 236 255
222 236 255
222 236 255
222 236 255
222 236 255
222 236 255
222 236 255
222 236 255
222 236 255
222 236 255
222 236 255
222 236 255
222 236 255
222 236 255
222 236 255
222 236 255
222 236 255
222 236 255
222 236 255
222 236 255
222 236 255
222 236 255
222 236 255
222 236 255
222 236 255
222 236 255
222 236 255
222 236 255
222 236 255
222 236 255
222 236 255
222 236 255
222 236 255
222 236 255
222 236 255
222 236 255
222 236 255
222 236 255
222 236 255
222 236 255
222 236 255
222 236 255
222 236 255
222 236 255
222 236 255
222 236 255
222 236 255
222 236 255
222 236 255
222 236 255
222 236 255
222 236 255
222 236 255
222 236 255
222 236 255
222 236 255
222 236 255
222 236 255
222 236 255
222 236 255
222 236 255
222 236 255
222 236 255
222 236 255
222 236 255
222 236 255
222 236 255
222 236 255
222 236 255
222 236 255
222 236 255
222 236 255
222 236 255
222 236 255
222 236 255
222 236 255
222 236 255
222 236 255
222 236 255
222 236 255
222 236 255
222 236 255
222 236 255
222 236 255
222 236 255
222 236 255
222 236 255
222 236 255
222 236 255
222 236 255
222 236 255
222 236 255
222 236 255
222 236 255
222 236 255
222 236 255
222 236 255
222 236 255
222 236 255
222 236 255
222 236 255
222 236 255
222 236 255
222 236 255
222 236 255
222 236 255
222 236 255
222 236 255
222 236 255
222 236 255
222 236 255
222 236 255
222 236 255
222 236 255
222 236 255
222 236 255
222 236 255
222 236 255
222 236 255
222 236 255
222 236 255
222 236 255
222 236 255
222 236 255
222 236 255
222 236 255
222 236 255
222 236 255
222 236 255
222 236 255
222 236 255
222 236 255
222 236 255
222 236 255
222 236 255
222 236 255
222 236 255
222 236 255
222 236 255
222 236 255
222 236 255
222 236 255
222 236 255
222 236 255
222 236 255
222 236 255
222 236 255
222 236 255
222 236 255
222 236 255
222 236 255
222 236 255
222 236 255
222 236 255
222 236 255
222 236 255
222 236 255
222 236 255
222 236 255
222 236 255
222 236 255
222 236 255
222 236 255
222 236 255
222 236 255
222 236 255
222 236 255
222 236 255
222 236 255
222 236 255
222 236 255
222 236 255
222 236 255
222 236 255
222 236 255
222 236 255
222 236 255
222 236 255
222 236 255
222 236 255
222 236 255
222 236 255
222 236 255
222 236 255
222 236 255
222 236 255
222 236 255
222 236 255
222 236 255
222 236 255
222 236 255
222 236 255
222 236 255
222 236 255
222 236 255
222 236 255
222 236 255
222 236 255
222 236 255
222 236 255
222 236 255
222 236 255
222 236 255
222 236 255
222 236 255
222 236 255
222 236 255
222 236 255
222 236 255
222 236 255
222 236 255
222 236 255
222 236 255
222 236 255
222 236 255
222 236 255
222 236 255
222 236 255
222 236 255
222 236 255
222 236 255
222 236 255
222 236 255
222 236 255
222 236 255
222 236 255
222 236 255
222 236 255
191 203 221
82 87 109
0 0 66
0 1 64
28 30 58
43 46 32
54 55 32
50 51 45
19 20 61
34 38 62
28 35 56
0 4 64
0 0 64
0 0 65
0 4 66
0 6 67
0 5 67
0 3 65
0 4 66
0 10 73
0 13 76
10 19 77
17 24 56
90 104 119
96 112 139
4 6 64
0 0 55
0 0 51
0 0 51
0 0 52
0 0 52
0 0 52
0 0 50
0 0 50
0 0 53
0 0 53
0 0 54
0 0 55
0 0 57
0 0 56
0 0 55
0 0 55
0 0 55
0 0 55
0 0 55
0 0 58
0 0 56
0 0 49
0 0 50
0 0 51
0 0 53
0 0 58
0 0 60
0 0 58
0 0 60
0 0 54
0 0 50
0 0 56
0 0 53
0 0 56
2 10 42
0 0 49
0 0 56
0 3 59
0 0 60
7 13 57
34 49 26
67 80 54
43 57 19
26 43 4
22 40 2
21 37 0
21 36 0
20 34 0
20 34 0
20 38 33
17 36 59
3 31 84
8 35 78
17 41 59
21 44 35
20 51 65
9 46 86
9 35 71
16 40 41
18 38 47
22 44 0
22 41 4
21 41 9
21 42 2
22 44 0
22 46 0
20 45 0
21 46 0
20 45 0
23 46 0
24 46 0
22 45 0
77 88 84
187 200 215
222 236 255
222 236 255
222 236 255
222 236 255
222 236 255
222 236 255
222 236 255
222 236 255
222 236 255
222 236 255
222 236 255
222 236 255
222 236 255
222 236 255
222 236 255
222 236 255
222 236 255
222 236 255
222 236 255
222 236 255
222 236 255
222 236 255
222 236 255
222 236 255
222 236 255
222 236 255
222 236 255
222 236 255
222 236 255
222 236 255
222 236 255
222 236 255
222 236 255
222 236 255
222 236 255
222 236 255
222 236 255
222 236 255
222 236 255
222 236 255
222 236 255
222 236 255
222 236 255
222 236 255
222 236 255
222 236 255
222 236 255
222 236 255
222 236 255
222 236 255
222 236 255
222 236 255
222 236 255
222 236 255
222 236 255
222 236 255
222 236 255
222 236 255
222 236 255
222 236 255
222 236 255
222 236 255
222 236 255
222 236 255
222 236 255
222 236 255
222 236 255
222 236 255
222 236 255
222 236 255
222 236 255
222 236 255
222 236 255
222 236 255
222 236 255
222 236 255
222 236 255
222 236 255
222 236 255
222 236 255
222 236 255
222 236 255
222 236 255
222 236 255
222 236 255
222 236 255
222 236 255
222 236 255
222 236 255
222 236 255
222 236 255
222 236 255
222 236 255
222 236 255
222 236 255
222 236 255
222 236 255
222 236 255
222 236 255
222 236 255
222 236 255
222 236 255
222 236 255
222 236 255
222 236 255
222 236 255
222 236 255
222 236 255
222 236 255
222 236 255
222 236 255
222 236 255
222 236 255
222 236 255
222 236 255
222 236 255
222 236 255
222 236 255
222 236 255
222 236 255
222 236 255
222 236 255
222 236 255
222 236 255
222 236 255
222 236 255
222 236 255
222 236 255
222 236 255
222 236 255
222 236 255
222 236 255
222 236 255
222 236 255
222 236 255
222 236 255
222 236 255
222 236 255
222 236 255
222 236 255
222 236 255
222 236 255
222 236 255
222 236 255
222 236 255
222 236 255
222 236 255
222 236 255
222 236 255
222 236 255
222 236 255
222 236 255
222 236 255
222 236 255
222 236 255
222 236 255
222 236 255
222 236 255
222 236 255
222 236 255
222 236 255
222 236 255
222 236 255
222 236 255
222 236 255
222 236 255
222 236 255
222 236 255
222 236 255
222 236 255
222 236 255
222 236 255
222 236 255
222 236 255
222 236 255
222 236 255
222 236 255
222 236 255
222 236 255
222 236 255
222 236 255
222 236 255
222 236 255
222 236 255
222 236 255
222 236 255
222 236 255
222 236 255
222 236 255
222 236 255
222 236 255
222 236 255
222 236 255
222 236 255
222 236 255
222 236 255
222 236 255
222 236 255
222 236 255
222 236 255
222 236 255
222 236 255
222 236 255
222 236 255
222 236 255
222 236 255
222 236 255
222 236 255
222 236 255
222 236 255
222 236 255
222 236 255
222 236 255
222 236 255
222 236 255
222 236 255
222 236 255
222 236 255
222 236 255
222 236 255
222 236 255
222 236 255
222 236 255
222 236 255
222 236 255
222 236 255
222 236 255
222 236 255
222 236 255
222 236 255
222 236 255
222 236 255
222 236 255
222 236 255
222 236 255
222 236 255
222 236 255
222 236 255
222 236 255
222 236 255
222 236 255
222 236 255
222 236 255
222 236 255
222 236 255
222 236 255
222 236 255
222 236 255
222 236 255
222 236 255
222 236 255
222 236 255
222 236 255
222 236 255
222 236 255
222 236 255
222 236 255
222 236 255
222 236 255
222 236 255
222 236 255
222 236 255
222 236 255
222 236 255
222 236 255
222 236 255
222 236 255
222 236 255
222 236 255
222 236 255
222 236 255
222 236 255
222 236 255
222 236 255
222 236 255
222 236 255
222 236 255
222 236 255
222 236 255
222 236 255
222 236 255
222 236 255
222 236 255
222 236 255
222 236 255
222 236 255
222 236 255
222 236 255
222 236 255
222 236 255
222 236 255
222 236 255
222 236 255
222 236 255
222 236 255
222 236 255
222 236 255
222 236 255
209 222 240
113 120 136
2 5 67
0 0 64
14 17 59
39 43 34
48 51 19
52 55 24
47 52 42
21 34 77
44 51 59
58 60 57
8 10 60
0 0 62
0 0 60
0 0 54
0 0 55
0 0 58
0 3 66
0 2 64
0 3 63
0 15 78
0 13 74
3 32 93
1 15 76
6 13 69
0 2 63
0 0 52
0 0 52
0 0 51
0 0 52
0 0 52
0 0 51
0 0 50
0 0 50
0 0 54
0 0 58
0 0 58
0 0 58
0 0 57
0 0 58
0 0 58
0 0 56
0 0 56
0 0 57
0 0 58
0 0 59
0 0 58
0 0 60
0 0 55
0 0 53
0 0 53
0 0 56
0 0 60
0 0 63
0 0 62
0 0 65
0 0 63
0 2 60
0 2 64
0 3 59
2 8 57
0 0 52
0 0 54
0 0 61
0 6 67
0 0 61
0 0 60
7 17 43
43 56 33
49 58 25
27 40 5
20 39 24
17 36 40
17 31 0
14 28 28
20 33 9
25 41 2
25 45 9
13 35 59
0 19 84
0 18 84
5 27 85
17 46 71
25 47 27
26 53 45
23 44 17
24 48 0
24 44 2
23 45 4
24 44 0
26 47 0
24 45 3
24 45 13
22 46 0
22 47 0
24 48 0
27 50 0
27 50 0
28 50 0
26 49 0
22 46 0
123 135 140
203 216 233
222 236 255
222 236 255
222 236 255
222 236 255
222 236 255
222 236 255
222 236 255
222 236 255
222 236 255
222 236 255
222 236 255
222 236 255
222 236 255
222 236 255
222 236 255
222 236 255
222 236 255
222 236 255
222 236 255
222 236 255
222 236 255
222 236 255
222 236 255
222 236 255
222 236 255
222 236 255
222 236 255
222 236 255
222 236 255
222 236 255
222 236 255
222 236 255
222 236 255
222 236 255
222 236 255
222 236 255
222 236 255
222 236 255
222 236 255
222 236 255
222 236 255
222 236 255
222 236 255
222 236 255
222 236 255
222 236 255
222 236 255
222 236 255
222 236 255
222 236 255
222 236 255
222 236 255
222 236 255
222 236 255
222 236 255
222 236 255
222 236 255
222 236 255
222 236 255
222 236 255
222 236 255
222 236 255
222 236 255
222 236 255
222 236 255
222 236 255
222 236 255
222 236 255
222 236 255
222 236 255
222 236 255
222 236 255
222 236 255
222 236 255
222 236 255
222 236 255
222 236 255
222 236 255
222 236 255
222 236 255
222 236 255
222 236 255
222 236 255
222 236 255
222 236 255
222 236 255
222 236 255
222 236 255
222 236 255
222 236 255
222 236 255
222 236 255
222 236 255
222 236 255
222 236 255
222 236 255
222 236 255
222 236 255
222 236 255
222 236 255
222 236 255
222 236 255
222 236 255
222 236 255
222 236 255
222 236 255
222 236 255
222 236 255
222 236 255
222 236 255
222 236 255
222 236 255
222 236 255
222 236 255
222 236 255
222 236 255
222 236 255
222 236 255
222 236 255
222 236 255
222 236 255
222 236 255
222 236 255
222 236 255
222 236 255
222 236 255
222 236 255
222 236 255
222 236 255
222 236 255
222 236 255
222 236 255
222 236 255
222 236 255
222 236 255
222 236 255
222 236 255
222 236 255
222 236 255
222 236 255
222 236 255
222 236 255
222 236 255
222 236 255
222 236 255
222 236 255
222 236 255
222 236 255
222 236 255
222 236 255
222 236 255
222 236 255
222 236 255
222 236 255
222 236 255
222 236 255
222 236 255
222 236 255
222 236 255
222 236 255
222 236 255
222 236 255
222 236 255
222 236 255
222 236 255
222 236 255
222 236 255
222 236 255
222 236 255
222 236 255
222 236 255
222 236 255
222 236 255
222 236 255
222 236 255
222 236 255
222 236 255
222 236 255
222 236 255
222 236 255
222 236 255
222 236 255
222 236 255
222 236 255
222 236 255
222 236 255
222 236 255
222 236 255
222 236 255
222 236 255
222 236 255
222 236 255
222 236 255
222 236 255
222 236 255
222 236 255
222 236 255
222 236 255
222 236 255
222 236 255
222 236 255
222 236 255
222 236 255
222 236 255
222 236 255
222 236 255
222 236 255
222 236 255
222 236 255
222 236 255
222 236 255
222 236 255
222 236 255
222 236 255
222 236 255
222 236 255
222 236 255
222 236 255
222 236 255
222 236 255
222 236 255
222 236 255
222 236 255
222 236 255
222 236 255
222 236 255
222 236 255
222 236 255
222 236 255
222 236 255
222 236 255
222 236 255
222 236 255
222 236 255
222 236 255
222 236 255
222 236 255
222 236 255
222 236 255
222 236 255
222 236 255
222 236 255
222 236 255
222 236 255
222 236 255
222 236 255
222 236 255
222 236 255
222 236 255
222 236 255
222 236 255
222 236 255
222 236 255
222 236 255
222 236 255
222 236 255
222 236 255
222 236 255
222 236 255
222 236 255
222 236 255
222 236 255
222 236 255
222 236 255
222 236 255
222 236 255
222 236 255
222 236 255
222 236 255
222 236 255
222 236 255
222 236 255
222 236 255
222 236 255
222 236 255
222 236 255
222 236 255
222 236 255
222 236 255
222 236 255
222 236 255
222 236 255
222 236 255
222 236 255
222 236 255
222 236 255
222 236 255
222 236 255
222 236 255
222 236 255
222 236 255
222 236 255
222 236 255
222 236 255
221 235 254
169 181 194
53 60 86
0 4 68
0 0 65
17 19 59
42 47 25
50 54 21
53 57 22
43 52 15
45 53 23
57 61 30
60 64 40
23 28 62
0 0 60
0 0 62
0 0 53
0 0 55
0 0 57
0 0 58
0 0 62
0 0 63
0 6 66
0 10 70
0 5 66
0 18 78
0 8 67
0 2 56
0 0 52
0 0 51
0 0 52
0 0 52
0 0 52
0 0 53
0 0 53
0 0 50
0 0 53
0 0 55
0 0 54
0 0 53
0 0 53
0 0 56
0 0 56
0 0 58
0 0 61
0 0 66
0 0 65
0 0 65
0 0 64
0 0 62
0 0 63
0 0 62
0 0 58
0 0 60
0 0 56
0 0 55
0 0 57
0 2 57
0 7 68
8 17 68
14 23 66
28 33 61
33 39 45
14 21 55
0 3 61
0 0 57
0 0 55
0 3 61
0 16 73
0 3 63
0 0 60
16 25 52
25 35 33
19 32 29
6 15 59
0 7 65
17 32 53
22 40 19
28 48 12
22 39 13
23 44 21
4 29 81
2 17 78
2 15 72
2 12 76
8 51 73
17 49 76
26 51 32
26 48 8
25 45 4
26 49 0
26 47 6
23 43 0
24 44 0
26 48 0
27 49 13
28 51 4
30 54 0
26 49 0
24 47 0
30 54 2
38 59 8
32 53 0
31 52 4
29 53 0
56 73 57
170 183 194
220 234 253
222 236 255
222 236 255
222 236 255
222 236 255
222 236 255
222 236 255
222 236 255
222 236 255
222 236 255
222 236 255
222 236 255
222 236 255
222 236 255
222 236 255
222 236 255
222 236 255
222 236 255
222 236 255
222 236 255
222 236 255
222 236 255
222 236 255
222 236 255
222 236 255
222 236 255
222 236 255
222 236 255
222 236 255
222 236 255
222 236 255
222 236 255
222 236 255
222 236 255
222 236 255
222 236 255
222 236 255
222 236 255
222 236 255
222 236 255
222 236 255
222 236 255
222 236 255
222 236 255
222 236 255
222 236 255
222 236 255
222 236 255
222 236 255
222 236 255
222 236 255
222 236 255
222 236 255
222 236 255
222 236 255
222 236 255
222 236 255
222 236 255
222 236 255
222 236 255
222 236 255
222 236 255
222 236 255
222 236 255
222 236 255
222 236 255
222 236 255
222 236 255
222 236 255
222 236 255
222 236 255
222 236 255
222 236 255
222 236 255
222 236 255
222 236 255
222 236 255
222 236 255
222 236 255
222 236 255
222 236 255
222 236 255
222 236 255
222 236 255
222 236 255
222 236 255
222 236 255
222 236 255
222 236 255
222 236 255
222 236 255
222 236 255
222 236 255
222 236 255
222 236 255
222 236 255
222 236 255
222 236 255
222 236 255
222 236 255
222 236 255
222 236 255
222 236 255
222 236 255
222 236 255
222 236 255
222 236 255
222 236 255
222 236 255
222 236 255
222 236 255
222 236 255
222 236 255
222 236 255
222 236 255
222 236 255
222 236 255
222 236 255
222 236 255
222 236 255
222 236 255
222 236 255
222 236 255
222 236 255
222 236 255
222 236 255
222 236 255
222 236 255
222 236 255
222 236 255
222 236 255
222 236 255
222 236 255
222 236 255
222 236 255
222 236 255
222 236 255
222 236 255
222 236 255
222 236 255
222 236 255
222 236 255
222 236 255
222 236 255
222 236 255
222 236 255
222 236 255
222 236 255
222 236 255
222 236 255
222 236 255
222 236 255
222 236 255
222 236 255
222 236 255
222 236 255
222 236 255
222 236 255
222 236 255
222 236 255
222 236 255
222 236 255
222 236 255
222 236 255
222 236 255
222 236 255
222 236 255
222 236 255
222 236 255
222 236 255
222 236 255
222 236 255
222 236 255
222 236 255
222 236 255
222 236 255
222 236 255
222 236 255
222 236 255
222 236 255
222 236 255
222 236 255
222 236 255
222 236 255
222 236 255
222 236 255
222 236 255
222 236 255
222 236 255
222 236 255
222 236 255
222 236 255
222 236 255
222 236 255
222 236 255
222 236 255
222 236 255
222 236 255
222 236 255
222 236 255
222 236 255
222 236 255
222 236 255
222 236 255
222 236 255
222 236 255
222 236 255
222 236 255
222 236 255
222 236 255
222 236 255
222 236 255
222 236 255
222 236 255
222 236 255
222 236 255
222 236 255
222 236 255
222 236 255
222 236 255
222 236 255
222 236 255
222 236 255
222 236 255
222 236 255
222 236 255
222 236 255
222 236 255
222 236 255
222 236 255
222 236 255
222 236 255
222 236 255
222 236 255
222 236 255
222 236 255
222 236 255
222 236 255
222 236 255
222 236 255
222 236 255
222 236 255
222 236 255
222 236 255
222 236 255
222 236 255
222 236 255
222 236 255
222 236 255
222 236 255
222 236 255
222 236 255
222 236 255
222 236 255
222 236 255
222 236 255
222 236 255
222 236 255
222 236 255
222 236 255
222 236 255
222 236 255
222 236 255
222 236 255
222 236 255
222 236 255
222 236 255
222 236 255
222 236 255
222 236 255
222 236 255
222 236 255
222 236 255
222 236 255
222 236 255
222 236 255
222 236 255
222 236 255
222 236 255
222 236 255
222 236 255
222 236 255
222 236 255
222 236 255
222 236 255
222 236 255
222 236 255
222 236 255
222 236 255
222 236 255
222 236 255
222 236 255
204 217 234
123 133 138
21 29 58
0 7 70
5 11 67
20 25 51
41 47 23
47 52 18
48 55 19
35 45 10
38 46 11
56 59 30
54 58 32
30 39 48
0 0 67
0 0 59
0 0 56
0 0 58
0 0 59
0 0 58
0 0 61
0 0 63
0 0 59
0 0 58
0 0 57
0 1 56
0 0 50
0 0 49
0 0 50
0 0 53
0 0 53
0 0 53
0 0 53
0 0 53
0 0 53
0 0 54
0 0 56
0 0 55
0 0 51
0 0 52
0 0 54
0 0 56
0 0 57
0 0 58
0 0 65
0 0 67
0 0 66
0 0 65
0 0 65
0 0 66
0 0 67
0 0 62
0 0 61
0 0 66
0 0 66
0 0 58
0 0 56
0 0 58
0 6 65
0 18 82
2 19 65
10 33 63
49 57 35
40 50 25
34 46 32
31 54 44
0 7 66
0 0 66
0 12 71
0 19 81
0 15 77
0 0 62
0 0 59
0 0 62
0 0 58
9 20 65
21 39 59
17 45 72
12 31 72
21 41 27
22 37 3
19 36 0
15 38 49
8 27 75
10 27 73
0 12 76
9 32 69
25 51 44
25 52 65
26 49 7
28 50 0
31 54 0
28 51 0
26 47 0
21 41 0
24 45 0
28 53 0
28 51 3
29 53 0
35 58 7
31 52 2
29 50 3
33 55 10
33 53 9
38 59 10
36 57 9
35 59 8
30 54 3
111 124 122
207 220 237
222 236 255
222 236 255
222 236 255
222 236 255
222 236 255
222 236 255
222 236 255
222 236 255
222 236 255
222 236 255
222 236 255
222 236 255
222 236 255
222 236 255
222 236 255
222 236 255
222 236 255
222 236 255
222 236 255
222 236 255
222 236 255
222 236 255
222 236 255
222 236 255
222 236 255
222 236 255
222 236 255
222 236 255
222 236 255
222 236 255
222 236 255
222 236 255
222 236 255
222 236 255
222 236 255
222 236 255
222 236 255
222 236 255
222 236 255
222 236 255
222 236 255
222 236 255
222 236 255
222 236 255
222 236 255
222 236 255
222 236 255
222 236 255
222 236 255
222 236 255
222 236 255
222 236 255
222 236 255
222 236 255
222 236 255
222 236 255
222 236 255
222 236 255
222 236 255
222 236 255
222 236 255
222 236 255
222 236 255
222 236 255
222 236 255
222 236 255
222 236 255
222 236 255
222 236 255
222 236 255
222 236 255
222 236 255
222 236 255
222 236 255
222 236 255
222 236 255
222 236 255
222 236 255
222 236 255
222 236 255
222 236 255
222 236 255
222 236 255
222 236 255
222 236 255
222 236 255
222 236 255
222 236 255
222 236 255
222 236 255
222 236 255
222 236 255
222 236 255
222 236 255
222 236 255
222 236 255
222 236 255
222 236 255
222 236 255
222 236 255
222 236 255
222 236 255
222 236 255
222 236 255
222 236 255
222 236 255
222 236 255
222 236 255
222 236 255
222 236 255
222 236 255
222 236 255
222 236 255
222 236 255
222 236 255
222 236 255
222 236 255
222 236 255
222 236 255
222 236 255
222 236 255
222 236 255
222 236 255
222 236 255
222 236 255
222 236 255
222 236 255
222 236 255
222 236 255
222 236 255
222 236 255
222 236 255
222 236 255
222 236 255
222 236 255
222 236 255
222 236 255
222 236 255
222 236 255
222 236 255
222 236 255
222 236 255
222 236 255
222 236 255
222 236 255
222 236 255
222 236 255
222 236 255
222 236 255
222 236 255
222 236 255
222 236 255
222 236 255
222 236 255
222 236 255
222 236 255
222 236 255
222 236 255
222 236 255
222 236 255
222 236 255
222 236 255
222 236 255
222 236 255
222 236 255
222 236 255
222 236 255
222 236 255
222 236 255
222 236 255
222 236 255
222 236 255
222 236 255
222 236 255
222 236 255
222 236 255
222 236 255
222 236 255
222 236 255
222 236 255
222 236 255
222 236 255
222 236 255
222 236 255
222 236 255
222 236 255
222 236 255
222 236 255
222 236 255
222 236 255
222 236 255
222 236 255
222 236 255
222 236 255
222 236 255
222 236 255
222 236 255
222 236 255
222 236 255
222 236 255
222 236 255
222 236 255
222 236 255
222 236 255
222 236 255
222 236 255
222 236 255
222 236 255
222 236 255
222 236 255
222 236 255
222 236 255
222 236 255
222 236 255
222 236 255
222 236 255
222 236 255
222 236 255
222 236 255
222 236 255
222 236 255
222 236 255
222 236 255
222 236 255
222 236 255
222 236 255
222 236 255
222 236 255
222 236 255
222 236 255
222 236 255
222 236 255
222 236 255
222 236 255
222 236 255
222 236 255
222 236 255
222 236 255
222 236 255
222 236 255
222 236 255
222 236 255
222 236 255
222 236 255
222 236 255
222 236 255
222 236 255
222 236 255
222 236 255
222 236 255
222 236 255
222 236 255
222 236 255
222 236 255
222 236 255
222 236 255
222 236 255
222 236 255
222 236 255
222 236 255
222 236 255
222 236 255
222 236 255
222 236 255
222 236 255
222 236 255
222 236 255
222 236 255
222 236 255
222 236 255
222 236 255
222 236 255
222 236 255
222 236 255
222 236 255
222 236 255
222 236 255
222 236 255
222 236 255
222 236 255
222 236 255
222 236 255
222 236 255
222 236 255
222 236 255
222 236 255
222 236 255
222 236 255
222 236 255
174 186 199
66 73 67
28 38 47
0 15 76
17 23 55
32 38 38
35 42 12
40 47 10
42 50 11
35 44 10
33 41 6
47 53 20
50 55 23
25 36 40
0 6 67
0 0 60
0 0 55
0 0 56
0 0 59
0 0 60
0 0 60
0 0 60
0 0 57
0 0 58
0 0 57
0 0 57
0 0 54
0 0 54
0 0 52
0 0 51
0 0 53
0 0 53
0 0 53
0 0 53
0 0 54
0 0 53
0 0 57
0 0 59
0 0 57
0 0 54
0 0 54
0 0 57
0 0 59
0 0 63
0 0 66
0 0 67
0 3 66
0 0 64
0 0 62
0 0 62
0 0 63
0 0 64
0 0 61
0 0 62
0 0 63
0 0 57
0 0 56
0 0 54
0 0 58
0 4 63
0 16 81
0 14 75
4 20 71
31 47 38
49 61 18
43 62 21
21 50 72
0 11 72
0 1 63
0 15 74
0 8 64
0 8 62
0 5 65
0 0 52
0 0 54
0 4 62
10 26 70
36 60 14
36 63 37
7 34 84
12 36 76
25 47 25
21 43 21
16 37 46
11 35 76
0 9 74
0 8 71
5 20 78
26 53 47
37 60 3
39 64 6
34 57 6
32 56 4
28 52 4
26 48 0
28 50 0
25 47 0
28 51 0
31 55 0
31 54 2
33 54 6
30 50 0
33 54 6
37 58 9
43 65 16
41 61 15
43 63 16
41 63 15
38 61 11
29 54 0
66 82 63
176 189 200
222 236 255
222 236 255
222 236 255
222 236 255
222 236 255
222 236 255
222 236 255
222 236 255
222 236 255
222 236 255
222 236 255
222 236 255
222 236 255
222 236 255
222 236 255
222 236 255
222 236 255
222 236 255
222 236 255
222 236 255
222 236 255
222 236 255
222 236 255
222 236 255
222 236 255
222 236 255
222 236 255
222 236 255
222 236 255
222 236 255
222 236 255
222 236 255
222 236 255
222 236 255
222 236 255
222 236 255
222 236 255
222 236 255
222 236 255
222 236 255
222 236 255
222 236 255
222 236 255
222 236 255
222 236 255
222 236 255
222 236 255
222 236 255
222 236 255
222 236 255
222 236 255
222 236 255
222 236 255
222 236 255
222 236 255
222 236 255
222 236 255
222 236 255
222 236 255
222 236 255
222 236 255
222 236 255
222 236 255
222 236 255
222 236 255
222 236 255
222 236 255
222 236 255
222 236 255
222 236 255
222 236 255
222 236 255
222 236 255
222 236 255
222 236 255
222 236 255
222 236 255
222 236 255
222 236 255
222 236 255
222 236 255
222 236 255
222 236 255
222 236 255
222 236 255
222 236 255
222 236 255
222 236 255
222 236 255
222 236 255
222 236 255
222 236 255
222 236 255
222 236 255
222 236 255
222 236 255
222 236 255
222 236 255
222 236 255
222 236 255
222 236 255
222 236 255
222 236 255
222 236 255
222 236 255
222 236 255
222 236 255
222 236 255
222 236 255
222 236 255
222 236 255
222 236 255
222 236 255
222 236 255
222 236 255
222 236 255
222 236 255
222 236 255
222 236 255
222 236 255
222 236 255
222 236 255
222 236 255
222 236 255
222 236 255
222 236 255
222 236 255
222 236 255
222 236 255
222 236 255
222 236 255
222 236 255
222 236 255
222 236 255
222 236 255
222 236 255
222 236 255
222 236 255
222 236 255
222 236 255
222 236 255
222 236 255
222 236 255
222 236 255
222 236 255
222 236 255
222 236 255
222 236 255
222 236 255
222 236 255
222 236 255
222 236 255
222 236 255
222 236 255
222 236 255
222 236 255
222 236 255
222 236 255
222 236 255
222 236 255
222 236 255
222 236 255
222 236 255
222 236 255
222 236 255
222 236 255
222 236 255
222 236 255
222 236 255
222 236 255
222 236 255
222 236 255
222 236 255
222 236 255
222 236 255
222 236 255
222 236 255
222 236 255
222 236 255
222 236 255
222 236 255
222 236 255
222 236 255
222 236 255
222 236 255
222 236 255
222 236 255
222 236 255
222 236 255
222 236 255
222 236 255
222 236 255
222 236 255
222 236 255
222 236 255
222 236 255
222 236 255
222 236 255
222 236 255
222 236 255
222 236 255
222 236 255
222 236 255
222 236 255
222 236 255
222 236 255
222 236 255
222 236 255
222 236 255
222 236 255
222 236 255
222 236 255
222 236 255
222 236 255
222 236 255
222 236 255
222 236 255
222 236 255
222 236 255
222 236 255
222 236 255
222 236 255
222 236 255
222 236 255
222 236 255
222 236 255
222 236 255
222 236 255
222 236 255
222 236 255
222 236 255
222 236 255
222 236 255
222 236 255
222 236 255
222 236 255
222 236 255
222 236 255
222 236 255
222 236 255
222 236 255
222 236 255
222 236 255
222 236 255
222 236 255
222 236 255
222 236 255
222 236 255
222 236 255
222 236 255
222 236 255
222 236 255
222 236 255
222 236 255
222 236 255
222 236 255
222 236 255
222 236 255
222 236 255
222 236 255
222 236 255
222 236 255
222 236 255
222 236 255
222 236 255
222 236 255
222 236 255
222 236 255
222 236 255
222 236 255
222 236 255
222 236 255
222 236 255
222 236 255
222 236 255
222 236 255
222 236 255
222 236 255
222 236 255
222 236 255
222 236 255
222 236 255
222 236 255
222 236 255
222 236 255
222 236 255
217 230 249
117 127 133
29 39 4
31 42 33
22 36 77
29 37 46
37 46 10
33 41 5
29 36 7
34 40 4
36 43 7
31 40 3
40 46 5
47 53 19
37 46 13
25 41 42
9 16 69
0 0 62
0 0 53
0 0 54
0 0 56
0 0 58
0 0 58
0 0 57
0 0 59
0 0 58
0 0 56
0 0 54
0 0 53
0 0 54
0 0 54
0 0 54
0 0 55
0 0 58
0 0 54
0 0 53
0 0 55
0 0 56
0 0 57
0 0 60
0 0 62
0 0 59
0 0 55
0 0 62
0 0 64
0 0 65
0 0 67
0 0 69
0 8 70
0 0 67
0 0 66
0 0 59
0 0 58
0 0 58
0 0 59
0 0 57
0 0 58
0 0 57
0 0 57
0 0 58
0 0 61
0 0 61
0 3 54
12 21 56
14 34 65
13 31 54
22 45 53
42 66 16
39 68 27
34 66 69
4 44 99
0 7 62
0 0 53
0 0 49
0 0 51
0 0 53
0 0 55
0 3 68
0 15 80
25 61 72
40 66 31
24 56 63
30 63 55
27 56 64
27 46 60
0 20 75
0 10 73
0 8 74
0 14 75
0 20 82
11 49 85
33 72 47
36 64 6
37 63 1
33 57 0
32 55 2
33 56 3
32 56 0
34 58 0
29 55 0
32 57 0
28 52 0
32 55 0
37 60 0
33 54 6
35 57 4
39 61 7
40 63 12
40 62 16
39 60 18
41 63 14
39 62 14
32 54 9
44 63 16
146 158 163
215 228 247
222 236 255
222 236 255
222 236 255
222 236 255
222 236 255
222 236 255
222 236 255
222 236 255
222 236 255
222 236 255
222 236 255
222 236 255
222 236 255
222 236 255
222 236 255
222 236 255
222 236 255
222 236 255
222 236 255
222 236 255
222 236 255
222 236 255
222 236 255
222 236 255
222 236 255
222 236 255
222 236 255
222 236 255
222 236 255
222 236 255
222 236 255
222 236 255
222 236 255
222 236 255
222 236 255
222 236 255
222 236 255
222 236 255
222 236 255
222 236 255
222 236 255
222 236 255
222 236 255
222 236 255
222 236 255
222 236 255
222 236 255
222 236 255
222 236 255
222 236 255
222 236 255
222 236 255
222 236 255
222 236 255
222 236 255
222 236 255
222 236 255
222 236 255
222 236 255
222 236 255
222 236 255
222 236 255
222 236 255
222 236 255
222 236 255
222 236 255
222 236 255
222 236 255
222 236 255
222 236 255
222 236 255
222 236 255
222 236 255
222 236 255
222 236 255
222 236 255
222 236 255
222 236 255
222 236 255
222 236 255
222 236 255
222 236 255
222 236 255
222 236 255
222 236 255
222 236 255
222 236 255
222 236 255
222 236 255
222 236 255
222 236 255
222 236 255
222 236 255
222 236 255
222 236 255
222 236 255
222 236 255
222 236 255
222 236 255
222 236 255
222 236 255
222 236 255
222 236 255
222 236 255
222 236 255
222 236 255
222 236 255
222 236 255
222 236 255
222 236 255
222 236 255
222 236 255
222 236 255
222 236 255
222 236 255
222 236 255
222 236 255
222 236 255
222 236 255
222 236 255
222 236 255
222 236 255
222 236 255
222 236 255
222 236 255
222 236 255
222 236 255
222 236 255
222 236 255
222 236 255
222 236 255
222 236 255
222 236 255
222 236 255
222 236 255
222 236 255
222 236 255
222 236 255
222 236 255
222 236 255
222 236 255
222 236 255
222 236 255
222 236 255
222 236 255
222 236 255
222 236 255
222 236 255
222 236 255
222 236 255
222 236 255
222 236 255
222 236 255
222 236 255
222 236 255
222 236 255
222 236 255
222 236 255
222 236 255
222 236 255
222 236 255
222 236 255
222 236 255
222 236 255
222 236 255
222 236 255
222 236 255
222 236 255
222 236 255
222 236 255
222 236 255
222 236 255
222 236 255
222 236 255
222 236 255
222 236 255
222 236 255
222 236 255
222 236 255
222 236 255
222 236 255
222 236 255
222 236 255
222 236 255
222 236 255
222 236 255
222 236 255
222 236 255
222 236 255
222 236 255
222 236 255
222 236 255
222 236 255
222 236 255
222 236 255
222 236 255
222 236 255
222 236 255
222 236 255
222 236 255
222 236 255
222 236 255
222 236 255
222 236 255
222 236 255
222 236 255
222 236 255
222 236 255
222 236 255
222 236 255
222 236 255
222 236 255
222 236 255
222 236 255
222 236 255
222 236 255
222 236 255
222 236 255
222 236 255
222 236 255
222 236 255
222 236 255
222 236 255
222 236 255
222 236 255
222 236 255
222 236 255
222 236 255
222 236 255
222 236 255
222 236 255
222 236 255
222 236 255
222 236 255
222 236 255
222 236 255
222 236 255
222 236 255
222 236 255
222 236 255
222 236 255
222 236 255
222 236 255
222 236 255
222 236 255
222 236 255
222 236 255
222 236 255
222 236 255
222 236 255
222 236 255
222 236 255
222 236 255
222 236 255
222 236 255
222 236 255
222 236 255
222 236 255
222 236 255
222 236 255
222 236 255
222 236 255
222 236 255
222 236 255
222 236 255
222 236 255
222 236 255
222 236 255
222 236 255
222 236 255
222 236 255
222 236 255
222 236 255
222 236 255
222 236 255
222 236 255
222 236 255
222 236 255
222 236 255
222 236 255
222 236 255
222 236 255
222 236 255
209 222 240
80 90 88
28 38 2
25 47 60
17 46 88
29 41 41
28 38 9
31 41 4
27 37 2
27 34 6
34 41 6
27 36 11
21 28 14
31 42 9
28 44 23
26 42 28
20 41 26
4 14 69
0 0 58
0 0 52
0 0 54
0 0 56
0 0 55
0 0 55
0 0 58
0 0 57
0 0 54
0 0 53
0 0 55
0 0 56
0 0 57
0 0 56
0 0 56
0 0 63
0 0 61
0 0 56
0 0 53
0 0 54
0 0 56
0 0 58
0 0 59
0 0 62
0 0 65
0 0 66
0 0 66
0 0 64
0 0 64
0 0 65
0 0 67
0 0 66
0 0 63
0 0 64
0 0 58
0 0 50
0 0 52
0 0 52
0 0 54
0 0 55
0 0 54
0 0 54
0 0 57
0 0 60
7 11 53
15 24 49
37 64 18
37 69 15
28 58 41
12 33 65
16 46 68
37 70 30
42 68 19
34 75 81
13 35 77
0 6 68
0 0 57
0 0 55
0 0 58
0 0 62
0 5 67
0 19 81
0 47 105
23 80 96
33 60 46
17 52 70
15 49 81
22 59 76
16 61 96
8 33 84
18 37 69
30 51 31
29 59 65
27 74 86
37 64 9
38 64 6
37 62 5
33 56 5
36 57 8
35 56 8
35 57 9
32 56 2
40 65 10
39 63 4
32 55 0
35 57 6
37 60 2
42 67 11
43 67 14
41 64 14
40 63 13
42 65 16
39 59 15
41 59 18
44 63 18
45 64 21
40 58 14
51 67 23
74 86 64
202 215 230
222 236 255
222 236 255
222 236 255
222 236 255
222 236 255
222 236 255
222 236 255
222 236 255
222 236 255
222 236 255
222 236 255
222 236 255
222 236 255
222 236 255
222 236 255
222 236 255
222 236 255
222 236 255
222 236 255
222 236 255
222 236 255
222 236 255
222 236 255
222 236 255
222 236 255
222 236 255
222 236 255
222 236 255
222 236 255
222 236 255
222 236 255
222 236 255
222 236 255
222 236 255
222 236 255
222 236 255
222 236 255
222 236 255
222 236 255
222 236 255
222 236 255
222 236 255
222 236 255
222 236 255
222 236 255
222 236 255
222 236 255
222 236 255
222 236 255
222 236 255
222 236 255
222 236 255
222 236 255
222 236 255
222 236 255
222 236 255
222 236 255
222 236 255
222 236 255
222 236 255
222 236 255
222 236 255
222 236 255
222 236 255
222 236 255
222 236 255
222 236 255
222 236 255
222 236 255
222 236 255
222 236 255
222 236 255
222 236 255
222 236 255
222 236 255
222 236 255
222 236 255
222 236 255
222 236 255
222 236 255
222 236 255
222 236 255
222 236 255
222 236 255
222 236 255
222 236 255
222 236 255
222 236 255
222 236 255
222 236 255
222 236 255
222 236 255
222 236 255
222 236 255
222 236 255
222 236 255
222 236 255
222 236 255
222 236 255
222 236 255
222 236 255
222 236 255
222 236 255
222 236 255
222 236 255
222 236 255
222 236 255
222 236 255
222 236 255
222 236 255
222 236 255
222 236 255
222 236 255
222 236 255
222 236 255
222 236 255
222 236 255
222 236 255
222 236 255
222 236 255
222 236 255
222 236 255
222 236 255
222 236 255
222 236 255
222 236 255
222 236 255
222 236 255
222 236 255
222 236 255
222 236 255
222 236 255
222 236 255
222 236 255
222 236 255
222 236 255
222 236 255
222 236 255
222 236 255
222 236 255
222 236 255
222 236 255
222 236 255
222 236 255
222 236 255
222 236 255
222 236 255
222 236 255
222 236 255
222 236 255
222 236 255
222 236 255
222 236 255
222 236 255
222 236 255
222 236 255
222 236 255
222 236 255
222 236 255
222 236 255
222 236 255
222 236 255
222 236 255
222 236 255
222 236 255
222 236 255
222 236 255
222 236 255
222 236 255
222 236 255
222 236 255
222 236 255
222 236 255
222 236 255
222 236 255
222 236 255
222 236 255
222 236 255
222 236 255
222 236 255
222 236 255
222 236 255
222 236 255
222 236 255
222 236 255
222 236 255
222 236 255
222 236 255
222 236 255
222 236 255
222 236 255
222 236 255
222 236 255
222 236 255
222 236 255
222 236 255
222 236 255
222 236 255
222 236 255
222 236 255
222 236 255
222 236 255
222 236 255
222 236 255
222 236 255
222 236 255
222 236 255
222 236 255
222 236 255
222 236 255
222 236 255
222 236 255
222 236 255
222 236 255
222 236 255
222 236 255
222 236 255
222 236 255
222 236 255
222 236 255
222 236 255
222 236 255
222 236 255
222 236 255
222 236 255
222 236 255
222 236 255
222 236 255
222 236 255
222 236 255
222 236 255
222 236 255
222 236 255
222 236 255
222 236 255
222 236 255
222 236 255
222 236 255
222 236 255
222 236 255
222 236 255
222 236 255
222 236 255
222 236 255
222 236 255
222 236 255
222 236 255
222 236 255
222 236 255
222 236 255
222 236 255
222 236 255
222 236 255
222 236 255
222 236 255
222 236 255
222 236 255
222 236 255
222 236 255
222 236 255
222 236 255
222 236 255
222 236 255
222 236 255
222 236 255
222 236 255
222 236 255
222 236 255
222 236 255
222 236 255
222 236 255
222 236 255
222 236 255
222 236 255
222 236 255
222 236 255
222 236 255
222 236 255
222 236 255
222 236 255
222 236 255
185 198 212
30 43 25
25 37 0
24 63 71
17 60 92
32 45 25
31 42 0
31 41 4
31 41 0
30 40 0
27 36 0
25 35 2
25 38 0
25 38 0
20 38 4
19 41 37
26 43 8
19 35 18
5 14 66
0 0 55
0 0 53
0 0 55
0 0 56
0 0 55
0 0 61
0 0 58
0 0 56
0 0 52
0 0 53
0 0 56
0 0 55
0 0 54
0 0 56
0 4 64
0 0 66
0 0 62
0 0 57
0 0 56
0 0 60
0 0 59
0 0 60
0 0 60
0 0 64
0 4 68
0 2 65
0 0 59
0 0 59
0 0 58
0 0 59
0 0 60
0 0 58
0 0 61
0 0 61
0 0 55
0 0 52
0 0 52
0 0 49
0 0 49
0 2 51
0 4 62
0 2 65
0 0 65
0 0 60
29 46 36
40 69 15
37 68 14
38 72 8
25 54 68
0 22 84
6 28 83
16 59 94
44 69 14
50 69 21
52 73 44
16 59 100
0 30 95
0 16 74
0 18 78
0 20 77
6 51 101
19 54 93
25 62 86
26 85 85
38 68 20
41 65 17
38 66 33
43 66 16
39 65 28
33 64 39
38 59 15
29 50 0
39 58 8
42 65 9
41 63 7
34 58 6
39 61 8
40 62 9
39 60 12
39 60 11
43 65 14
37 60 8
35 56 5
37 60 9
38 61 2
35 59 7
34 57 5
44 67 16
44 68 16
44 67 14
40 62 12
42 64 16
42 63 16
43 62 18
44 61 25
49 66 25
54 69 30
47 64 24
59 72 31
72 81 56
179 191 202
222 236 255
222 236 255
222 236 255
222 236 255
222 236 255
222 236 255
222 236 255
222 236 255
222 236 255
222 236 255
222 236 255
222 236 255
222 236 255
222 236 255
222 236 255
222 236 255
222 236 255
222 236 255
222 236 255
222 236 255
222 236 255
222 236 255
222 236 255
222 236 255
222 236 255
222 236 255
222 236 255
222 236 255
222 236 255
222 236 255
222 236 255
222 236 255
222 236 255
222 236 255
222 236 255
222 236 255
222 236 255
222 236 255
222 236 255
222 236 255
222 236 255
222 236 255
222 236 255
222 236 255
222 236 255
222 236 255
222 236 255
222 236 255
222 236 255
222 236 255
222 236 255
222 236 255
222 236 255
222 236 255
222 236 255
222 236 255
222 236 255
222 236 255
222 236 255
222 236 255
222 236 255
222 236 255
222 236 255
222 236 255
222 236 255
222 236 255
222 236 255
222 236 255
222 236 255
222 236 255
222 236 255
222 236 255
222 236 255
222 236 255
222 236 255
222 236 255
222 236 255
222 236 255
222 236 255
222 236 255
222 236 255
222 236 255
222 236 255
222 236 255
222 236 255
222 236 255
222 236 255
222 236 255
222 236 255
222 236 255
222 236 255
222 236 255
222 236 255
222 236 255
222 236 255
222 236 255
222 236 255
222 236 255
222 236 255
222 236 255
222 236 255
222 236 255
222 236 255
222 236 255
222 236 255
222 236 255
222 236 255
222 236 255
222 236 255
222 236 255
222 236 255
222 236 255
222 236 255
222 236 255
222 236 255
222 236 255
222 236 255
222 236 255
222 236 255
222 236 255
222 236 255
222 236 255
222 236 255
222 236 255
222 236 255
222 236 255
222 236 255
222 236 255
222 236 255
222 236 255
222 236 255
222 236 255
222 236 255
222 236 255
222 236 255
222 236 255
222 236 255
222 236 255
222 236 255
222 236 255
222 236 255
222 236 255
222 236 255
222 236 255
222 236 255
222 236 255
222 236 255
222 236 255
222 236 255
222 236 255
222 236 255
222 236 255
222 236 255
222 236 255
222 236 255
222 236 255
222 236 255
222 236 255
222 236 255
222 236 255
222 236 255
222 236 255
222 236 255
222 236 255
222 236 255
222 236 255
222 236 255
222 236 255
222 236 255
222 236 255
222 236 255
222 236 255
222 236 255
222 236 255
222 236 255
222 236 255
222 236 255
222 236 255
222 236 255
222 236 255
222 236 255
222 236 255
222 236 255
222 236 255
222 236 255
222 236 255
222 236 255
222 236 255
222 236 255
222 236 255
222 236 255
222 236 255
222 236 255
222 236 255
222 236 255
222 236 255
222 236 255
222 236 255
222 236 255
222 236 255
222 236 255
222 236 255
222 236 255
222 236 255
222 236 255
222 236 255
222 236 255
222 236 255
222 236 255
222 236 255
222 236 255
222 236 255
222 236 255
222 236 255
222 236 255
222 236 255
222 236 255
222 236 255
222 236 255
222 236 255
222 236 255
222 236 255
222 236 255
222 236 255
222 236 255
222 236 255
222 236 255
222 236 255
222 236 255
222 236 255
222 236 255
222 236 255
222 236 255
222 236 255
222 236 255
222 236 255
222 236 255
222 236 255
222 236 255
222 236 255
222 236 255
222 236 255
222 236 255
222 236 255
222 236 255
222 236 255
222 236 255
222 236 255
222 236 255
222 236 255
222 236 255
222 236 255
222 236 255
222 236 255
222 236 255
222 236 255
222 236 255
222 236 255
222 236 255
222 236 255
222 236 255
222 236 255
222 236 255
222 236 255
222 236 255
222 236 255
222 236 255
222 236 255
222 236 255
222 236 255
222 236 255
222 236 255
222 236 255
222 236 255
222 236 255
222 236 255
222 236 255
222 236 255
219 233 252
156 168 179
18 35 0
27 40 0
30 50 43
19 69 92
29 44 31
27 40 4
31 43 0
30 41 0
30 42 0
28 40 0
24 36 0
25 35 0
25 39 0
19 34 0
20 36 0
21 37 0
27 45 8
8 16 53
0 0 59
0 0 58
0 0 53
0 0 53
0 0 55
0 0 63
0 0 62
0 0 58
0 0 60
0 0 62
0 0 60
0 0 58
0 0 59
0 0 62
0 0 68
0 2 68
0 0 62
0 0 59
0 0 59
0 0 63
0 0 68
0 0 68
0 0 69
0 0 64
0 0 65
0 0 66
0 0 63
0 0 59
0 0 57
0 0 56
0 0 57
0 0 58
0 0 55
0 0 59
0 0 59
0 0 57
0 0 54
0 0 48
0 0 47
0 0 48
0 6 64
0 12 74
0 4 67
0 0 63
0 0 62
12 24 54
35 68 23
37 70 10
42 73 10
28 60 64
0 16 84
20 50 78
37 67 35
44 70 17
44 69 14
56 73 22
49 93 72
37 63 67
12 40 89
0 72 116
0 89 133
24 94 104
32 81 57
38 67 13
43 63 12
44 66 17
40 58 11
41 59 13
41 61 15
40 60 14
36 57 10
36 57 9
30 49 2
44 64 14
50 70 17
47 69 13
47 70 15
43 65 10
46 66 12
40 60 10
39 60 10
39 61 9
39 62 8
35 55 1
37 57 5
40 62 7
40 62 6
36 59 5
42 66 13
45 68 17
46 69 21
43 64 17
43 65 18
43 65 17
45 66 19
48 65 25
56 70 35
58 74 31
61 74 36
61 74 38
66 77 39
74 80 50
155 165 170
221 235 254
222 236 255
222 236 255
222 236 255
222 236 255
222 236 255
222 236 255
222 236 255
222 236 255
222 236 255
222 236 255
222 236 255
222 236 255
222 236 255
222 236 255
222 236 255
222 236 255
222 236 255
222 236 255
222 236 255
222 236 255
222 236 255
222 236 255
222 236 255
222 236 255
222 236 255
222 236 255
222 236 255
222 236 255
222 236 255
222 236 255
222 236 255
222 236 255
222 236 255
222 236 255
222 236 255
222 236 255
222 236 255
222 236 255
222 236 255
222 236 255
222 236 255
222 236 255
222 236 255
222 236 255
222 236 255
222 236 255
222 236 255
222 236 255
222 236 255
222 236 255
222 236 255
222 236 255
222 236 255
222 236 255
222 236 255
222 236 255
222 236 255
222 236 255
222 236 255
222 236 255
222 236 255
222 236 255
222 236 255
222 236 255
222 236 255
222 236 255
222 236 255
222 236 255
222 236 255
222 236 255
222 236 255
222 236 255
222 236 255
222 236 255
222 236 255
222 236 255
222 236 255
222 236 255
222 236 255
222 236 255
222 236 255
222 236 255
222 236 255
222 236 255
222 236 255
222 236 255
222 236 255
222 236 255
222 236 255
222 236 255
222 236 255
222 236 255
222 236 255
222 236 255
222 236 255
222 236 255
222 236 255
222 236 255
222 236 255
222 236 255
222 236 255
222 236 255
222 236 255
222 236 255
222 236 255
222 236 255
222 236 255
222 236 255
222 236 255
222 236 255
222 236 255
222 236 255
222 236 255
222 236 255
222 236 255
222 236 255
222 236 255
222 236 255
222 236 255
222 236 255
222 236 255
222 236 255
222 236 255
222 236 255
222 236 255
222 236 255
222 236 255
222 236 255
222 236 255
222 236 255
222 236 255
222 236 255
222 236 255
222 236 255
222 236 255
222 236 255
222 236 255
222 236 255
222 236 255
222 236 255
222 236 255
222 236 255
222 236 255
222 236 255
222 236 255
222 236 255
222 236 255
222 236 255
222 236 255
222 236 255
222 236 255
222 236 255
222 236 255
222 236 255
222 236 255
222 236 255
222 236 255
222 236 255
222 236 255
222 236 255
222 236 255
222 236 255
222 236 255
222 236 255
222 236 255
222 236 255
222 236 255
222 236 255
222 236 255
222 236 255
222 236 255
222 236 255
222 236 255
222 236 255
222 236 255
222 236 255
222 236 255
222 236 255
222 236 255
222 236 255
222 236 255
222 236 255
222 236 255
222 236 255
222 236 255
222 236 255
222 236 255
222 236 255
222 236 255
222 236 255
222 236 255
222 236 255
222 236 255
222 236 255
222 236 255
222 236 255
222 236 255
222 236 255
222 236 255
222 236 255
222 236 255
222 236 255
222 236 255
222 236 255
222 236 255
222 236 255
222 236 255
222 236 255
222 236 255
222 236 255
222 236 255
222 236 255
222 236 255
222 236 255
222 236 255
222 236 255
222 236 255
222 236 255
222 236 255
222 236 255
222 236 255
222 236 255
222 236 255
222 236 255
222 236 255
222 236 255
222 236 255
222 236 255
222 236 255
222 236 255
222 236 255
222 236 255
222 236 255
222 236 255
222 236 255
222 236 255
222 236 255
222 236 255
222 236 255
222 236 255
222 236 255
222 236 255
222 236 255
222 236 255
222 236 255
222 236 255
222 236 255
222 236 255
222 236 255
222 236 255
222 236 255
222 236 255
222 236 255
222 236 255
222 236 255
222 236 255
222 236 255
222 236 255
222 236 255
222 236 255
222 236 255
222 236 255
222 236 255
222 236 255
222 236 255
222 236 255
222 236 255
222 236 255
222 236 255
222 236 255
222 236 255
222 236 255
222 236 255
222 236 255
222 236 255
211 225 242
121 131 137
20 36 0
25 42 0
30 44 3
31 43 13
27 40 6
20 32 6
21 35 3
26 39 0
21 32 0
20 33 0
24 38 0
23 38 0
21 35 0
21 36 0
22 37 6
14 27 35
21 37 28
11 22 50
0 4 64
0 0 65
0 0 62
0 0 55
0 0 53
0 0 61
0 0 63
0 0 59
0 0 58
0 0 59
0 0 59
0 0 59
0 0 62
0 0 64
0 5 68
0 1 70
0 0 69
0 5 69
0 0 67
0 0 63
0 8 70
0 6 69
0 0 68
0 0 64
0 0 59
0 0 58
0 0 60
0 0 61
0 0 58
0 0 58
0 0 59
0 0 60
0 0 59
0 0 56
0 0 57
0 0 60
0 0 60
0 0 55
0 0 50
0 0 48
0 0 52
0 2 62
0 2 62
0 0 55
0 0 58
0 8 59
28 51 37
40 72 15
37 63 30
17 41 61
17 40 72
6 27 86
23 66 64
38 68 29
43 68 19
51 73 19
53 75 16
53 71 20
54 77 46
21 123 141
6 119 154
10 136 162
38 83 67
41 64 16
44 65 16
45 62 16
47 67 20
40 63 13
39 61 16
40 62 16
42 63 17
40 59 13
37 56 9
31 49 5
40 59 11
45 65 13
48 68 16
47 68 11
47 68 15
46 65 12
48 67 14
39 58 6
38 59 6
39 58 4
38 55 5
33 52 0
37 56 4
39 61 6
43 67 12
44 68 15
44 69 17
46 70 22
45 68 21
45 66 19
44 65 20
46 66 21
49 69 25
58 72 37
69 79 43
60 76 32
65 78 40
68 80 41
72 82 47
82 85 58
143 150 151
217 230 248
222 236 255
222 236 255
222 236 255
222 236 255
222 236 255
222 236 255
222 236 255
222 236 255
222 236 255
222 236 255
222 236 255
222 236 255
222 236 255
222 236 255
222 236 255
222 236 255
222 236 255
222 236 255
222 236 255
222 236 255
222 236 255
222 236 255
222 236 255
222 236 255
222 236 255
222 236 255
222 236 255
222 236 255
222 236 255
222 236 255
222 236 255
222 236 255
222 236 255
222 236 255
222 236 255
222 236 255
222 236 255
222 236 255
222 236 255
222 236 255
222 236 255
222 236 255
222 236 255
222 236 255
222 236 255
222 236 255
222 236 255
222 236 255
222 236 255
222 236 255
222 236 255
222 236 255
222 236 255
222 236 255
222 236 255
222 236 255
222 236 255
222 236 255
222 236 255
222 236 255
222 236 255
222 236 255
222 236 255
222 236 255
222 236 255
222 236 255
222 236 255
222 236 255
222 236 255
222 236 255
222 236 255
222 236 255
222 236 255
222 236 255
222 236 255
222 236 255
222 236 255
222 236 255
222 236 255
222 236 255
222 236 255
222 236 255
222 236 255
222 236 255
222 236 255
222 236 255
222 236 255
222 236 255
222 236 255
222 236 255
222 236 255
222 236 255
222 236 255
222 236 255
222 236 255
222 236 255
222 236 255
222 236 255
222 236 255
222 236 255
222 236 255
222 236 255
222 236 255
222 236 255
222 236 255
222 236 255
222 236 255
222 236 255
222 236 255
222 236 255
222 236 255
222 236 255
222 236 255
222 236 255
222 236 255
222 236 255
222 236 255
222 236 255
222 236 255
222 236 255
222 236 255
222 236 255
222 236 255
222 236 255
222 236 255
222 236 255
222 236 255
222 236 255
222 236 255
222 236 255
222 236 255
222 236 255
222 236 255
222 236 255
222 236 255
222 236 255
222 236 255
222 236 255
222 236 255
222 236 255
222 236 255
222 236 255
222 236 255
222 236 255
222 236 255
222 236 255
222 236 255
222 236 255
222 236 255
222 236 255
222 236 255
222 236 255
222 236 255
222 236 255
222 236 255
222 236 255
222 236 255
222 236 255
222 236 255
222 236 255
222 236 255
222 236 255
222 236 255
223 236 255
222 236 255
222 236 255
222 236 255
222 236 255
222 236 255
223 236 255
222 236 255
223 236 255
223 236 255
223 236 255
223 236 255
223 236 255
223 236 255
223 236 255
223 236 255
223 236 255
223 236 255
223 236 255
223 236 255
223 236 255
223 236 255
223 236 255
223 236 255
223 236 255
223 236 255
223 236 255
223 236 255
223 236 255
223 236 255
223 236 255
223 236 255
223 236 255
223 236 255
223 236 255
223 236 255
223 236 255
223 236 255
223 236 255
223 236 255
223 236 255
223 236 255
223 236 255
223 236 255
223 236 255
223 236 255
223 236 255
223 236 255
223 236 255
223 236 255
223 236 255
223 236 255
223 236 255
223 236 255
223 236 255
223 236 255
223 236 255
223 236 255
223 236 255
223 236 255
223 236 255
223 236 255
223 236 255
223 236 255
223 236 255
223 236 255
223 236 255
223 236 255
223 236 255
223 236 255
223 236 255
223 236 255
223 236 255
223 236 255
223 236 255
223 236 255
223 236 255
223 236 255
223 236 255
223 236 255
223 236 255
223 236 255
223 236 255
223 236 255
223 236 255
223 236 255
223 236 255
223 236 255
223 236 255
223 236 255
223 236 255
223 236 255
223 236 255
223 236 255
223 236 255
223 236 255
223 236 255
223 236 255
223 236 255
223 236 255
223 236 255
223 236 255
223 236 255
223 236 255
223 236 255
223 236 255
223 236 255
223 236 255
223 236 255
223 236 255
210 224 241
92 102 102
22 39 8
23 42 0
26 44 0
27 43 0
25 42 0
25 41 0
23 39 3
22 38 5
19 34 0
15 33 32
14 32 33
19 35 29
17 31 19
17 33 16
18 29 38
10 16 52
14 27 41
10 19 51
0 5 68
0 3 63
0 0 62
0 0 58
0 0 53
0 0 59
0 0 66
0 0 61
0 0 63
0 2 63
0 1 59
0 0 56
0 0 60
0 0 60
0 6 67
0 4 70
0 4 69
0 8 70
0 4 69
0 0 66
0 0 59
0 0 62
0 0 60
0 0 59
0 0 55
0 0 54
0 0 56
0 0 57
0 0 57
0 0 57
0 0 60
0 0 64
0 0 63
0 0 61
0 0 62
0 0 63
0 4 69
0 0 61
0 0 53
0 0 52
0 0 50
0 0 50
0 0 52
0 0 60
0 6 65
0 0 62
0 3 63
0 5 60
8 16 60
0 7 69
0 0 58
0 8 66
3 15 77
8 38 91
26 70 68
32 75 50
48 73 22
46 75 35
46 74 41
45 78 55
17 119 131
33 108 127
42 98 82
44 66 28
43 62 13
47 66 21
51 67 20
32 54 0
34 55 0
36 59 4
39 62 17
43 66 20
46 69 19
41 61 16
34 54 9
33 53 6
39 62 10
40 63 8
39 61 6
40 60 6
41 61 10
46 66 13
45 64 11
44 64 14
44 66 17
42 64 12
37 61 10
41 64 5
37 57 8
44 68 13
45 70 16
44 70 15
41 66 17
45 68 21
44 68 20
46 68 22
48 67 23
53 70 29
56 73 31
69 78 46
68 78 42
62 74 35
66 75 38
76 83 48
76 82 48
93 93 68
123 125 113
213 225 242
223 236 255
223 236 255
223 236 255
223 236 255
223 236 255
223 236 255
223 236 255
223 236 255
223 236 255
223 236 255
223 236 255
223 236 255
223 236 255
223 236 255
223 236 255
223 236 255
223 236 255
223 236 255
223 236 255
223 236 255
223 236 255
223 236 255
223 236 255
223 236 255
223 236 255
223 236 255
223 236 255
223 236 255
223 236 255
223 236 255
223 236 255
223 236 255
223 236 255
223 236 255
223 236 255
223 236 255
223 236 255
223 236 255
223 236 255
223 236 255
223 236 255
223 236 255
223 236 255
223 236 255
223 236 255
223 236 255
223 236 255
223 236 255
223 236 255
223 236 255
223 236 255
223 236 255
223 236 255
223 236 255
223 236 255
223 236 255
223 236 255
223 236 255
223 236 255
223 236 255
223 236 255
223 236 255
223 236 255
223 236 255
223 236 255
223 236 255
223 236 255
223 236 255
223 236 255
223 236 255
223 236 255
223 236 255
223 236 255
223 236 255
223 236 255
223 236 255
223 236 255
223 236 255
223 236 255
223 236 255
223 236 255
223 236 255
223 236 255
223 236 255
223 236 255
223 236 255
223 236 255
223 236 255
223 236 255
223 236 255
223 236 255
223 236 255
223 236 255
223 236 255
223 236 255
223 236 255
223 236 255
223 236 255
223 236 255
223 236 255
223 236 255
222 236 255
223 236 255
222 236 255
223 236 255
223 236 255
223 236 255
222 236 255
222 236 255
222 236 255
222 236 255
222 236 255
222 236 255
222 236 255
222 236 255
222 236 255
222 236 255
222 236 255
222 236 255
222 236 255
222 236 255
222 236 255
222 236 255
222 236 255
222 236 255
222 236 255
222 236 255
222 236 255
222 236 255
222 236 255
222 236 255
222 236 255
222 236 255
222 236 255
222 236 255
222 236 255
223 236 255
223 236 255
223 236 255
223 236 255
223 236 255
223 236 255
223 236 255
223 236 255
223 236 255
223 236 255
223 236 255
223 236 255
223 236 255
223 236 255
223 236 255
223 236 255
223 236 255
223 236 255
223 236 255
223 236 255
223 236 255
223 236 255
223 236 255
223 236 255
223 236 255
223 236 255
223 236 255
223 236 255
223 236 255
223 236 255
223 236 255
223 236 255
223 236 255
223 236 255
223 236 255
223 236 255
223 236 255
223 236 255
223 236 255
223 236 255
223 236 255
223 236 255
223 236 255
223 236 255
223 236 255
223 236 255
223 236 255
223 236 255
223 236 255
223 236 255
223 236 255
223 236 255
223 236 255
223 236 255
223 236 255
223 236 255
223 236 255
223 236 255
223 236 255
223 236 255
223 236 255
223 236 255
223 236 255
223 236 255
223 236 255
223 236 255
223 236 255
223 236 255
223 236 255
223 236 255
223 236 255
223 236 255
223 236 255
223 236 255
223 236 255
223 236 255
223 236 255
223 236 255
223 236 255
223 236 255
223 236 255
223 236 255
223 236 255
223 236 255
223 236 255
223 236 255
223 236 255
223 236 255
223 236 255
223 236 255
223 236 255
223 236 255
223 236 255
223 236 255
223 236 255
223 236 255
223 236 255
223 236 255
223 236 255
223 236 255
223 236 255
223 236 255
223 236 255
223 236 255
223 236 255
223 236 255
223 236 255
223 236 255
223 236 255
223 236 255
223 236 255
223 236 255
223 236 255
223 236 255
223 236 255
223 236 255
223 236 255
223 236 255
223 236 255
223 236 255
223 236 255
223 236 255
223 236 255
223 236 255
223 236 255
223 236 255
223 236 255
223 236 255
223 236 255
223 236 255
223 236 255
223 236 255
223 236 255
223 236 255
223 236 255
207 220 237
74 86 82
22 40 22
25 45 0
28 48 0
27 47 0
26 44 0
24 42 0
23 45 0
22 41 7
19 40 32
11 30 61
0 18 81
11 27 52
10 20 48
0 9 53
0 3 54
8 17 55
20 37 23
11 26 35
4 11 53
0 3 60
0 0 57
0 0 58
0 0 55
0 3 57
0 7 70
0 0 68
0 9 72
0 10 72
0 4 65
0 0 64
0 0 59
0 0 56
0 0 59
0 0 63
0 0 62
0 0 66
0 0 60
0 0 61
0 0 64
0 0 59
0 0 58
0 0 61
0 0 60
0 0 57
0 0 54
0 0 54
0 0 57
0 0 60
0 0 64
0 0 67
0 0 64
0 0 61
0 0 62
0 2 66
0 8 71
0 4 69
0 0 64
0 0 57
0 0 54
0 0 50
0 0 49
0 0 50
0 0 54
0 6 61
0 0 59
0 12 73
0 10 72
0 0 59
0 0 64
0 0 64
0 1 67
4 22 76
19 44 62
31 55 45
19 40 71
20 37 72
15 53 85
11 60 101
9 48 96
13 99 137
55 78 38
63 80 33
52 71 24
43 65 18
36 60 10
37 60 9
35 58 1
41 62 15
36 57 10
36 58 10
32 51 9
29 51 6
31 53 7
39 62 12
41 64 11
39 63 10
37 60 7
41 64 14
39 61 8
45 68 14
43 66 9
40 63 8
38 61 8
40 64 8
43 67 13
45 69 17
45 70 10
45 70 13
45 70 17
42 65 20
43 67 19
44 68 23
44 68 21
43 65 20
46 67 21
50 69 25
52 70 27
60 74 35
68 79 44
73 79 49
83 86 53
79 80 51
81 82 48
82 87 54
85 88 56
106 103 75
126 125 107
205 216 231
223 236 255
223 236 255
223 236 255
223 236 255
223 236 255
223 236 255
223 236 255
223 236 255
223 236 255
223 236 255
223 236 255
223 236 255
223 236 255
223 236 255
223 236 255
223 236 255
223 236 255
223 236 255
223 236 255
223 236 255
223 236 255
223 236 255
223 236 255
223 236 255
223 236 255
223 236 255
223 236 255
223 236 255
223 236 255
223 236 255
223 236 255
223 236 255
223 236 255
223 236 255
223 236 255
223 236 255
223 236 255
223 236 255
223 236 255
223 236 255
223 236 255
223 236 255
223 236 255
223 236 255
223 236 255
223 236 255
223 236 255
223 236 255
223 236 255
223 236 255
223 236 255
223 236 255
223 236 255
223 236 255
223 236 255
223 236 255
223 236 255
223 236 255
223 236 255
223 236 255
223 236 255
223 236 255
223 236 255
223 236 255
223 236 255
223 236 255
223 236 255
223 236 255
223 236 255
223 236 255
223 236 255
223 236 255
223 236 255
223 236 255
223 236 255
223 236 255
223 236 255
223 236 255
223 236 255
223 236 255
223 236 255
223 236 255
223 236 255
223 236 255
223 236 255
223 236 255
223 236 255
223 236 255
223 236 255
223 236 255
223 236 255
223 236 255
223 236 255
223 236 255
223 236 255
223 236 255
223 236 255
223 236 255
223 236 255
223 236 255
223 236 255
223 236 255
223 236 255
223 236 255
223 236 255
223 236 255
223 236 255
223 236 255
223 236 255
223 236 255
223 236 255
223 236 255
223 236 255
223 236 255
223 236 255
223 236 255
223 236 255
223 236 255
223 236 255
223 236 255
223 236 255
223 236 255
223 236 255
223 236 255
223 236 255
223 236 255
223 236 255
223 236 255
223 236 255
223 236 255
223 236 255
223 236 255
223 236 255
223 236 255
223 236 255
223 236 255
223 236 255
223 236 255
223 236 255
223 236 255
223 236 255
223 236 255
223 236 255
223 236 255
223 236 255
223 236 255
223 236 255
223 236 255
223 236 255
223 236 255
223 236 255
223 236 255
223 236 255
223 236 255
223 236 255
223 236 255
223 236 255
223 236 255
223 236 255
223 236 255
223 236 255
223 236 255
223 236 255
223 236 255
223 236 255
223 236 255
223 236 255
223 236 255
223 236 255
223 236 255
223 236 255
223 236 255
223 236 255
223 236 255
223 236 255
223 236 255
223 236 255
223 236 255
223 236 255
223 236 255
223 236 255
223 236 255
223 236 255
223 236 255
223 236 255
223 236 255
223 236 255
223 236 255
223 236 255
223 236 255
223 236 255
223 236 255
223 236 255
223 236 255
223 236 255
223 236 255
223 236 255
223 236 255
223 236 255
223 236 255
223 236 255
223 236 255
223 236 255
223 236 255
223 236 255
223 236 255
223 236 255
223 236 255
223 236 255
223 236 255
223 236 255
223 236 255
223 236 255
223 236 255
223 236 255
223 236 255
223 236 255
223 236 255
223 236 255
223 236 255
223 236 255
223 236 255
223 236 255
223 236 255
223 236 255
223 236 255
223 236 255
223 236 255
223 236 255
223 236 255
223 236 255
223 236 255
223 236 255
223 236 255
223 236 255
223 236 255
223 236 255
223 236 255
223 236 255
223 236 255
223 236 255
223 236 255
223 236 255
223 236 255
223 236 255
223 236 255
223 236 255
223 236 255
223 236 255
223 236 255
223 236 255
223 236 255
223 236 255
223 236 255
223 236 255
223 236 255
223 236 255
223 236 255
223 236 255
223 236 255
223 236 255
223 236 255
223 236 255
223 236 255
223 236 255
223 236 255
223 236 255
223 236 255
223 236 255
200 213 229
49 60 61
11 22 50
23 42 5
27 48 0
28 48 0
22 41 0
21 40 1
26 46 6
21 52 48
18 51 61
20 46 49
20 45 14
8 26 61
7 15 61
4 9 58
0 0 59
16 28 46
26 44 15
29 47 8
23 40 12
13 27 30
0 3 58
0 0 57
0 0 59
0 3 59
0 17 78
0 13 77
0 5 70
0 6 68
0 10 73
0 4 66
0 0 62
0 0 54
0 0 56
0 0 61
0 0 60
0 0 60
0 0 64
0 0 56
0 0 63
0 0 65
0 0 67
0 0 66
0 0 63
0 0 57
0 0 55
0 0 57
0 0 57
0 0 57
0 0 59
0 0 61
0 0 61
0 0 63
0 0 63
0 0 65
0 0 67
0 2 68
0 5 68
0 0 66
0 0 66
0 0 64
0 0 57
0 0 51
0 0 50
0 0 51
0 0 52
0 0 56
0 13 73
0 11 72
0 0 58
0 0 65
0 0 68
0 10 74
4 18 74
3 12 63
0 3 58
0 2 60
0 8 58
25 45 61
21 47 70
26 63 85
50 73 34
60 78 28
61 75 29
55 75 28
53 77 27
38 64 9
42 65 15
38 61 7
47 64 21
44 62 20
45 65 17
44 62 15
36 54 0
33 54 5
29 53 6
37 60 9
37 59 6
43 64 14
45 67 17
33 54 5
30 52 0
32 56 0
35 60 1
31 56 4
34 59 9
40 64 10
45 70 18
45 70 15
47 71 14
47 73 18
45 72 19
42 66 17
40 61 22
45 68 23
45 67 24
46 67 22
48 67 19
50 69 24
54 72 30
59 76 36
62 75 39
70 75 44
102 99 74
98 95 69
100 97 70
96 95 66
107 104 75
128 125 96
133 129 102
204 215 229
223 236 255
223 236 255
223 236 255
223 236 255
223 236 255
223 236 255
223 236 255
223 236 255
223 236 255
223 236 255
223 236 255
223 236 255
223 236 255
223 236 255
223 236 255
223 236 255
223 236 255
223 236 255
223 236 255
223 236 255
223 236 255
223 236 255
223 236 255
223 236 255
223 236 255
223 236 255
223 236 255
223 236 255
223 236 255
223 236 255
223 236 255
223 236 255
223 236 255
223 236 255
223 236 255
223 236 255
223 236 255
223 236 255
223 236 255
223 236 255
223 236 255
223 236 255
223 236 255
223 236 255
223 236 255
223 236 255
223 236 255
223 236 255
223 236 255
223 236 255
223 236 255
223 236 255
223 236 255
223 236 255
223 236 255
223 236 255
223 236 255
223 236 255
223 236 255
223 236 255
223 236 255
223 236 255
223 236 255
223 236 255
223 236 255
223 236 255
223 236 255
223 236 255
223 236 255
223 236 255
223 236 255
223 236 255
223 236 255
223 236 255
223 236 255
223 236 255
223 236 255
223 236 255
223 236 255
223 236 255
223 236 255
223 236 255
223 236 255
223 236 255
223 236 255
223 236 255
223 236 255
223 236 255
223 236 255
223 236 255
223 236 255
223 236 255
223 236 255
223 236 255
223 236 255
223 236 255
223 236 255
223 236 255
223 236 255
223 236 255
223 236 255
223 236 255
223 236 255
223 236 255
223 236 255
223 236 255
223 236 255
223 236 255
223 236 255
223 236 255
223 236 255
223 236 255
223 236 255
223 236 255
223 236 255
223 236 255
223 236 255
223 236 255
223 236 255
223 236 255
223 236 255
223 236 255
223 236 255
223 236 255
223 236 255
223 236 255
223 236 255
223 236 255
223 236 255
223 236 255
223 236 255
223 236 255
223 236 255
223 236 255
223 236 255
223 236 255
223 236 255
223 236 255
223 236 255
223 236 255
223 236 255
223 236 255
223 236 255
223 236 255
223 236 255
223 236 255
223 236 255
223 236 255
223 236 255
223 236 255
223 236 255
223 236 255
223 236 255
223 236 255
223 236 255
223 236 255
223 236 255
223 236 255
223 236 255
223 236 255
223 236 255
223 236 255
223 236 255
223 236 255
223 236 255
223 236 255
223 236 255
223 236 255
223 236 255
223 236 255
223 236 255
223 236 255
223 236 255
223 236 255
223 236 255
223 236 255
223 236 255
223 236 255
223 236 255
223 236 255
223 236 255
223 236 255
223 236 255
223 236 255
223 236 255
223 236 255
223 236 255
223 236 255
223 236 255
223 236 255
223 236 255
223 236 255
223 236 255
223 236 255
223 236 255
223 236 255
223 236 255
223 236 255
223 236 255
223 236 255
223 236 255
223 236 255
223 236 255
223 236 255
223 236 255
223 236 255
223 236 255
223 236 255
223 236 255
223 236 255
223 236 255
223 236 255
223 236 255
223 236 255
223 236 255
223 236 255
223 236 255
223 236 255
223 236 255
223 236 255
223 236 255
223 236 255
223 236 255
223 236 255
223 236 255
223 236 255
223 236 255
223 236 255
223 236 255
223 236 255
223 236 255
223 236 255
223 236 255
223 236 255
223 236 255
223 236 255
223 236 255
223 236 255
223 236 255
223 236 255
223 236 255
223 236 255
223 236 255
223 236 255
223 236 255
223 236 255
223 236 255
223 236 255
223 236 255
223 236 255
223 236 255
223 236 255
223 236 255
223 236 255
223 236 255
223 236 255
223 236 255
223 236 255
223 236 255
223 236 255
223 236 255
223 236 255
223 236 255
223 236 255
223 236 255
223 236 255
223 236 255
190 203 217
39 55 57
8 20 61
20 39 25
23 43 2
22 44 2
21 43 0
22 43 0
21 42 10
21 53 31
23 55 31
24 50 4
17 55 52
5 20 65
0 5 71
0 7 69
1 6 64
21 36 46
35 49 8
30 41 0
33 48 0
24 41 17
3 12 48
0 0 64
0 0 64
0 3 61
0 3 61
0 9 69
0 5 69
0 10 73
0 10 74
0 15 77
0 2 65
0 0 61
0 0 56
0 0 59
0 0 58
0 0 58
0 0 61
0 0 59
0 0 60
0 0 64
0 0 63
0 4 69
0 0 67
0 0 59
0 0 52
0 0 54
0 0 57
0 0 58
0 0 59
0 1 61
0 9 73
0 14 77
0 17 82
0 20 83
0 8 72
0 11 71
0 12 74
0 0 69
0 0 66
0 0 65
0 0 64
0 0 60
0 0 55
0 0 55
0 0 57
0 0 53
0 0 52
0 7 67
0 19 80
0 18 76
0 10 72
0 7 68
0 5 64
0 2 63
1 2 58
15 25 49
30 44 45
27 41 59
28 66 81
48 76 17
52 76 25
54 74 33
55 75 28
56 72 33
58 75 30
67 88 39
51 74 23
42 68 16
43 67 14
40 59 13
38 55 13
44 64 14
42 63 13
42 62 13
43 64 18
36 58 13
34 58 10
35 57 7
47 67 18
53 72 26
48 67 20
40 62 12
37 58 8
39 62 7
44 67 17
43 66 14
32 54 7
33 56 11
43 66 18
47 71 22
50 74 26
45 72 18
46 69 24
47 70 27
46 68 24
47 69 29
46 65 28
48 69 24
49 70 18
51 70 22
52 73 30
51 68 34
65 81 35
79 78 50
105 99 77
105 102 78
123 118 85
123 120 87
123 120 89
146 140 106
148 143 116
199 208 219
223 236 255
223 236 255
223 236 255
223 236 255
223 236 255
223 236 255
223 236 255
223 236 255
223 236 255
223 236 255
223 236 255
223 236 255
223 236 255
223 236 255
223 236 255
223 236 255
223 236 255
223 236 255
223 236 255
223 236 255
223 236 255
223 236 255
223 236 255
223 236 255
223 236 255
223 236 255
223 236 255
223 236 255
223 236 255
223 236 255
223 236 255
223 236 255
223 236 255
223 236 255
223 236 255
223 236 255
223 236 255
223 236 255
223 236 255
223 236 255
223 236 255
223 236 255
223 236 255
223 236 255
223 236 255
223 236 255
223 236 255
223 236 255
223 236 255
223 236 255
223 236 255
223 236 255
223 236 255
223 236 255
223 236 255
223 236 255
223 236 255
223 236 255
223 236 255
223 236 255
223 236 255
223 236 255
223 236 255
223 236 255
223 236 255
223 236 255
223 236 255
223 236 255
223 236 255
223 236 255
223 236 255
223 236 255
223 236 255
223 236 255
223 236 255
223 236 255
223 236 255
223 236 255
223 236 255
223 236 255
223 236 255
223 236 255
223 236 255
223 236 255
223 236 255
223 236 255
223 236 255
223 236 255
223 236 255
223 236 255
223 236 255
223 236 255
223 236 255
223 236 255
223 236 255
223 236 255
223 236 255
223 236 255
223 236 255
223 236 255
223 236 255
223 236 255
223 236 255
223 236 255
223 236 255
223 236 255
223 236 255
223 236 255
223 236 255
223 236 255
223 236 255
223 236 255
223 236 255
223 236 255
223 236 255
223 236 255
223 236 255
223 236 255
223 236 255
223 236 255
223 236 255
223 236 255
223 236 255
223 236 255
223 236 255
223 236 255
223 236 255
223 236 255
223 236 255
223 236 255
223 236 255
223 236 255
223 236 255
223 236 255
223 236 255
223 236 255
223 236 255
223 236 255
223 236 255
223 236 255
223 236 255
223 236 255
223 236 255
223 236 255
223 236 255
223 236 255
223 236 255
223 236 255
223 236 255
223 236 255
223 236 255
223 236 255
223 236 255
223 236 255
223 236 255
223 236 255
223 236 255
223 236 255
223 236 255
223 236 255
223 236 255
223 236 255
223 236 255
223 236 255
223 236 255
223 236 255
223 236 255
223 236 255
223 236 255
223 236 255
223 236 255
223 236 255
223 236 255
223 236 255
223 236 255
223 236 255
223 236 255
223 236 255
223 236 255
223 236 255
223 236 255
223 236 255
223 236 255
223 236 255
223 236 255
223 236 255
223 236 255
223 236 255
223 236 255
223 236 255
223 236 255
223 236 255
223 236 255
223 236 255
223 236 255
223 236 255
223 236 255
223 236 255
223 236 255
223 236 255
223 236 255
223 236 255
223 236 255
223 236 255
223 236 255
223 236 255
223 236 255
223 236 255
223 236 255
223 236 255
223 236 255
223 236 255
223 236 255
223 236 255
223 236 255
223 236 255
223 236 255
223 236 255
223 236 255
223 236 255
223 236 255
223 236 255
223 236 255
223 236 255
223 236 255
223 236 255
223 236 255
223 236 255
223 236 255
223 236 255
223 236 255
223 236 255
223 236 255
223 236 255
223 236 255
223 236 255
223 236 255
223 236 255
223 236 255
223 236 255
223 236 255
223 236 255
223 236 255
223 236 255
223 236 255
223 236 255
223 236 255
223 236 255
223 236 255
223 236 255
223 236 255
223 236 255
223 236 255
223 236 255
223 236 255
223 236 255
223 236 255
223 236 255
223 236 255
223 236 255
223 236 255
223 236 255
223 236 255
223 236 255
223 236 255
191 204 218
44 62 38
24 51 23
20 45 27
23 44 4
20 44 0
22 46 0
24 47 0
26 51 4
22 56 30
26 55 12
26 52 0
24 48 24
9 35 69
0 0 60
2 5 59
2 6 60
7 16 60
8 19 56
13 23 54
15 29 38
23 37 32
22 37 25
3 9 55
0 0 65
0 9 70
0 15 79
0 5 63
0 5 65
0 17 78
0 18 80
0 14 75
0 8 69
0 0 63
0 0 62
0 0 59
0 0 55
0 0 56
0 0 57
0 0 60
0 0 57
0 0 60
0 0 60
0 0 62
0 3 66
0 0 65
0 0 56
0 0 52
0 0 54
0 0 59
0 0 61
0 2 66
0 15 75
0 21 84
0 25 87
0 26 89
0 22 85
0 8 74
0 6 71
0 7 70
0 10 71
0 8 68
0 0 61
0 0 55
0 0 60
0 0 61
0 0 59
0 0 56
0 0 53
0 0 51
0 0 50
0 0 56
0 7 61
0 9 70
0 9 73
0 9 71
0 6 66
1 2 61
28 45 52
45 66 29
49 73 28
57 73 25
59 76 26
56 73 24
51 68 21
62 80 36
56 72 37
50 72 25
49 73 25
42 69 17
37 67 10
36 63 4
38 58 8
33 55 5
37 61 6
37 61 9
35 58 9
33 52 6
32 52 8
34 55 7
36 56 11
30 48 0
40 58 15
57 74 31
54 74 29
47 67 21
49 69 22
50 71 24
47 68 21
42 66 14
35 57 3
26 46 6
43 65 21
53 75 30
53 73 28
48 72 26
49 72 28
52 73 30
52 73 33
46 61 37
55 70 33
48 72 33
35 89 83
45 75 41
51 74 30
59 81 31
77 86 51
89 90 67
107 101 79
85 97 80
64 78 88
133 133 101
144 139 105
134 137 104
161 153 122
206 215 226
223 236 255
223 236 255
223 236 255
223 236 255
223 236 255
223 236 255
223 236 255
223 236 255
223 236 255
223 236 255
223 236 255
223 236 255
223 236 255
223 236 255
223 236 255
223 236 255
223 236 255
223 236 255
223 236 255
223 236 255
223 236 255
223 236 255
223 236 255
223 236 255
223 236 255
223 236 255
223 236 255
223 236 255
223 236 255
223 236 255
223 236 255
223 236 255
223 236 255
223 236 255
223 236 255
223 236 255
223 236 255
223 236 255
223 236 255
223 236 255
223 236 255
223 236 255
223 236 255
223 236 255
223 236 255
223 236 255
223 236 255
223 236 255
223 236 255
223 236 255
223 236 255
223 236 255
223 236 255
223 236 255
223 236 255
223 236 255
223 236 255
223 236 255
223 236 255
223 236 255
223 236 255
223 236 255
223 236 255
223 236 255
223 236 255
223 236 255
223 236 255
223 236 255
223 236 255
223 236 255
223 236 255
223 236 255
223 236 255
223 236 255
223 236 255
223 236 255
223 236 255
223 236 255
223 236 255
223 236 255
223 236 255
223 236 255
223 236 255
223 236 255
223 236 255
223 236 255
223 236 255
223 236 255
223 236 255
223 236 255
223 236 255
223 236 255
223 236 255
223 236 255
223 236 255
223 236 255
223 236 255
223 236 255
223 236 255
223 236 255
223 236 255
223 236 255
223 236 255
223 236 255
223 236 255
223 236 255
223 236 255
223 236 255
223 236 255
223 236 255
223 236 255
223 236 255
223 236 255
223 236 255
223 236 255
223 236 255
223 236 255
223 236 255
223 236 255
223 236 255
223 236 255
223 236 255
223 236 255
223 236 255
223 236 255
223 236 255
223 236 255
223 236 255
223 236 255
223 236 255
223 236 255
223 236 255
223 236 255
223 236 255
223 236 255
223 236 255
223 236 255
223 236 255
223 236 255
223 236 255
223 236 255
223 236 255
223 236 255
223 236 255
223 236 255
223 236 255
223 236 255
223 236 255
223 236 255
223 236 255
223 236 255
223 236 255
223 236 255
223 236 255
223 236 255
223 236 255
223 236 255
223 236 255
223 236 255
223 236 255
223 236 255
223 236 255
223 236 255
223 236 255
223 236 255
223 236 255
223 236 255
223 236 255
223 236 255
223 236 255
223 236 255
223 236 255
223 236 255
223 236 255
223 236 255
223 236 255
223 236 255
223 236 255
223 236 255
223 236 255
223 236 255
223 236 255
223 236 255
223 236 255
223 236 255
223 236 255
223 236 255
223 236 255
223 236 255
223 236 255
223 236 255
223 236 255
223 236 255
223 236 255
223 236 255
223 236 255
223 236 255
223 236 255
223 236 255
223 236 255
223 236 255
223 236 255
223 236 255
223 236 255
223 236 255
223 236 255
223 236 255
223 236 255
223 236 255
223 236 255
223 236 255
223 236 255
223 236 255
223 236 255
223 236 255
223 236 255
223 236 255
223 236 255
223 236 255
223 236 255
223 236 255
223 236 255
223 236 255
223 236 255
223 236 255
223 236 255
223 236 255
223 236 255
223 236 255
223 236 255
223 236 255
223 236 255
223 236 255
223 236 255
223 236 255
223 236 255
223 236 255
223 236 255
223 236 255
223 236 255
223 236 255
223 236 255
223 236 255
223 236 255
223 236 255
223 236 255
223 236 255
223 236 255
223 236 255
223 236 255
223 236 255
223 236 255
223 236 255
223 236 255
223 236 255
223 236 255
223 236 255
223 236 255
223 236 255
223 236 255
223 236 255
223 236 255
223 236 255
188 201 214
36 61 15
20 41 47
7 26 58
21 44 37
25 49 2
28 52 2
31 55 7
33 57 7
31 55 3
24 52 0
29 54 4
27 49 3
22 60 54
24 40 54
8 20 53
14 34 41
0 4 58
0 0 61
0 0 59
5 11 62
6 16 65
11 27 46
10 21 61
0 0 62
0 0 61
0 3 63
0 10 72
0 9 69
0 16 79
0 14 78
0 13 78
0 10 73
0 0 63
0 0 56
0 0 55
0 0 52
0 0 52
0 0 55
0 0 52
0 0 56
0 0 61
0 0 59
0 0 60
0 0 60
0 0 59
0 0 58
0 0 54
0 0 54
0 0 56
0 5 65
0 6 68
0 9 71
0 27 89
0 27 92
0 26 90
0 28 93
0 18 83
0 14 79
0 14 78
0 9 73
0 4 68
0 0 65
0 0 63
0 0 61
0 0 65
0 0 61
0 0 57
0 0 55
0 0 52
0 0 52
0 0 49
0 0 50
0 0 52
0 0 58
0 0 59
0 0 61
0 0 58
0 0 59
0 4 65
0 17 72
9 46 97
37 70 70
61 77 29
58 78 31
56 71 24
56 75 29
44 65 15
47 70 20
40 67 9
38 66 7
45 71 16
36 60 8
36 59 3
38 60 10
36 59 7
38 58 16
43 59 19
55 68 37
46 66 29
44 62 23
32 50 8
28 47 0
36 54 10
50 68 22
48 68 21
51 72 26
56 72 29
55 73 29
49 70 23
42 65 14
39 62 9
42 65 15
26 48 0
39 61 17
51 72 26
56 75 31
58 75 30
45 77 75
48 78 73
61 76 48
57 77 40
26 83 113
11 87 125
41 74 58
51 73 29
55 77 34
62 81 39
85 93 67
105 103 79
48 80 65
15 127 154
53 73 95
142 145 105
160 158 127
138 152 119
165 164 131
208 217 229
223 236 255
223 236 255
223 236 255
223 236 255
223 236 255
223 236 255
223 236 255
223 236 255
223 236 255
223 236 255
223 236 255
223 236 255
223 236 255
223 236 255
223 236 255
223 236 255
223 236 255
223 236 255
223 236 255
223 236 255
223 236 255
223 236 255
223 236 255
223 236 255
223 236 255
223 236 255
223 236 255
223 236 255
223 236 255
223 236 255
223 236 255
223 236 255
223 236 255
223 236 255
223 236 255
223 236 255
223 236 255
223 236 255
223 236 255
223 236 255
223 236 255
223 236 255
223 236 255
223 236 255
223 236 255
223 236 255
223 236 255
223 236 255
223 236 255
223 236 255
223 236 255
223 236 255
223 236 255
223 236 255
223 236 255
223 236 255
223 236 255
223 236 255
223 236 255
223 236 255
223 236 255
223 236 255
223 236 255
223 236 255
223 236 255
223 236 255
223 236 255
223 236 255
223 236 255
223 236 255
223 236 255
223 236 255
223 236 255
223 236 255
223 236 255
223 236 255
223 236 255
223 236 255
223 236 255
223 236 255
223 236 255
223 236 255
223 236 255
223 236 255
223 236 255
223 236 255
223 236 255
223 236 255
223 236 255
223 236 255
223 236 255
223 236 255
223 236 255
223 236 255
223 236 255
223 236 255
223 236 255
223 236 255
223 236 255
223 236 255
223 236 255
223 236 255
223 236 255
223 236 255
223 236 255
223 236 255
223 236 255
223 236 255
223 236 255
223 236 255
223 236 255
223 236 255
223 236 255
223 236 255
223 236 255
223 236 255
223 236 255
223 236 255
223 236 255
223 236 255
223 236 255
223 236 255
223 236 255
223 236 255
223 236 255
223 236 255
223 236 255
223 236 255
223 236 255
223 236 255
223 236 255
223 236 255
223 236 255
223 236 255
223 236 255
223 236 255
223 236 255
223 236 255
223 236 255
223 236 255
223 236 255
223 236 255
223 236 255
223 236 255
223 236 255
223 236 255
223 236 255
223 236 255
223 236 255
223 236 255
223 236 255
223 236 255
223 236 255
223 236 255
223 236 255
223 236 255
223 236 255
223 236 255
223 236 255
223 236 255
223 236 255
223 236 255
223 236 255
223 236 255
223 236 255
223 236 255
223 236 255
223 236 255
223 236 255
223 236 255
223 236 255
223 236 255
223 236 255
223 236 255
223 236 255
223 236 255
223 236 255
223 236 255
223 236 255
223 236 255
223 236 255
223 236 255
223 236 255
223 236 255
223 236 255
223 236 255
223 236 255
223 236 255
223 236 255
223 236 255
223 236 255
223 236 255
223 236 255
223 236 255
223 236 255
223 236 255
223 236 255
223 236 255
223 236 255
223 236 255
223 236 255
223 236 255
223 236 255
223 236 255
223 236 255
223 236 255
223 236 255
223 236 255
223 236 255
223 236 255
223 236 255
223 236 255
223 236 255
223 236 255
223 236 255
223 236 255
223 236 255
223 236 255
223 236 255
223 236 255
223 236 255
223 236 255
223 236 255
223 236 255
223 236 255
223 236 255
223 236 255
223 236 255
223 236 255
223 236 255
223 236 255
223 236 255
223 236 255
223 236 255
223 236 255
223 236 255
223 236 255
223 236 255
223 236 255
223 236 255
223 236 255
223 236 255
223 236 255
223 236 255
223 236 255
223 236 255
223 236 255
223 236 255
223 236 255
223 236 255
223 236 255
223 236 255
223 236 255
223 236 255
223 236 255
223 236 255
223 236 255
223 236 255
223 236 255
223 236 255
223 236 255
210 223 240
51 72 39
28 52 45
24 42 47
13 27 58
25 48 11
36 60 10
39 62 12
33 59 6
28 51 0
25 50 2
23 50 9
24 51 33
24 57 40
28 53 35
14 37 51
13 33 40
5 15 56
0 0 61
0 0 66
0 0 64
0 0 64
0 6 61
0 0 57
0 0 61
0 0 61
0 0 64
0 0 63
0 0 69
0 13 74
0 14 78
0 12 72
0 6 65
0 0 58
0 0 54
0 0 52
0 0 50
0 0 52
0 0 53
0 0 52
0 0 55
0 0 60
0 0 64
0 0 61
0 0 61
0 0 61
0 0 61
0 0 60
0 0 58
0 0 58
0 0 64
0 4 66
0 10 71
0 7 74
0 17 80
0 20 84
0 19 83
0 22 85
0 19 84
0 14 79
0 17 81
0 9 72
0 0 63
0 0 62
0 0 66
0 0 62
0 0 57
0 0 53
0 0 50
0 0 53
0 0 53
0 0 50
0 0 49
0 0 53
0 0 53
0 0 54
0 0 54
0 0 51
0 0 49
0 0 54
0 0 55
0 7 63
0 17 78
9 25 73
40 60 50
57 78 32
59 76 30
52 74 24
41 70 14
42 69 8
45 71 12
42 70 9
45 69 13
34 57 1
31 57 7
46 64 27
70 89 55
45 62 24
61 78 42
54 69 35
34 51 5
37 54 9
35 57 9
31 54 0
33 55 0
43 64 6
40 63 8
43 66 14
50 69 23
58 74 32
52 71 26
46 69 16
35 57 5
42 65 11
40 63 9
36 60 8
44 65 21
63 78 37
61 78 42
35 83 93
5 44 100
22 35 65
60 77 53
38 72 88
7 70 112
23 71 91
46 69 23
48 73 26
50 77 30
66 82 46
87 94 67
95 101 80
18 135 158
45 84 121
136 145 120
168 165 135
162 163 138
147 168 131
164 163 133
205 214 225
223 236 255
223 236 255
223 236 255
223 236 255
223 236 255
223 236 255
223 236 255
223 236 255
223 236 255
223 236 255
223 236 255
223 236 255
223 236 255
223 236 255
223 236 255
223 236 255
223 236 255
223 236 255
223 236 255
223 236 255
223 236 255
223 236 255
223 236 255
223 236 255
223 236 255
223 236 255
223 236 255
223 236 255
223 236 255
223 236 255
223 236 255
223 236 255
223 236 255
223 236 255
223 236 255
223 236 255
223 236 255
223 236 255
223 236 255
223 236 255
223 236 255
223 236 255
223 236 255
223 236 255
223 236 255
223 236 255
223 236 255
223 236 255
223 236 255
223 236 255
223 236 255
223 236 255
223 236 255
223 236 255
223 236 255
223 236 255
223 236 255
223 236 255
223 236 255
223 236 255
223 236 255
223 236 255
223 236 255
223 236 255
223 236 255
223 236 255
223 236 255
223 236 255
223 236 255
223 236 255
223 236 255
223 236 255
223 236 255
223 236 255
223 236 255
223 236 255
223 236 255
223 236 255
223 236 255
223 236 255
223 236 255
223 236 255
223 236 255
223 236 255
223 236 255
223 236 255
223 236 255
223 236 255
223 236 255
223 236 255
223 236 255
223 236 255
223 236 255
223 236 255
223 236 255
223 236 255
223 236 255
223 236 255
223 236 255
223 236 255
223 236 255
223 236 255
223 236 255
223 236 255
223 236 255
223 236 255
223 236 255
223 236 255
223 236 255
223 236 255
223 236 255
223 236 255
223 236 255
223 236 255
223 236 255
223 236 255
223 236 255
223 236 255
223 236 255
223 236 255
223 236 255
223 236 255
223 236 255
223 236 255
223 236 255
223 236 255
223 236 255
223 236 255
223 236 255
223 236 255
223 236 255
223 236 255
223 236 255
223 236 255
223 236 255
223 236 255
223 236 255
223 236 255
223 236 255
223 236 255
223 236 255
223 236 255
223 236 255
223 236 255
223 236 255
223 236 255
223 236 255
223 236 255
223 236 255
223 236 255
223 236 255
223 236 255
223 236 255
223 236 255
223 236 255
223 236 255
223 236 255
223 236 255
223 236 255
223 236 255
223 236 255
223 236 255
223 236 255
223 236 255
223 236 255
223 236 255
223 236 255
223 236 255
223 236 255
223 236 255
223 236 255
223 236 255
223 236 255
223 236 255
223 236 255
223 236 255
223 236 255
223 236 255
223 236 255
223 236 255
223 236 255
223 236 255
223 236 255
223 236 255
223 236 255
223 236 255
223 236 255
223 236 255
223 236 255
223 236 255
223 236 255
223 236 255
223 236 255
223 236 255
223 236 255
223 236 255
223 236 255
223 236 255
223 236 255
223 236 255
223 236 255
223 236 255
223 236 255
223 236 255
223 236 255
223 236 255
223 236 255
223 236 255
223 236 255
223 236 255
223 236 255
223 236 255
223 236 255
223 236 255
223 236 255
223 236 255
223 236 255
223 236 255
223 236 255
223 236 255
223 236 255
223 236 255
223 236 255
223 236 255
223 236 255
223 236 255
223 236 255
223 236 255
223 236 255
223 236 255
223 236 255
223 236 255
223 236 255
223 236 255
223 236 255
223 236 255
223 236 255
223 236 255
223 236 255
223 236 255
223 236 255
223 236 255
223 236 255
223 236 255
223 236 255
223 236 255
223 236 255
223 236 255
223 236 255
223 236 255
223 236 255
223 236 255
223 236 255
223 236 255
223 236 255
223 236 255
223 236 255
223 236 255
223 236 255
192 205 218
55 74 47
32 54 43
33 54 54
33 51 46
37 59 19
35 56 18
30 53 5
27 52 5
28 52 6
26 55 6
22 44 39
14 43 77
21 46 51
22 49 34
22 37 35
8 17 52
0 0 58
0 0 57
0 0 62
0 0 67
0 0 61
0 0 55
0 0 55
0 0 51
0 0 56
0 0 67
0 0 69
0 0 62
0 8 67
0 6 69
0 8 70
0 6 64
0 0 56
0 0 54
0 0 49
0 0 50
0 0 54
0 0 57
0 0 54
0 0 56
0 0 57
0 0 59
0 0 65
0 0 63
0 0 64
0 0 65
0 0 65
0 0 65
0 0 59
0 0 57
0 0 62
0 0 65
0 6 71
0 5 70
0 4 67
0 12 78
0 11 74
0 17 75
0 12 73
0 11 73
0 10 74
0 3 67
0 0 63
0 0 62
0 0 63
0 0 58
0 0 54
0 0 53
0 0 52
0 0 54
0 0 54
0 0 54
0 0 53
0 0 55
0 0 54
0 0 52
0 0 53
0 0 50
0 0 47
0 0 45
0 0 50
0 0 54
0 0 52
0 3 62
4 23 81
42 77 69
66 81 34
48 69 16
37 65 3
34 60 0
43 67 9
37 62 11
48 69 18
43 65 17
31 55 6
73 89 52
60 76 43
37 58 12
43 62 20
38 58 15
45 64 18
40 67 34
25 47 56
31 48 30
27 46 10
37 59 3
37 60 10
39 62 8
44 66 13
49 70 23
50 70 27
51 74 25
37 58 0
29 51 2
32 53 1
36 59 6
41 62 17
64 82 43
62 78 39
43 74 61
0 54 108
0 4 62
22 33 70
50 72 43
37 57 56
18 41 79
34 59 49
39 64 17
44 70 19
46 76 19
65 83 43
88 93 63
79 125 123
13 78 113
92 99 97
176 176 145
192 184 158
191 201 178
174 174 147
166 157 128
210 221 235
223 236 255
223 236 255
223 236 255
223 236 255
223 236 255
223 236 255
223 236 255
223 236 255
223 236 255
223 236 255
223 236 255
223 236 255
223 236 255
223 236 255
223 236 255
223 236 255
223 236 255
223 236 255
223 236 255
223 236 255
223 236 255
223 236 255
223 236 255
223 236 255
223 236 255
223 236 255
223 236 255
223 236 255
223 236 255
223 236 255
223 236 255
223 236 255
223 236 255
223 236 255
223 236 255
223 236 255
223 236 255
223 236 255
223 236 255
223 236 255
223 236 255
223 236 255
223 236 255
223 236 255
223 236 255
223 236 255
223 236 255
223 236 255
223 236 255
223 236 255
223 236 255
223 236 255
223 236 255
223 236 255
223 236 255
223 236 255
223 236 255
223 236 255
223 236 255
223 236 255
223 236 255
223 236 255
223 236 255
223 236 255
223 236 255
223 236 255
223 236 255
223 236 255
223 236 255
223 236 255
223 236 255
223 236 255
223 236 255
223 236 255
223 236 255
223 236 255
223 236 255
223 236 255
223 236 255
223 236 255
223 236 255
223 236 255
223 236 255
223 236 255
223 236 255
223 236 255
223 236 255
223 236 255
223 236 255
223 236 255
223 236 255
223 236 255
223 236 255
223 236 255
223 236 255
223 236 255
223 236 255
223 236 255
223 236 255
223 236 255
223 236 255
223 236 255
223 236 255
223 236 255
223 236 255
223 236 255
223 236 255
223 236 255
223 236 255
223 236 255
223 236 255
223 236 255
223 236 255
223 236 255
223 236 255
223 236 255
223 236 255
223 236 255
223 236 255
223 236 255
223 236 255
223 236 255
223 236 255
223 236 255
223 236 255
223 236 255
223 236 255
223 236 255
223 236 255
223 236 255
223 236 255
223 236 255
223 236 255
223 236 255
223 236 255
223 236 255
223 236 255
223 236 255
223 236 255
223 236 255
223 236 255
223 236 255
223 236 255
223 236 255
223 236 255
223 236 255
223 236 255
223 236 255
223 236 255
223 236 255
223 236 255
223 236 255
223 236 255
223 236 255
223 236 255
223 236 255
223 237 255
223 236 255
223 237 255
223 237 255
223 237 255
223 237 255
223 237 255
223 237 255
223 237 255
223 237 255
223 237 255
223 237 255
223 237 255
223 237 255
223 237 255
223 237 255
223 237 255
223 237 255
223 237 255
223 237 255
223 237 255
223 237 255
223 237 255
223 237 255
223 237 255
223 237 255
223 237 255
223 237 255
223 237 255
223 237 255
223 237 255
223 237 255
223 237 255
223 237 255
223 237 255
223 237 255
223 237 255
223 237 255
223 237 255
223 237 255
223 237 255
223 237 255
223 237 255
223 237 255
223 237 255
223 237 255
223 237 255
223 237 255
223 237 255
223 237 255
223 237 255
223 237 255
223 237 255
223 237 255
223 237 255
223 237 255
223 237 255
223 237 255
223 237 255
223 237 255
223 237 255
223 237 255
223 237 255
223 237 255
223 237 255
223 237 255
223 237 255
223 237 255
223 237 255
223 237 255
223 237 255
223 237 255
223 237 255
223 237 255
223 237 255
223 237 255
223 237 255
223 237 255
223 237 255
223 237 255
223 237 255
223 237 255
223 237 255
223 237 255
223 237 255
223 237 255
223 237 255
223 237 255
223 237 255
223 237 255
223 237 255
223 237 255
223 237 255
223 237 255
223 237 255
223 237 255
223 237 255
223 237 255
223 237 255
223 237 255
223 237 255
204 217 233
80 97 82
33 54 54
46 64 31
43 62 42
30 48 57
18 39 50
27 50 16
28 52 3
26 52 15
21 42 43
7 25 73
6 18 66
22 42 31
8 20 56
0 4 60
0 0 59
0 0 58
0 0 59
0 0 60
0 0 66
0 0 65
0 0 59
0 0 60
0 0 57
0 0 55
0 0 56
0 0 68
0 0 67
0 4 67
0 11 74
0 0 68
0 0 62
0 0 62
0 0 57
0 0 52
0 0 52
0 0 53
0 0 57
0 0 65
0 0 62
0 0 60
0 0 57
0 0 60
0 0 61
0 0 60
0 0 61
0 0 64
0 0 65
0 0 64
0 0 58
0 0 58
0 0 61
0 0 67
0 0 67
0 0 64
0 0 65
0 10 72
0 4 66
0 3 60
0 1 61
0 0 63
0 0 65
0 0 64
0 0 61
0 0 61
0 0 61
0 0 60
0 0 55
0 0 55
0 0 54
0 0 56
0 0 57
0 0 56
0 0 55
0 0 51
0 0 54
0 0 53
0 0 53
0 0 50
0 0 47
0 0 46
0 0 47
0 0 45
0 0 45
0 0 47
0 13 62
26 50 67
51 72 31
46 68 18
39 64 3
37 65 5
38 63 0
36 59 1
37 56 7
43 63 11
46 64 24
62 75 38
51 68 18
55 77 31
48 67 20
54 73 27
60 77 26
56 78 31
27 66 87
17 21 45
12 20 33
32 49 21
38 61 5
38 61 6
38 60 10
41 62 12
46 67 19
47 67 18
41 62 13
41 63 15
49 68 20
52 71 25
59 77 29
61 78 35
71 84 48
62 81 74
0 36 92
0 3 67
0 10 73
7 23 82
5 26 82
0 20 85
0 21 85
7 21 73
20 40 42
35 60 9
43 70 14
56 77 34
72 85 47
51 87 77
1 27 76
92 91 96
183 184 157
200 201 173
184 193 172
172 169 138
163 153 126
206 218 231
223 237 255
223 237 255
223 237 255
223 237 255
223 237 255
223 237 255
223 237 255
223 237 255
223 237 255
223 237 255
223 237 255
223 237 255
223 237 255
223 237 255
223 237 255
223 237 255
223 237 255
223 237 255
223 237 255
223 237 255
223 237 255
223 237 255
223 237 255
223 237 255
223 237 255
223 237 255
223 237 255
223 237 255
223 237 255
223 237 255
223 237 255
223 237 255
223 237 255
223 237 255
223 237 255
223 237 255
223 237 255
223 237 255
223 237 255
223 237 255
223 237 255
223 237 255
223 237 255
223 237 255
223 237 255
223 237 255
223 237 255
223 237 255
223 237 255
223 237 255
223 237 255
223 237 255
223 237 255
223 237 255
223 237 255
223 237 255
223 237 255
223 237 255
223 237 255
223 237 255
223 237 255
223 237 255
223 237 255
223 237 255
223 237 255
223 237 255
223 237 255
223 237 255
223 237 255
223 237 255
223 237 255
223 237 255
223 237 255
223 237 255
223 237 255
223 237 255
223 237 255
223 237 255
223 237 255
223 237 255
223 237 255
223 237 255
223 237 255
223 237 255
223 237 255
223 237 255
223 237 255
223 237 255
223 237 255
223 237 255
223 237 255
223 237 255
223 237 255
223 237 255
223 237 255
223 237 255
223 237 255
223 237 255
223 237 255
223 236 255
223 236 255
223 237 255
223 236 255
223 236 255
223 236 255
223 236 255
223 236 255
223 236 255
223 236 255
223 236 255
223 236 255
223 236 255
223 236 255
223 236 255
223 236 255
223 236 255
223 236 255
223 236 255
223 236 255
223 236 255
223 236 255
223 236 255
223 236 255
223 236 255
223 236 255
223 236 255
223 236 255
223 236 255
223 237 255
223 237 255
223 237 255
223 237 255
223 237 255
223 237 255
223 237 255
223 237 255
223 237 255
223 237 255
223 237 255
223 237 255
223 237 255
223 237 255
223 237 255
223 237 255
223 237 255
223 237 255
223 237 255
223 237 255
223 237 255
223 237 255
223 237 255
223 237 255
223 237 255
223 237 255
223 237 255
223 237 255
223 237 255
223 237 255
223 237 255
223 237 255
223 237 255
223 237 255
223 237 255
223 237 255
223 237 255
223 237 255
223 237 255
223 237 255
223 237 255
223 237 255
223 237 255
223 237 255
223 237 255
223 237 255
223 237 255
223 237 255
223 237 255
223 237 255
223 237 255
223 237 255
223 237 255
223 237 255
223 237 255
223 237 255
223 237 255
223 237 255
223 237 255
223 237 255
223 237 255
223 237 255
223 237 255
223 237 255
223 237 255
223 237 255
223 237 255
223 237 255
223 237 255
223 237 255
223 237 255
223 237 255
223 237 255
223 237 255
223 237 255
223 237 255
223 237 255
223 237 255
223 237 255
223 237 255
223 237 255
223 237 255
223 237 255
223 237 255
223 237 255
223 237 255
223 237 255
223 237 255
223 237 255
223 237 255
223 237 255
223 237 255
223 237 255
223 237 255
223 237 255
223 237 255
223 237 255
223 237 255
223 237 255
223 237 255
223 237 255
223 237 255
223 237 255
223 237 255
223 237 255
223 237 255
223 237 255
223 237 255
223 237 255
223 237 255
223 237 255
223 237 255
223 237 255
223 237 255
223 237 255
223 237 255
223 237 255
223 237 255
223 237 255
223 237 255
223 237 255
223 237 255
223 237 255
223 237 255
223 237 255
223 237 255
223 237 255
209 222 238
83 99 86
35 55 50
44 62 32
35 57 58
35 58 44
39 63 12
35 61 3
28 54 0
28 52 22
13 27 52
0 0 62
0 1 66
3 12 62
3 8 60
0 0 60
0 0 58
0 0 57
0 0 57
0 0 59
0 0 61
0 0 67
0 0 63
0 0 64
0 0 61
0 0 57
0 0 55
0 0 60
0 0 66
0 3 68
0 10 72
0 5 66
0 0 58
0 0 55
0 0 53
0 0 52
0 0 51
0 0 53
0 0 53
0 0 56
0 0 59
0 0 62
0 0 59
0 0 57
0 0 57
0 0 59
0 0 61
0 0 61
0 0 63
0 0 61
0 0 61
0 0 58
0 0 64
0 0 65
0 0 68
0 0 68
0 0 66
0 0 64
0 4 67
0 0 59
0 0 55
0 0 59
0 0 60
0 0 61
0 0 61
0 0 61
0 0 64
0 0 64
0 0 62
0 0 57
0 0 56
0 0 56
0 0 58
0 0 58
0 0 54
0 0 56
0 0 56
0 0 54
0 0 49
0 0 51
0 0 49
0 0 45
0 0 47
0 0 45
0 0 46
0 0 43
0 0 50
0 0 47
17 30 47
38 54 14
54 67 22
56 73 23
49 72 14
44 71 10
42 62 9
47 60 17
66 77 36
53 66 19
54 67 27
51 66 18
37 55 15
19 28 34
28 43 24
45 63 20
55 69 25
56 83 59
27 38 60
0 0 48
13 17 38
49 61 40
55 71 31
41 60 10
34 54 2
32 54 2
39 61 6
42 64 10
42 64 10
49 69 26
59 80 38
59 79 29
57 78 28
59 76 33
67 82 55
18 34 79
0 0 68
0 2 64
0 7 68
0 10 72
0 9 74
0 16 80
0 19 84
0 15 77
17 35 65
41 60 45
67 84 43
48 70 23
41 63 14
47 66 63
3 14 73
70 75 91
164 166 150
200 210 187
169 170 151
175 163 129
160 152 129
216 229 247
223 237 255
223 237 255
223 237 255
223 237 255
223 237 255
223 237 255
223 237 255
223 237 255
223 237 255
223 237 255
223 237 255
223 237 255
223 237 255
223 237 255
223 237 255
223 237 255
223 237 255
223 237 255
223 237 255
223 237 255
223 237 255
223 237 255
223 237 255
223 237 255
223 237 255
223 237 255
223 237 255
223 237 255
223 237 255
223 237 255
223 237 255
223 237 255
223 237 255
223 237 255
223 237 255
223 237 255
223 237 255
223 237 255
223 237 255
223 237 255
223 237 255
223 237 255
223 237 255
223 237 255
223 237 255
223 237 255
223 237 255
223 237 255
223 237 255
223 237 255
223 237 255
223 237 255
223 237 255
223 237 255
223 237 255
223 237 255
223 237 255
223 237 255
223 237 255
223 237 255
223 237 255
223 237 255
223 237 255
223 237 255
223 237 255
223 237 255
223 237 255
223 237 255
223 237 255
223 237 255
223 237 255
223 237 255
223 237 255
223 237 255
223 237 255
223 237 255
223 237 255
223 237 255
223 237 255
223 237 255
223 237 255
223 237 255
223 237 255
223 237 255
223 237 255
223 237 255
223 237 255
223 237 255
223 237 255
223 237 255
223 237 255
223 237 255
223 237 255
223 237 255
223 237 255
223 237 255
223 237 255
223 237 255
223 237 255
223 237 255
223 237 255
223 237 255
223 237 255
223 237 255
223 237 255
223 237 255
223 237 255
223 237 255
223 237 255
223 237 255
223 237 255
223 237 255
223 237 255
223 237 255
223 237 255
223 237 255
223 237 255
223 237 255
223 237 255
223 237 255
223 237 255
223 237 255
223 237 255
223 237 255
223 237 255
223 237 255
223 237 255
223 237 255
223 237 255
223 237 255
223 237 255
223 237 255
223 237 255
223 237 255
223 237 255
223 237 255
223 237 255
223 237 255
223 237 255
223 237 255
223 237 255
223 237 255
223 237 255
223 237 255
223 237 255
223 237 255
223 237 255
223 237 255
223 237 255
223 237 255
223 237 255
223 237 255
223 237 255
223 237 255
223 237 255
223 237 255
223 237 255
223 237 255
223 237 255
223 237 255
223 237 255
223 237 255
223 237 255
223 237 255
223 237 255
223 237 255
223 237 255
223 237 255
223 237 255
223 237 255
223 237 255
223 237 255
223 237 255
223 237 255
223 237 255
223 237 255
223 237 255
223 237 255
223 237 255
223 237 255
223 237 255
223 237 255
223 237 255
223 237 255
223 237 255
223 237 255
223 237 255
223 237 255
223 237 255
223 237 255
223 237 255
223 237 255
223 237 255
223 237 255
223 237 255
223 237 255
223 237 255
223 237 255
223 237 255
223 237 255
223 237 255
223 237 255
223 237 255
223 237 255
223 237 255
223 237 255
223 237 255
223 237 255
223 237 255
223 237 255
223 237 255
223 237 255
223 237 255
223 237 255
223 237 255
223 237 255
223 237 255
223 237 255
223 237 255
223 237 255
223 237 255
223 237 255
223 237 255
223 237 255
223 237 255
223 237 255
223 237 255
223 237 255
223 237 255
223 237 255
223 237 255
223 237 255
223 237 255
223 237 255
223 237 255
223 237 255
223 237 255
223 237 255
223 237 255
223 237 255
223 237 255
223 237 255
223 237 255
223 237 255
223 237 255
223 237 255
223 237 255
223 237 255
223 237 255
223 237 255
223 237 255
223 237 255
223 237 255
222 236 254
121 135 133
40 62 20
41 65 43
21 52 79
23 47 49
32 59 4
31 57 0
31 56 5
30 53 2
18 31 56
0 0 65
0 0 61
0 0 61
0 0 56
0 0 60
0 0 59
0 0 58
0 0 59
0 0 57
0 0 57
0 0 61
0 0 63
0 0 61
0 0 63
0 0 57
0 0 58
0 0 59
0 0 63
0 0 66
0 0 68
0 0 61
0 0 50
0 0 47
0 0 48
0 0 49
0 0 52
0 0 53
0 0 52
0 0 54
0 0 56
0 0 57
0 0 59
0 0 56
0 0 57
0 0 57
0 0 61
0 0 63
0 0 62
0 0 62
0 0 58
0 0 57
0 0 59
0 0 65
0 0 66
0 0 67
0 0 67
0 0 62
0 0 59
0 0 59
0 0 55
0 0 55
0 0 56
0 0 57
0 0 58
0 0 62
0 0 65
0 0 66
0 0 65
0 0 60
0 0 55
0 0 54
0 0 59
0 0 60
0 0 59
0 0 57
0 0 56
0 0 53
0 0 56
0 5 56
15 24 41
19 30 34
18 28 40
20 31 35
18 26 40
9 15 40
15 21 43
6 12 46
0 11 44
24 41 47
41 63 13
52 71 20
62 79 31
65 82 31
47 67 17
56 66 30
59 70 48
56 70 51
55 67 37
51 64 23
32 41 30
4 11 43
0 0 42
0 0 45
25 33 40
53 71 23
56 73 24
59 75 29
61 71 49
8 11 44
5 7 41
26 33 42
41 54 36
50 70 25
42 63 18
39 62 8
37 59 8
43 65 12
41 61 8
43 67 16
47 69 17
46 68 14
45 66 18
53 75 28
16 34 73
0 0 57
0 0 59
0 0 64
0 8 70
0 16 82
0 21 82
0 19 85
0 12 73
0 12 78
0 19 85
20 45 60
38 63 16
43 64 16
44 65 19
48 69 53
12 24 71
48 48 82
143 150 140
182 191 174
161 159 138
174 159 123
161 158 148
221 235 253
223 237 255
223 237 255
223 237 255
223 237 255
223 237 255
223 237 255
223 237 255
223 237 255
223 237 255
223 237 255
223 237 255
223 237 255
223 237 255
223 237 255
223 237 255
223 237 255
223 237 255
223 237 255
223 237 255
223 237 255
223 237 255
223 237 255
223 237 255
223 237 255
223 237 255
223 237 255
223 237 255
223 237 255
223 237 255
223 237 255
223 237 255
223 237 255
223 237 255
223 237 255
223 237 255
223 237 255
223 237 255
223 237 255
223 237 255
223 237 255
223 237 255
223 237 255
223 237 255
223 237 255
223 237 255
223 237 255
223 237 255
223 237 255
223 237 255
223 237 255
223 237 255
223 237 255
223 237 255
223 237 255
223 237 255
223 237 255
223 237 255
223 237 255
223 237 255
223 237 255
223 237 255
223 237 255
223 237 255
223 237 255
223 237 255
223 237 255
223 237 255
223 237 255
223 237 255
223 237 255
223 237 255
223 237 255
223 237 255
223 237 255
223 237 255
223 237 255
223 237 255
223 237 255
223 237 255
223 237 255
223 237 255
223 237 255
223 237 255
223 237 255
223 237 255
223 237 255
223 237 255
223 237 255
223 237 255
223 237 255
223 237 255
223 237 255
223 237 255
223 237 255
223 237 255
223 237 255
223 237 255
223 237 255
223 237 255
223 237 255
223 237 255
223 237 255
223 237 255
223 237 255
223 237 255
223 237 255
223 237 255
223 237 255
223 237 255
223 237 255
223 237 255
223 237 255
223 237 255
223 237 255
223 237 255
223 237 255
223 237 255
223 237 255
223 237 255
223 237 255
223 237 255
223 237 255
223 237 255
223 237 255
223 237 255
223 237 255
223 237 255
223 237 255
223 237 255
223 237 255
223 237 255
223 237 255
223 237 255
223 237 255
223 237 255
223 237 255
223 237 255
223 237 255
223 237 255
223 237 255
223 237 255
223 237 255
223 237 255
223 237 255
223 237 255
223 237 255
223 237 255
223 237 255
223 237 255
223 237 255
223 237 255
223 237 255
223 237 255
223 237 255
223 237 255
223 237 255
223 237 255
223 237 255
223 237 255
223 237 255
223 237 255
223 237 255
223 237 255
223 237 255
223 237 255
223 237 255
223 237 255
223 237 255
223 237 255
223 237 255
223 237 255
223 237 255
223 237 255
223 237 255
223 237 255
223 237 255
223 237 255
223 237 255
223 237 255
223 237 255
223 237 255
223 237 255
223 237 255
223 237 255
223 237 255
223 237 255
223 237 255
223 237 255
223 237 255
223 237 255
223 237 255
223 237 255
223 237 255
223 237 255
223 237 255
223 237 255
223 237 255
223 237 255
223 237 255
223 237 255
223 237 255
223 237 255
223 237 255
223 237 255
223 237 255
223 237 255
223 237 255
223 237 255
223 237 255
223 237 255
223 237 255
223 237 255
223 237 255
223 237 255
223 237 255
223 237 255
223 237 255
223 237 255
223 237 255
223 237 255
223 237 255
223 237 255
223 237 255
223 237 255
223 237 255
223 237 255
223 237 255
223 237 255
223 237 255
223 237 255
223 237 255
223 237 255
223 237 255
223 237 255
223 237 255
223 237 255
223 237 255
223 237 255
223 237 255
223 237 255
223 237 255
223 237 255
223 237 255
223 237 255
223 237 255
223 237 255
223 237 255
223 237 255
223 237 255
223 237 255
223 237 255
223 237 255
142 155 158
38 62 9
41 65 12
44 65 22
34 59 8
30 53 2
30 56 2
33 54 17
27 49 36
18 42 53
0 10 67
0 13 77
0 3 67
0 0 58
0 0 58
0 0 64
0 0 59
0 0 59
0 0 57
0 0 51
0 0 56
0 0 61
0 0 61
0 0 58
0 0 60
0 0 57
0 0 62
0 0 63
0 0 65
0 0 64
0 0 57
0 0 50
0 0 46
0 0 45
0 0 47
0 0 52
0 0 52
0 0 54
0 0 53
0 0 59
0 0 58
0 0 56
0 0 55
0 0 57
0 0 57
0 0 58
0 0 63
0 0 62
0 0 60
0 0 59
0 0 56
0 0 57
0 0 59
0 0 60
0 0 63
0 0 64
0 0 60
0 0 57
0 0 57
0 0 57
0 0 54
0 0 57
0 0 59
0 0 60
0 0 59
0 0 60
0 0 63
0 0 64
0 0 62
0 0 57
0 0 54
0 0 55
0 0 58
0 0 58
0 0 56
0 0 55
0 0 55
0 0 65
0 2 58
22 37 38
41 60 10
42 60 10
40 55 11
49 62 17
51 61 22
58 67 32
54 67 27
49 64 22
49 65 24
48 66 18
43 63 9
47 67 19
45 63 15
46 61 13
48 62 14
53 63 46
0 0 45
0 5 59
0 2 45
10 11 44
0 0 38
0 0 44
0 0 42
20 30 33
2 4 38
29 38 34
52 69 30
62 75 29
57 74 26
51 59 45
13 14 44
0 0 43
0 0 42
14 20 39
32 47 33
44 63 25
46 64 18
48 69 21
46 65 17
45 64 12
42 60 11
56 76 26
50 73 22
55 76 18
29 54 64
2 13 72
0 0 59
0 5 62
2 13 77
10 32 79
17 34 67
18 35 75
5 19 76
0 11 77
0 13 76
1 21 82
21 43 59
39 61 12
49 73 22
59 76 27
50 72 35
24 35 71
20 33 76
126 139 141
194 194 172
191 173 140
173 158 124
169 175 173
223 237 255
223 237 255
223 237 255
223 237 255
223 237 255
223 237 255
223 237 255
223 237 255
223 237 255
223 237 255
223 237 255
223 237 255
223 237 255
223 237 255
223 237 255
223 237 255
223 237 255
223 237 255
223 237 255
223 237 255
223 237 255
223 237 255
223 237 255
223 237 255
223 237 255
223 237 255
223 237 255
223 237 255
223 237 255
223 237 255
223 237 255
223 237 255
223 237 255
223 237 255
223 237 255
223 237 255
223 237 255
223 237 255
223 237 255
223 237 255
223 237 255
223 237 255
223 237 255
223 237 255
223 237 255
223 237 255
223 237 255
223 237 255
223 237 255
223 237 255
223 237 255
223 237 255
223 237 255
223 237 255
223 237 255
223 237 255
223 237 255
223 237 255
223 237 255
223 237 255
223 237 255
223 237 255
223 237 255
223 237 255
223 237 255
223 237 255
223 237 255
223 237 255
223 237 255
223 237 255
223 237 255
223 237 255
223 237 255
223 237 255
223 237 255
223 237 255
223 237 255
223 237 255
223 237 255
223 237 255
223 237 255
223 237 255
223 237 255
223 237 255
223 237 255
223 237 255
223 237 255
223 237 255
223 237 255
223 237 255
223 237 255
223 237 255
223 237 255
223 237 255
223 237 255
223 237 255
223 237 255
223 237 255
223 237 255
223 237 255
223 237 255
223 237 255
223 237 255
223 237 255
223 237 255
223 237 255
223 237 255
223 237 255
223 237 255
223 237 255
223 237 255
223 237 255
223 237 255
223 237 255
223 237 255
223 237 255
223 237 255
223 237 255
223 237 255
223 237 255
223 237 255
223 237 255
223 237 255
223 237 255
223 237 255
223 237 255
223 237 255
223 237 255
223 237 255
223 237 255
223 237 255
223 237 255
223 237 255
223 237 255
223 237 255
223 237 255
223 237 255
223 237 255
223 237 255
223 237 255
223 237 255
223 237 255
223 237 255
223 237 255
223 237 255
223 237 255
223 237 255
223 237 255
223 237 255
223 237 255
223 237 255
223 237 255
223 237 255
223 237 255
223 237 255
223 237 255
223 237 255
223 237 255
223 237 255
223 237 255
223 237 255
223 237 255
223 237 255
223 237 255
223 237 255
223 237 255
223 237 255
223 237 255
223 237 255
223 237 255
223 237 255
223 237 255
223 237 255
223 237 255
223 237 255
223 237 255
223 237 255
223 237 255
223 237 255
223 237 255
223 237 255
223 237 255
223 237 255
223 237 255
223 237 255
223 237 255
223 237 255
223 237 255
223 237 255
223 237 255
223 237 255
223 237 255
223 237 255
223 237 255
223 237 255
223 237 255
223 237 255
223 237 255
223 237 255
223 237 255
223 237 255
223 237 255
223 237 255
223 237 255
223 237 255
223 237 255
223 237 255
223 237 255
223 237 255
223 237 255
223 237 255
223 237 255
223 237 255
223 237 255
223 237 255
223 237 255
223 237 255
223 237 255
223 237 255
223 237 255
223 237 255
223 237 255
223 237 255
223 237 255
223 237 255
223 237 255
223 237 255
223 237 255
223 237 255
223 237 255
223 237 255
223 237 255
223 237 255
223 237 255
223 237 255
223 237 255
223 237 255
223 237 255
223 237 255
223 237 255
223 237 255
223 237 255
223 237 255
223 237 255
223 237 255
223 237 255
223 237 255
223 237 255
223 237 255
223 237 255
223 237 255
173 186 195
39 63 11
38 65 7
40 63 12
37 60 5
33 56 0
36 58 5
30 61 40
17 51 69
3 19 76
0 15 74
0 11 74
0 5 68
0 0 66
0 0 66
0 0 63
0 0 58
0 0 54
0 0 55
0 0 52
0 0 52
0 0 57
0 0 56
0 0 53
0 0 55
0 0 56
0 0 56
0 0 57
0 0 59
0 0 62
0 0 56
0 0 52
0 0 49
0 0 45
0 0 48
0 0 50
0 0 52
0 0 53
0 0 52
0 0 53
0 0 58
0 0 58
0 0 56
0 0 54
0 0 56
0 0 54
0 0 55
0 0 58
0 0 57
0 0 55
0 0 55
0 0 55
0 0 57
0 0 58
0 0 58
0 0 56
0 0 56
0 0 56
0 0 56
0 0 56
0 0 56
0 0 56
0 0 56
0 0 57
0 0 59
0 0 61
0 0 61
0 0 60
0 0 62
0 0 62
0 0 56
0 0 55
0 0 55
0 0 56
0 0 55
0 0 54
0 0 53
0 0 54
0 0 49
0 0 50
17 29 54
41 58 12
48 62 22
52 60 21
65 68 33
98 99 64
105 106 71
94 99 57
65 73 32
71 78 40
104 108 70
93 95 50
78 83 42
67 73 35
50 61 18
41 53 15
44 59 21
15 18 46
0 0 49
0 0 41
0 0 46
0 0 43
0 0 45
1 2 44
31 45 26
18 26 39
0 0 43
17 22 41
41 54 33
61 75 32
62 76 31
56 67 33
61 62 56
31 36 47
0 0 41
0 0 42
7 10 41
38 53 36
52 68 31
53 71 23
56 74 31
48 63 18
45 59 18
50 66 21
60 78 31
84 90 51
50 64 61
20 39 62
0 23 83
7 32 88
31 54 33
48 64 22
50 63 21
51 67 43
33 49 58
11 33 73
16 33 65
25 47 54
56 70 25
59 76 28
59 76 30
78 92 45
70 82 48
54 63 87
68 75 98
183 178 158
193 181 155
186 166 132
160 150 116
183 190 195
223 237 255
223 237 255
223 237 255
223 237 255
223 237 255
223 237 255
223 237 255
223 237 255
223 237 255
223 237 255
223 237 255
223 237 255
223 237 255
223 237 255
223 237 255
223 237 255
223 237 255
223 237 255
223 237 255
223 237 255
223 237 255
223 237 255
223 237 255
223 237 255
223 237 255
223 237 255
223 237 255
223 237 255
223 237 255
223 237 255
223 237 255
223 237 255
223 237 255
223 237 255
223 237 255
223 237 255
223 237 255
223 237 255
223 237 255
223 237 255
223 237 255
223 237 255
223 237 255
223 237 255
223 237 255
223 237 255
223 237 255
223 237 255
223 237 255
223 237 255
223 237 255
223 237 255
223 237 255
223 237 255
223 237 255
223 237 255
223 237 255
223 237 255
223 237 255
223 237 255
223 237 255
223 237 255
223 237 255
223 237 255
223 237 255
223 237 255
223 237 255
223 237 255
223 237 255
223 237 255
223 237 255
223 237 255
223 237 255
223 237 255
223 237 255
223 237 255
223 237 255
223 237 255
223 237 255
223 237 255
223 237 255
223 237 255
223 237 255
223 237 255
223 237 255
223 237 255
223 237 255
223 237 255
223 237 255
223 237 255
223 237 255
223 237 255
223 237 255
223 237 255
223 237 255
223 237 255
223 237 255
223 237 255
223 237 255
223 237 255
223 237 255
223 237 255
223 237 255
223 237 255
223 237 255
223 237 255
223 237 255
223 237 255
223 237 255
223 237 255
223 237 255
223 237 255
223 237 255
223 237 255
223 237 255
223 237 255
223 237 255
223 237 255
223 237 255
223 237 255
223 237 255
223 237 255
223 237 255
223 237 255
223 237 255
223 237 255
223 237 255
223 237 255
223 237 255
223 237 255
223 237 255
223 237 255
223 237 255
223 237 255
223 237 255
223 237 255
223 237 255
223 237 255
223 237 255
223 237 255
223 237 255
223 237 255
223 237 255
223 237 255
223 237 255
223 237 255
223 237 255
223 237 255
223 237 255
223 237 255
223 237 255
223 237 255
223 237 255
223 237 255
223 237 255
223 237 255
223 237 255
223 237 255
223 237 255
223 237 255
223 237 255
223 237 255
223 237 255
223 237 255
223 237 255
223 237 255
223 237 255
223 237 255
223 237 255
223 237 255
223 237 255
223 237 255
223 237 255
223 237 255
223 237 255
223 237 255
223 237 255
223 237 255
223 237 255
223 237 255
223 237 255
223 237 255
223 237 255
223 237 255
223 237 255
223 237 255
223 237 255
223 237 255
223 237 255
223 237 255
223 237 255
223 237 255
223 237 255
223 237 255
223 237 255
223 237 255
223 237 255
223 237 255
223 237 255
223 237 255
223 237 255
223 237 255
223 237 255
223 237 255
223 237 255
223 237 255
223 237 255
223 237 255
223 237 255
223 237 255
223 237 255
223 237 255
223 237 255
223 237 255
223 237 255
223 237 255
223 237 255
223 237 255
223 237 255
223 237 255
223 237 255
223 237 255
223 237 255
223 237 255
223 237 255
223 237 255
223 237 255
223 237 255
223 237 255
223 237 255
223 237 255
223 237 255
223 237 255
223 237 255
223 237 255
223 237 255
223 237 255
223 237 255
223 237 255
223 237 255
223 237 255
223 237 255
223 237 255
223 237 255
223 237 255
223 237 255
223 237 255
223 237 255
223 237 255
195 208 222
47 69 28
39 62 7
38 62 11
31 56 2
33 56 5
39 63 14
38 55 31
6 22 71
0 5 68
0 6 67
0 5 62
0 0 60
0 0 65
0 0 64
0 0 62
0 0 55
0 0 51
0 0 48
0 0 51
0 0 50
0 0 52
0 0 52
0 0 51
0 0 51
0 0 53
0 0 53
0 0 54
0 0 55
0 0 59
0 0 57
0 0 53
0 0 51
0 0 50
0 0 48
0 0 49
0 0 52
0 0 52
0 0 52
0 0 50
0 0 53
0 0 56
0 0 56
0 0 56
0 0 52
0 0 51
0 0 52
0 0 52
0 0 51
0 0 51
0 0 51
0 0 52
0 0 53
0 0 56
0 0 58
0 0 54
0 0 52
0 0 53
0 0 55
0 0 56
0 0 54
0 0 54
0 0 54
0 0 52
0 0 49
0 0 55
0 0 62
0 0 64
0 0 59
0 0 59
0 0 61
0 0 59
0 0 54
0 0 51
0 0 52
0 0 52
0 0 52
0 0 53
0 0 52
0 0 45
0 0 48
11 16 57
47 61 24
57 67 28
69 74 40
79 80 42
103 104 66
103 107 64
95 100 55
92 92 56
87 88 47
103 99 61
117 110 72
125 122 72
96 97 55
77 86 41
58 69 36
26 34 32
8 9 47
0 0 45
0 0 48
0 0 46
0 0 44
0 0 43
0 0 41
10 15 35
19 22 32
1 2 40
0 0 42
0 0 43
32 37 45
43 53 38
56 70 37
79 82 41
89 87 58
64 61 58
32 32 45
0 0 40
20 31 47
62 77 31
50 64 26
54 71 28
58 79 32
62 75 31
46 57 38
45 57 38
66 78 42
51 63 53
19 35 69
35 61 44
39 60 23
38 53 11
57 68 27
81 86 47
83 89 46
71 82 40
49 66 20
64 73 29
75 82 38
84 87 48
75 83 37
84 92 49
62 76 34
81 88 46
100 106 81
17 32 88
81 81 97
173 166 142
182 168 139
182 164 132
147 140 105
200 212 225
223 237 255
223 237 255
223 237 255
223 237 255
223 237 255
223 237 255
223 237 255
223 237 255
223 237 255
223 237 255
223 237 255
223 237 255
223 237 255
223 237 255
223 237 255
223 237 255
223 237 255
223 237 255
223 237 255
223 237 255
223 237 255
223 237 255
223 237 255
223 237 255
223 237 255
223 237 255
223 237 255
223 237 255
223 237 255
223 237 255
223 237 255
223 237 255
223 237 255
223 237 255
223 237 255
223 237 255
223 237 255
223 237 255
223 237 255
223 237 255
223 237 255
223 237 255
223 237 255
223 237 255
223 237 255
223 237 255
223 237 255
223 237 255
223 237 255
223 237 255
223 237 255
223 237 255
223 237 255
223 237 255
223 237 255
223 237 255
223 237 255
223 237 255
223 237 255
223 237 255
223 237 255
223 237 255
223 237 255
223 237 255
223 237 255
223 237 255
223 237 255
223 237 255
223 237 255
223 237 255
223 237 255
223 237 255
223 237 255
223 237 255
223 237 255
223 237 255
223 237 255
223 237 255
223 237 255
223 237 255
223 237 255
223 237 255
223 237 255
223 237 255
223 237 255
223 237 255
223 237 255
223 237 255
223 237 255
223 237 255
223 237 255
223 237 255
223 237 255
223 237 255
223 237 255
223 237 255
223 237 255
223 237 255
223 237 255
223 237 255
223 237 255
223 237 255
223 237 255
223 237 255
223 237 255
223 237 255
223 237 255
223 237 255
223 237 255
223 237 255
223 237 255
223 237 255
223 237 255
223 237 255
223 237 255
223 237 255
223 237 255
223 237 255
223 237 255
223 237 255
223 237 255
223 237 255
223 237 255
223 237 255
223 237 255
223 237 255
223 237 255
223 237 255
223 237 255
223 237 255
223 237 255
223 237 255
223 237 255
223 237 255
223 237 255
223 237 255
223 237 255
223 237 255
223 237 255
223 237 255
223 237 255
223 237 255
223 237 255
223 237 255
223 237 255
223 237 255
223 237 255
223 237 255
223 237 255
223 237 255
223 237 255
223 237 255
223 237 255
223 237 255
223 237 255
223 237 255
223 237 255
223 237 255
223 237 255
223 237 255
223 237 255
223 237 255
223 237 255
223 237 255
223 237 255
223 237 255
223 237 255
223 237 255
223 237 255
223 237 255
223 237 255
223 237 255
223 237 255
223 237 255
223 237 255
223 237 255
223 237 255
223 237 255
223 237 255
223 237 255
223 237 255
223 237 255
223 237 255
223 237 255
223 237 255
223 237 255
223 237 255
223 237 255
223 237 255
223 237 255
223 237 255
223 237 255
223 237 255
223 237 255
223 237 255
223 237 255
223 237 255
223 237 255
223 237 255
223 237 255
223 237 255
223 237 255
223 237 255
223 237 255
223 237 255
223 237 255
223 237 255
223 237 255
223 237 255
223 237 255
223 237 255
223 237 255
223 237 255
223 237 255
223 237 255
223 237 255
223 237 255
223 237 255
223 237 255
223 237 255
223 237 255
223 237 255
223 237 255
223 237 255
223 237 255
223 237 255
223 237 255
223 237 255
223 237 255
223 237 255
223 237 255
223 237 255
223 237 255
223 237 255
223 237 255
223 237 255
223 237 255
223 237 255
223 237 255
223 237 255
223 237 255
223 237 255
223 237 255
223 237 255
223 237 255
223 237 255
223 237 255
206 219 234
79 93 78
39 64 11
34 59 0
31 57 0
32 56 0
36 68 33
28 67 56
9 20 63
0 0 63
0 0 52
0 0 49
0 0 44
0 0 53
0 0 56
0 0 54
0 0 50
0 0 51
0 0 47
0 0 45
0 0 48
0 0 52
0 0 53
0 0 48
0 0 48
0 0 50
0 0 57
0 0 54
0 0 50
0 0 53
0 0 57
0 0 53
0 0 53
0 0 53
0 0 52
0 0 50
0 0 52
0 0 52
0 0 50
0 0 48
0 0 48
0 0 50
0 0 53
0 0 55
0 0 50
0 0 48
0 0 48
0 0 48
0 0 46
0 0 48
0 0 50
0 0 51
0 0 50
0 0 51
0 0 53
0 0 53
0 0 53
0 0 52
0 0 51
0 0 53
0 0 53
0 0 51
0 0 50
0 0 50
0 0 48
0 0 49
0 0 56
0 0 59
0 0 60
0 0 57
0 0 55
0 0 56
0 0 54
0 0 53
0 0 52
0 0 49
0 0 51
0 0 52
0 0 51
0 0 50
0 0 42
0 0 47
0 0 70
41 54 27
58 66 27
78 84 49
74 80 38
90 93 52
109 109 68
83 88 46
80 81 43
88 87 53
88 86 49
105 102 66
112 107 71
92 90 60
48 50 46
20 24 47
5 6 43
0 0 40
0 0 43
0 0 40
0 0 44
0 0 42
0 0 44
0 0 40
35 41 52
67 76 43
32 37 38
0 0 46
0 0 41
0 0 41
0 0 43
20 22 43
35 41 38
55 68 25
89 91 50
79 76 62
55 60 57
23 23 50
55 68 43
66 81 39
61 76 35
59 74 42
43 57 46
10 13 38
3 3 47
21 24 52
46 58 39
52 63 45
53 66 30
64 74 34
82 85 49
106 112 67
101 104 65
103 103 65
95 99 59
88 91 52
89 92 51
92 92 53
87 93 49
87 91 45
85 91 46
110 109 74
95 101 64
104 99 63
53 64 77
0 24 85
84 87 102
176 180 156
175 164 137
174 162 130
159 154 133
205 215 228
223 237 255
223 237 255
223 237 255
223 237 255
223 237 255
223 237 255
223 237 255
223 237 255
223 237 255
223 237 255
223 237 255
223 237 255
223 237 255
223 237 255
223 237 255
223 237 255
223 237 255
223 237 255
223 237 255
223 237 255
223 237 255
223 237 255
223 237 255
223 237 255
223 237 255
223 237 255
223 237 255
223 237 255
223 237 255
223 237 255
223 237 255
223 237 255
223 237 255
223 237 255
223 237 255
223 237 255
223 237 255
223 237 255
223 237 255
223 237 255
223 237 255
223 237 255
223 237 255
223 237 255
223 237 255
223 237 255
223 237 255
223 237 255
223 237 255
223 237 255
223 237 255
223 237 255
223 237 255
223 237 255
223 237 255
223 237 255
223 237 255
223 237 255
223 237 255
223 237 255
223 237 255
223 237 255
223 237 255
223 237 255
223 237 255
223 237 255
223 237 255
223 237 255
223 237 255
223 237 255
223 237 255
223 237 255
223 237 255
223 237 255
223 237 255
223 237 255
223 237 255
223 237 255
223 237 255
223 237 255
223 237 255
223 237 255
223 237 255
223 237 255
223 237 255
223 237 255
223 237 255
223 237 255
223 237 255
223 237 255
223 237 255
223 237 255
223 237 255
223 237 255
223 237 255
223 237 255
223 237 255
223 237 255
223 237 255
223 237 255
223 237 255
223 237 255
223 237 255
223 237 255
223 237 255
223 237 255
223 237 255
223 237 255
223 237 255
223 237 255
223 237 255
223 237 255
223 237 255
223 237 255
223 237 255
223 237 255
223 237 255
223 237 255
223 237 255
223 237 255
223 237 255
223 237 255
223 237 255
223 237 255
223 237 255
223 237 255
223 237 255
223 237 255
223 237 255
223 237 255
223 237 255
223 237 255
223 237 255
223 237 255
223 237 255
223 237 255
223 237 255
223 237 255
223 237 255
223 237 255
223 237 255
223 237 255
223 237 255
223 237 255
223 237 255
223 237 255
223 237 255
223 237 255
223 237 255
223 237 255
223 237 255
223 237 255
223 237 255
223 237 255
223 237 255
223 237 255
223 237 255
223 237 255
223 237 255
223 237 255
223 237 255
223 237 255
223 237 255
223 237 255
223 237 255
223 237 255
223 237 255
223 237 255
223 237 255
223 237 255
223 237 255
223 237 255
223 237 255
223 237 255
223 237 255
223 237 255
223 237 255
223 237 255
223 237 255
223 237 255
223 237 255
223 237 255
223 237 255
223 237 255
223 237 255
223 237 255
223 237 255
223 237 255
223 237 255
223 237 255
223 237 255
223 237 255
223 237 255
223 237 255
223 237 255
223 237 255
223 237 255
223 237 255
223 237 255
223 237 255
223 237 255
223 237 255
223 237 255
223 237 255
223 237 255
223 237 255
223 237 255
223 237 255
223 237 255
223 237 255
223 237 255
223 237 255
223 237 255
223 237 255
223 237 255
223 237 255
223 237 255
223 237 255
223 237 255
223 237 255
223 237 255
223 237 255
223 237 255
223 237 255
223 237 255
223 237 255
223 237 255
223 237 255
223 237 255
223 237 255
223 237 255
223 237 255
223 237 255
223 237 255
223 237 255
223 237 255
223 237 255
223 237 255
223 237 255
223 237 255
223 237 255
223 237 255
223 237 255
223 237 255
223 237 255
222 236 254
118 131 129
39 63 5
38 65 4
32 56 0
30 55 0
28 65 28
28 74 49
5 25 70
0 0 65
0 0 49
0 0 47
0 0 44
0 0 44
0 0 51
0 0 50
0 0 47
0 0 46
0 0 45
0 0 46
0 0 44
0 0 46
0 0 48
0 0 46
0 0 45
0 0 47
0 0 54
0 0 59
0 0 51
0 0 49
0 0 52
0 0 53
0 0 53
0 0 55
0 0 53
0 0 51
0 0 51
0 0 51
0 0 48
0 0 47
0 0 47
0 0 45
0 0 45
0 0 47
0 0 50
0 0 48
0 0 48
0 0 47
0 0 46
0 0 44
0 0 44
0 0 46
0 0 48
0 0 48
0 0 49
0 0 52
0 0 51
0 0 52
0 0 53
0 0 51
0 0 51
0 0 50
0 0 48
0 0 47
0 0 45
0 0 45
0 0 49
0 0 53
0 0 55
0 0 56
0 0 57
0 0 53
0 0 52
0 0 52
0 0 53
0 0 50
0 0 47
0 0 48
0 0 48
0 0 46
0 0 45
0 0 45
0 0 47
7 12 59
46 56 26
54 61 26
75 80 43
64 70 29
71 79 36
78 83 42
89 91 52
107 106 68
97 92 49
79 80 43
86 88 50
86 84 53
74 81 55
21 22 53
0 0 41
0 0 38
13 10 41
4 2 41
4 7 45
0 0 41
0 0 42
0 0 42
0 0 41
21 22 36
77 79 39
52 53 47
0 0 39
0 0 41
0 0 39
0 0 44
0 0 41
1 1 43
20 28 38
51 62 32
46 51 46
20 21 42
30 29 48
8 12 41
37 49 32
53 65 24
66 74 38
58 67 45
5 6 39
3 3 44
3 5 39
38 46 40
61 73 34
64 78 35
72 78 43
87 95 58
129 128 93
133 129 95
123 120 85
129 122 82
110 109 71
116 114 71
107 104 65
87 92 46
82 92 44
79 92 45
82 85 61
119 112 83
102 98 63
90 92 72
15 40 95
0 24 82
124 130 124
165 166 137
158 147 115
164 151 116
172 170 155
222 235 253
223 237 255
223 237 255
223 237 255
223 237 255
223 237 255
223 237 255
223 237 255
223 237 255
223 237 255
223 237 255
223 237 255
223 237 255
223 237 255
223 237 255
223 237 255
223 237 255
223 237 255
223 237 255
223 237 255
223 237 255
223 237 255
223 237 255
223 237 255
223 237 255
223 237 255
223 237 255
223 237 255
223 237 255
223 237 255
223 237 255
223 237 255
223 237 255
223 237 255
223 237 255
223 237 255
223 237 255
223 237 255
223 237 255
223 237 255
223 237 255
223 237 255
223 237 255
223 237 255
223 237 255
223 237 255
223 237 255
223 237 255
223 237 255
223 237 255
223 237 255
223 237 255
223 237 255
223 237 255
223 237 255
223 237 255
223 237 255
223 237 255
223 237 255
223 237 255
223 237 255
223 237 255
223 237 255
223 237 255
223 237 255
223 237 255
223 237 255
223 237 255
223 237 255
223 237 255
223 237 255
223 237 255
223 237 255
223 237 255
223 237 255
223 237 255
223 237 255
223 237 255
223 237 255
223 237 255
223 237 255
223 237 255
223 237 255
223 237 255
223 237 255
223 237 255
223 237 255
223 237 255
223 237 255
223 237 255
223 237 255
223 237 255
223 237 255
223 237 255
223 237 255
223 237 255
223 237 255
223 237 255
223 237 255
223 237 255
223 237 255
223 237 255
223 237 255
223 237 255
223 237 255
223 237 255
223 237 255
223 237 255
223 237 255
223 237 255
223 237 255
223 237 255
223 237 255
223 237 255
223 237 255
223 237 255
223 237 255
223 237 255
223 237 255
223 237 255
223 237 255
223 237 255
223 237 255
223 237 255
223 237 255
223 237 255
223 237 255
223 237 255
223 237 255
223 237 255
223 237 255
223 237 255
223 237 255
223 237 255
223 237 255
223 237 255
223 237 255
223 237 255
223 237 255
223 237 255
223 237 255
223 237 255
223 237 255
223 237 255
223 237 255
223 237 255
223 237 255
223 237 255
223 237 255
223 237 255
223 237 255
223 237 255
223 237 255
223 237 255
223 237 255
223 237 255
223 237 255
223 237 255
223 237 255
223 237 255
223 237 255
223 237 255
223 237 255
223 237 255
223 237 255
223 237 255
223 237 255
223 237 255
223 237 255
223 237 255
223 237 255
223 237 255
223 237 255
223 237 255
223 237 255
223 237 255
223 237 255
223 237 255
223 237 255
223 237 255
223 237 255
223 237 255
223 237 255
223 237 255
223 237 255
223 237 255
223 237 255
223 237 255
223 237 255
223 237 255
223 237 255
223 237 255
223 237 255
223 237 255
223 237 255
223 237 255
223 237 255
223 237 255
223 237 255
223 237 255
223 237 255
223 237 255
223 237 255
223 237 255
223 237 255
223 237 255
223 237 255
223 237 255
223 237 255
223 237 255
223 237 255
223 237 255
223 237 255
223 237 255
223 237 255
223 237 255
223 237 255
223 237 255
223 237 255
223 237 255
223 237 255
223 237 255
223 237 255
223 237 255
223 237 255
223 237 255
223 237 255
223 237 255
223 237 255
223 237 255
223 237 255
223 237 255
223 237 255
223 237 255
223 237 255
223 237 255
223 237 255
223 237 255
223 237 255
223 237 255
223 237 255
223 237 255
223 237 255
223 237 255
223 237 255
158 171 177
39 62 11
38 65 0
33 60 2
31 56 0
31 55 4
25 87 78
9 32 70
0 0 59
0 0 49
0 0 43
0 0 43
0 0 45
0 0 49
0 0 48
0 0 45
0 0 45
0 0 44
0 0 45
0 0 47
0 0 47
0 0 46
0 0 46
0 0 46
0 0 47
0 0 48
0 0 53
0 0 53
0 0 50
0 0 50
0 0 50
0 0 48
0 0 50
0 0 52
0 0 52
0 0 50
0 0 48
0 0 46
0 0 45
0 0 45
0 0 45
0 0 43
0 0 43
0 0 44
0 0 46
0 0 48
0 0 48
0 0 47
0 0 45
0 0 45
0 0 45
0 0 46
0 0 46
0 0 47
0 0 49
0 0 52
0 0 48
0 0 50
0 0 51
0 0 50
0 0 46
0 0 47
0 0 46
0 0 45
0 0 45
0 0 45
0 0 47
0 0 49
0 0 51
0 0 53
0 0 53
0 0 49
0 0 48
0 0 49
0 0 50
0 0 47
0 0 46
0 0 45
0 0 46
0 0 46
0 0 43
0 0 51
0 0 44
28 36 57
59 66 22
63 67 28
79 80 40
84 85 44
79 81 40
80 82 45
96 92 58
123 110 75
125 110 73
105 96 65
98 92 61
96 89 61
54 57 57
0 0 43
0 0 47
0 0 40
49 52 49
35 36 49
4 6 40
0 0 40
0 0 43
0 0 39
0 0 39
0 0 42
71 73 52
71 74 49
6 3 41
0 0 44
0 0 42
0 0 41
0 0 41
0 0 40
0 0 43
9 14 39
43 53 26
34 39 43
0 0 44
0 0 39
4 6 41
29 41 40
48 63 27
58 70 28
26 29 34
12 14 38
0 0 39
14 15 39
48 52 48
82 89 54
97 101 65
91 95 58
105 106 70
128 123 88
161 149 102
145 139 95
126 121 80
113 109 69
123 118 80
107 106 67
89 96 56
83 92 47
86 91 60
114 110 77
114 115 90
123 117 82
78 81 73
10 52 100
3 66 116
148 151 135
145 136 103
153 145 110
176 162 127
197 199 193
223 237 255
223 237 255
223 237 255
223 237 255
223 237 255
223 237 255
223 237 255
223 237 255
223 237 255
223 237 255
223 237 255
223 237 255
223 237 255
223 237 255
223 237 255
223 237 255
223 237 255
223 237 255
223 237 255
223 237 255
223 237 255
223 237 255
223 237 255
223 237 255
223 237 255
223 237 255
223 237 255
223 237 255
223 237 255
223 237 255
223 237 255
223 237 255
223 237 255
223 237 255
223 237 255
223 237 255
223 237 255
223 237 255
223 237 255
223 237 255
223 237 255
223 237 255
223 237 255
223 237 255
223 237 255
223 237 255
223 237 255
223 237 255
223 237 255
223 237 255
223 237 255
223 237 255
223 237 255
223 237 255
223 237 255
223 237 255
223 237 255
223 237 255
223 237 255
223 237 255
223 237 255
223 237 255
223 237 255
223 237 255
223 237 255
223 237 255
223 237 255
223 237 255
223 237 255
223 237 255
223 237 255
223 237 255
223 237 255
223 237 255
223 237 255
223 237 255
223 237 255
223 237 255
223 237 255
223 237 255
223 237 255
223 237 255
223 237 255
223 237 255
223 237 255
223 237 255
223 237 255
223 237 255
223 237 255
223 237 255
223 237 255
223 237 255
223 237 255
223 237 255
223 237 255
223 237 255
223 237 255
223 237 255
223 237 255
223 237 255
223 237 255
223 237 255
223 237 255
223 237 255
223 237 255
223 237 255
223 237 255
223 237 255
223 237 255
223 237 255
223 237 255
223 237 255
223 237 255
223 237 255
223 237 255
223 237 255
223 237 255
223 237 255
223 237 255
223 237 255
223 237 255
223 237 255
223 237 255
223 237 255
223 237 255
223 237 255
223 237 255
223 237 255
223 237 255
223 237 255
223 237 255
223 237 255
223 237 255
223 237 255
223 237 255
223 237 255
223 237 255
223 237 255
223 237 255
223 237 255
223 237 255
223 237 255
223 237 255
223 237 255
223 237 255
223 237 255
223 237 255
223 237 255
223 237 255
223 237 255
223 237 255
223 237 255
223 237 255
223 237 255
223 237 255
223 237 255
223 237 255
223 237 255
223 237 255
223 237 255
223 237 255
223 237 255
223 237 255
223 237 255
223 237 255
223 237 255
223 237 255
223 237 255
223 237 255
223 237 255
223 237 255
223 237 255
223 237 255
223 237 255
223 237 255
223 237 255
223 237 255
223 237 255
223 237 255
223 237 255
223 237 255
223 237 255
223 237 255
223 237 255
223 237 255
223 237 255
223 237 255
223 237 255
223 237 255
223 237 255
223 237 255
223 237 255
223 237 255
223 237 255
223 237 255
223 237 255
223 237 255
223 237 255
223 237 255
223 237 255
223 237 255
223 237 255
223 237 255
223 237 255
223 237 255
223 237 255
223 237 255
223 237 255
223 237 255
223 237 255
223 237 255
223 237 255
223 237 255
223 237 255
223 237 255
223 237 255
223 237 255
223 237 255
223 237 255
223 237 255
223 237 255
223 237 255
223 237 255
223 237 255
223 237 255
223 237 255
223 237 255
223 237 255
223 237 255
223 237 255
223 237 255
223 237 255
223 237 255
223 237 255
223 237 255
223 237 255
223 237 255
223 237 255
223 237 255
223 237 255
223 237 255
223 237 255
223 237 255
190 203 215
43 65 15
37 63 7
35 62 0
33 60 0
34 58 0
29 64 49
5 40 79
0 0 52
0 0 44
0 0 42
0 0 43
0 0 44
0 0 47
0 0 45
0 0 42
0 0 43
0 0 45
0 0 44
0 0 46
0 0 52
0 0 50
0 0 48
0 0 48
0 0 48
0 0 49
0 0 51
0 0 51
0 0 49
0 0 49
0 0 49
0 0 49
0 0 48
0 0 50
0 0 50
0 0 50
0 0 48
0 0 46
0 0 45
0 0 43
0 0 42
0 0 43
0 0 43
0 0 45
0 0 45
0 0 46
0 0 47
0 0 46
0 0 44
0 0 44
0 0 45
0 0 45
0 0 45
0 0 46
0 0 45
0 0 42
0 0 46
0 0 47
0 0 52
0 0 48
0 0 48
0 0 45
0 0 45
0 0 45
0 0 45
0 0 43
0 0 45
0 0 47
0 0 50
0 0 51
0 0 50
0 0 47
0 0 45
0 0 45
0 0 45
0 0 45
0 0 45
0 0 43
0 0 45
0 0 45
0 0 45
0 0 45
0 0 48
0 0 52
57 72 62
76 82 44
77 83 43
84 86 42
92 89 52
92 87 50
87 82 44
81 79 40
109 97 69
122 106 78
111 101 67
124 117 84
102 92 66
69 76 52
0 0 43
0 0 45
0 0 45
2 2 41
3 3 38
0 0 38
0 0 40
0 0 42
0 0 42
0 0 41
0 0 41
23 23 40
14 14 40
1 0 38
0 0 40
0 0 43
0 0 39
0 0 42
0 0 42
0 0 40
7 10 44
31 45 30
16 21 38
0 0 46
0 0 41
0 0 40
3 5 42
30 38 40
45 51 33
51 53 45
63 69 54
21 22 42
5 7 41
24 25 49
63 69 39
85 89 53
103 103 69
100 103 67
87 94 60
126 122 81
172 164 118
136 130 88
95 94 59
91 94 57
103 102 67
88 92 54
94 99 54
107 103 64
95 97 59
89 97 60
116 117 86
136 125 94
83 85 63
30 74 105
39 68 100
127 120 95
162 146 115
170 155 121
171 153 120
209 219 233
223 237 255
223 237 255
223 237 255
223 237 255
223 237 255
223 237 255
223 237 255
223 237 255
223 237 255
223 237 255
223 237 255
223 237 255
223 237 255
223 237 255
223 237 255
223 237 255
223 237 255
223 237 255
223 237 255
223 237 255
223 237 255
223 237 255
223 237 255
223 237 255
223 237 255
223 237 255
223 237 255
223 237 255
223 237 255
223 237 255
223 237 255
223 237 255
223 237 255
223 237 255
223 237 255
223 237 255
223 237 255
223 237 255
223 237 255
223 237 255
223 237 255
223 237 255
223 237 255
223 237 255
223 237 255
223 237 255
223 237 255
223 237 255
223 237 255
223 237 255
223 237 255
223 237 255
223 237 255
223 237 255
223 237 255
223 237 255
223 237 255
223 237 255
223 237 255
223 237 255
223 237 255
223 237 255
223 237 255
223 237 255
223 237 255
223 237 255
223 237 255
223 237 255
223 237 255
223 237 255
223 237 255
223 237 255
223 237 255
223 237 255
223 237 255
223 237 255
223 237 255
223 237 255
223 237 255
223 237 255
223 237 255
223 237 255
223 237 255
223 237 255
223 237 255
223 237 255
223 237 255
223 237 255
223 237 255
223 237 255
223 237 255
223 237 255
223 237 255
223 237 255
223 237 255
223 237 255
223 237 255
223 237 255
223 237 255
223 237 255
223 237 255
223 237 255
223 237 255
223 237 255
223 237 255
223 237 255
223 237 255
223 237 255
223 237 255
223 237 255
223 237 255
223 237 255
223 237 255
223 237 255
223 237 255
223 237 255
223 237 255
223 237 255
223 237 255
223 237 255
223 237 255
223 237 255
223 237 255
223 237 255
223 237 255
223 237 255
223 237 255
223 237 255
223 237 255
223 237 255
223 237 255
223 237 255
223 237 255
223 237 255
223 237 255
223 237 255
223 237 255
223 237 255
223 237 255
223 237 255
223 237 255
223 237 255
223 237 255
223 237 255
223 237 255
223 237 255
223 237 255
223 237 255
223 237 255
223 237 255
223 237 255
223 237 255
223 237 255
223 237 255
223 237 255
223 237 255
223 237 255
223 237 255
223 237 255
223 237 255
223 237 255
223 237 255
223 237 255
223 237 255
223 237 255
224 237 255
224 237 255
224 237 255
224 237 255
224 237 255
224 237 255
224 237 255
224 237 255
224 237 255
224 237 255
224 237 255
224 237 255
224 237 255
224 237 255
224 237 255
224 237 255
224 237 255
224 237 255
224 237 255
224 237 255
224 237 255
224 237 255
224 237 255
224 237 255
224 237 255
224 237 255
224 237 255
224 237 255
224 237 255
224 237 255
224 237 255
224 237 255
224 237 255
224 237 255
224 237 255
224 237 255
224 237 255
224 237 255
224 237 255
224 237 255
224 237 255
224 237 255
224 237 255
224 237 255
224 237 255
224 237 255
224 237 255
224 237 255
224 237 255
224 237 255
224 237 255
224 237 255
224 237 255
224 237 255
224 237 255
224 237 255
224 237 255
224 237 255
224 237 255
224 237 255
224 237 255
224 237 255
224 237 255
224 237 255
224 237 255
224 237 255
224 237 255
224 237 255
224 237 255
224 237 255
224 237 255
224 237 255
224 237 255
224 237 255
224 237 255
224 237 255
217 230 248
97 111 100
40 64 10
35 61 0
35 61 0
37 61 0
34 65 18
19 49 58
0 0 50
0 0 42
0 0 41
0 0 43
0 0 45
0 0 44
0 0 42
0 0 43
0 0 45
0 0 45
0 0 44
0 0 45
0 0 50
0 0 51
0 0 47
0 0 48
0 0 50
0 0 50
0 0 53
0 0 52
0 0 49
0 0 48
0 0 48
0 0 48
0 0 48
0 0 49
0 0 48
0 0 49
0 0 48
0 0 46
0 0 45
0 0 45
0 0 42
0 0 42
0 0 42
0 0 43
0 0 44
0 0 45
0 0 46
0 0 44
0 0 43
0 0 42
0 0 42
0 0 43
0 0 43
0 0 45
0 0 45
0 0 43
0 0 39
0 0 40
0 0 45
0 0 51
0 0 46
0 1 40
0 0 45
0 0 44
0 0 45
0 0 44
0 0 42
0 0 45
0 0 47
0 0 48
0 0 49
0 0 46
0 0 44
0 0 42
0 0 43
0 0 43
0 0 42
0 0 44
0 0 45
0 0 45
0 0 45
0 0 45
0 0 45
0 0 53
0 0 44
18 24 56
62 66 47
90 88 48
87 83 47
89 83 50
97 91 50
94 89 50
76 78 32
81 79 42
92 88 57
76 77 44
118 112 79
135 128 85
69 69 63
7 8 43
0 0 37
0 0 41
0 0 42
0 0 42
0 0 44
0 0 42
0 0 40
0 0 39
0 0 42
0 0 42
0 0 40
0 0 43
0 0 38
0 0 41
0 0 45
0 0 44
38 43 50
59 65 44
52 57 32
54 62 36
23 30 35
6 8 45
0 0 44
0 0 40
0 0 41
0 0 40
7 10 44
49 58 38
67 77 38
43 43 44
23 21 46
4 4 46
2 2 42
17 17 41
67 76 48
77 83 46
96 97 64
79 87 51
86 87 54
132 122 86
152 141 98
87 89 57
70 80 43
105 100 67
126 116 80
131 120 82
113 106 72
114 109 72
118 109 68
116 111 74
132 124 90
144 131 98
120 110 80
82 87 67
115 111 81
163 149 125
159 143 119
169 152 118
153 146 127
218 231 248
224 237 255
224 237 255
224 237 255
224 237 255
224 237 255
224 237 255
224 237 255
224 237 255
224 237 255
224 237 255
224 237 255
224 237 255
224 237 255
224 237 255
224 237 255
224 237 255
224 237 255
224 237 255
224 237 255
224 237 255
224 237 255
224 237 255
224 237 255
224 237 255
224 237 255
224 237 255
224 237 255
224 237 255
224 237 255
224 237 255
224 237 255
224 237 255
224 237 255
224 237 255
224 237 255
224 237 255
224 237 255
224 237 255
224 237 255
224 237 255
224 237 255
224 237 255
224 237 255
224 237 255
224 237 255
224 237 255
224 237 255
224 237 255
224 237 255
224 237 255
224 237 255
224 237 255
224 237 255
224 237 255
224 237 255
224 237 255
224 237 255
224 237 255
224 237 255
224 237 255
224 237 255
224 237 255
224 237 255
224 237 255
224 237 255
224 237 255
224 237 255
224 237 255
224 237 255
224 237 255
224 237 255
224 237 255
224 237 255
224 237 255
223 237 255
223 237 255
224 237 255
223 237 255
223 237 255
223 237 255
223 237 255
223 237 255
223 237 255
223 237 255
223 237 255
223 237 255
223 237 255
223 237 255
223 237 255
223 237 255
223 237 255
223 237 255
223 237 255
223 237 255
223 237 255
223 237 255
223 237 255
223 237 255
223 237 255
223 237 255
223 237 255
223 237 255
223 237 255
223 237 255
223 237 255
223 237 255
223 237 255
223 237 255
223 237 255
223 237 255
223 237 255
223 237 255
223 237 255
223 237 255
223 237 255
223 237 255
223 237 255
223 237 255
223 237 255
223 237 255
224 237 255
224 237 255
224 237 255
224 237 255
224 237 255
224 237 255
224 237 255
224 237 255
224 237 255
224 237 255
224 237 255
224 237 255
224 237 255
224 237 255
224 237 255
224 237 255
224 237 255
224 237 255
224 237 255
224 237 255
224 237 255
224 237 255
224 237 255
224 237 255
224 237 255
224 237 255
224 237 255
224 237 255
224 237 255
224 237 255
224 237 255
224 237 255
224 237 255
224 237 255
224 237 255
224 237 255
224 237 255
224 237 255
224 237 255
224 237 255
224 237 255
224 237 255
224 237 255
224 237 255
224 237 255
224 237 255
224 237 255
224 237 255
224 237 255
224 237 255
224 237 255
224 237 255
224 237 255
224 237 255
224 237 255
224 237 255
224 237 255
224 237 255
224 237 255
224 237 255
224 237 255
224 237 255
224 237 255
224 237 255
224 237 255
224 237 255
224 237 255
224 237 255
224 237 255
224 237 255
224 237 255
224 237 255
224 237 255
224 237 255
224 237 255
224 237 255
224 237 255
224 237 255
224 237 255
224 237 255
224 237 255
224 237 255
224 237 255
224 237 255
224 237 255
224 237 255
224 237 255
224 237 255
224 237 255
224 237 255
224 237 255
224 237 255
224 237 255
224 237 255
224 237 255
224 237 255
224 237 255
224 237 255
224 237 255
224 237 255
224 237 255
224 237 255
224 237 255
224 237 255
224 237 255
224 237 255
224 237 255
224 237 255
224 237 255
224 237 255
224 237 255
224 237 255
224 237 255
224 237 255
224 237 255
224 237 255
224 237 255
224 237 255
224 237 255
224 237 255
153 165 171
43 65 12
35 61 1
33 58 1
40 61 5
40 66 13
28 74 65
5 25 59
0 0 41
0 0 42
0 0 44
0 0 45
0 0 43
0 0 42
0 0 44
0 0 46
0 0 47
0 0 46
0 0 46
0 0 47
0 0 49
0 0 47
0 0 47
0 0 49
0 0 50
0 0 52
0 0 54
0 0 50
0 0 47
0 0 48
0 0 48
0 0 48
0 0 48
0 0 48
0 0 47
0 0 46
0 0 45
0 0 45
0 0 44
0 0 43
0 0 42
0 0 42
0 0 42
0 0 42
0 0 44
0 0 45
0 0 44
0 0 42
0 0 42
0 0 41
0 0 42
0 0 42
0 0 42
0 0 42
0 0 40
0 0 43
0 0 44
0 0 41
0 0 43
0 0 50
0 0 46
0 6 47
0 0 45
0 0 46
0 0 45
0 0 43
0 0 42
0 0 44
0 0 45
0 0 46
0 0 45
0 0 45
0 0 45
0 0 43
0 0 42
0 0 42
0 0 42
0 0 42
0 0 44
0 0 45
0 0 45
0 0 44
0 0 39
0 0 47
0 0 47
0 4 54
53 59 49
102 93 61
92 87 57
74 79 36
88 86 49
93 91 55
104 102 59
107 103 64
111 104 68
119 110 68
117 109 76
104 101 77
32 32 52
0 0 41
0 0 40
0 0 41
0 0 40
0 0 41
0 0 41
0 0 41
0 0 43
0 0 44
0 0 42
2 2 41
2 3 44
3 3 44
36 37 45
33 33 49
5 3 41
2 1 42
14 16 42
45 49 42
83 86 56
98 96 66
34 35 40
0 0 35
0 0 40
0 0 38
0 0 40
0 0 41
0 0 40
9 10 46
44 53 35
42 45 40
8 8 40
0 0 42
10 11 45
0 0 45
17 20 42
35 41 36
70 71 45
98 98 68
42 45 45
82 84 56
118 115 80
72 72 56
31 36 45
89 85 56
140 119 88
157 144 109
192 170 130
188 168 128
185 162 120
163 149 110
123 115 77
139 129 97
152 138 107
141 131 101
154 142 113
168 151 124
172 160 140
169 152 126
169 152 121
178 181 179
224 237 255
224 237 255
224 237 255
224 237 255
224 237 255
224 237 255
224 237 255
224 237 255
224 237 255
224 237 255
224 237 255
224 237 255
224 237 255
224 237 255
224 237 255
224 237 255
224 237 255
224 237 255
224 237 255
224 237 255
224 237 255
224 237 255
224 237 255
224 237 255
224 237 255
224 237 255
224 237 255
224 237 255
224 237 255
224 237 255
224 237 255
224 237 255
224 237 255
224 237 255
224 237 255
224 237 255
224 237 255
224 237 255
224 237 255
224 237 255
224 237 255
224 237 255
224 237 255
224 237 255
224 237 255
224 237 255
224 237 255
224 237 255
224 237 255
224 237 255
224 237 255
224 237 255
224 237 255
224 237 255
224 237 255
224 237 255
224 237 255
224 237 255
224 237 255
224 237 255
224 237 255
224 237 255
224 237 255
224 237 255
224 237 255
224 237 255
224 237 255
224 237 255
224 237 255
224 237 255
224 237 255
224 237 255
224 237 255
224 237 255
224 237 255
224 237 255
224 237 255
224 237 255
224 237 255
224 237 255
224 237 255
224 237 255
224 237 255
224 237 255
224 237 255
224 237 255
224 237 255
224 237 255
224 237 255
224 237 255
224 237 255
224 237 255
224 237 255
224 237 255
224 237 255
224 237 255
224 237 255
224 237 255
224 237 255
224 237 255
224 237 255
224 237 255
224 237 255
224 237 255
224 237 255
224 237 255
224 237 255
224 237 255
224 237 255
224 237 255
224 237 255
224 237 255
224 237 255
224 237 255
224 237 255
224 237 255
224 237 255
224 237 255
224 237 255
224 237 255
224 237 255
224 237 255
224 237 255
224 237 255
224 237 255
224 237 255
224 237 255
224 237 255
224 237 255
224 237 255
224 237 255
224 237 255
224 237 255
224 237 255
224 237 255
224 237 255
224 237 255
224 237 255
224 237 255
224 237 255
224 237 255
224 237 255
224 237 255
224 237 255
224 237 255
224 237 255
224 237 255
224 237 255
224 237 255
224 237 255
224 237 255
224 237 255
224 237 255
224 237 255
224 237 255
224 237 255
224 237 255
224 237 255
224 237 255
224 237 255
224 237 255
224 237 255
224 237 255
224 237 255
224 237 255
224 237 255
224 237 255
224 237 255
224 237 255
224 237 255
224 237 255
224 237 255
224 237 255
224 237 255
224 237 255
224 237 255
224 237 255
224 237 255
224 237 255
224 237 255
224 237 255
224 237 255
224 237 255
224 237 255
224 237 255
224 237 255
224 237 255
224 237 255
224 237 255
224 237 255
224 237 255
224 237 255
224 237 255
224 237 255
224 237 255
224 237 255
224 237 255
224 237 255
224 237 255
224 237 255
224 237 255
224 237 255
224 237 255
224 237 255
224 237 255
224 237 255
224 237 255
224 237 255
224 237 255
224 237 255
224 237 255
224 237 255
224 237 255
224 237 255
224 237 255
224 237 255
224 237 255
224 237 255
224 237 255
224 237 255
224 237 255
224 237 255
224 237 255
224 237 255
224 237 255
224 237 255
224 237 255
224 237 255
224 237 255
224 237 255
224 237 255
224 237 255
224 237 255
224 237 255
224 237 255
224 237 255
224 237 255
224 237 255
224 237 255
192 205 218
40 63 8
39 64 3
34 58 2
40 60 5
41 65 10
27 57 43
7 60 75
0 0 42
0 0 42
0 0 42
0 0 42
0 0 42
0 0 42
0 0 42
0 0 46
0 0 47
0 0 46
0 0 46
0 0 47
0 0 47
0 0 48
0 0 46
0 0 49
0 0 49
0 0 50
0 0 52
0 0 50
0 0 47
0 0 48
0 0 48
0 0 48
0 0 48
0 0 48
0 0 46
0 0 45
0 0 45
0 0 45
0 0 44
0 0 42
0 0 42
0 0 41
0 0 42
0 0 42
0 0 42
0 0 44
0 0 43
0 0 42
0 0 42
0 0 41
0 0 39
0 0 40
0 0 40
0 0 40
0 0 40
0 0 41
0 0 42
0 0 39
0 0 42
0 0 44
0 0 42
0 0 44
0 0 40
0 0 42
0 0 45
0 0 44
0 0 42
0 0 42
0 0 42
0 0 42
0 0 42
0 0 42
0 0 43
0 0 43
0 0 42
0 0 42
0 0 42
0 0 42
0 0 42
0 0 42
0 0 43
0 0 43
0 0 42
0 0 43
0 0 43
0 0 41
0 5 45
34 39 48
53 53 55
50 46 57
62 68 68
96 95 64
96 95 59
102 97 63
89 89 58
76 76 48
89 87 58
82 82 60
23 20 47
0 0 39
0 0 40
0 0 43
0 0 41
0 0 42
28 29 53
36 40 45
43 52 37
28 34 42
19 23 37
38 44 36
62 66 41
68 72 50
50 54 38
95 92 51
126 117 85
69 67 60
20 17 41
0 0 43
0 0 42
11 10 44
35 36 50
31 34 45
0 0 46
0 0 43
0 0 41
0 0 45
0 0 41
0 0 44
0 0 44
3 0 42
14 14 41
9 9 43
0 0 42
0 0 42
0 0 39
0 0 44
18 20 41
13 13 41
36 41 43
8 9 39
5 5 43
45 45 46
19 19 40
0 0 43
54 54 45
138 123 85
180 167 127
192 182 145
202 183 141
203 184 144
198 181 145
175 152 115
128 118 83
146 133 101
151 139 107
161 146 119
189 168 139
190 174 154
180 165 144
175 158 133
149 137 107
201 210 221
224 237 255
224 237 255
224 237 255
224 237 255
224 237 255
224 237 255
224 237 255
224 237 255
224 237 255
224 237 255
224 237 255
224 237 255
224 237 255
224 237 255
224 237 255
224 237 255
224 237 255
224 237 255
224 237 255
224 237 255
224 237 255
224 237 255
224 237 255
224 237 255
224 237 255
224 237 255
224 237 255
224 237 255
224 237 255
224 237 255
224 237 255
224 237 255
224 237 255
224 237 255
224 237 255
224 237 255
224 237 255
224 237 255
224 237 255
224 237 255
224 237 255
224 237 255
224 237 255
224 237 255
224 237 255
224 237 255
224 237 255
224 237 255
224 237 255
224 237 255
224 237 255
224 237 255
224 237 255
224 237 255
224 237 255
224 237 255
224 237 255
224 237 255
224 237 255
224 237 255
224 237 255
224 237 255
224 237 255
224 237 255
224 237 255
224 237 255
224 237 255
224 237 255
224 237 255
224 237 255
224 237 255
224 237 255
224 237 255
224 237 255
224 237 255
224 237 255
224 237 255
224 237 255
224 237 255
224 237 255
224 237 255
224 237 255
224 237 255
224 237 255
224 237 255
224 237 255
224 237 255
224 237 255
224 237 255
224 237 255
224 237 255
224 237 255
224 237 255
224 237 255
224 237 255
224 237 255
224 237 255
224 237 255
224 237 255
224 237 255
224 237 255
224 237 255
224 237 255
224 237 255
224 237 255
224 237 255
224 237 255
224 237 255
224 237 255
224 237 255
224 237 255
224 237 255
224 237 255
224 237 255
224 237 255
224 237 255
224 237 255
224 237 255
224 237 255
224 237 255
224 237 255
224 237 255
224 237 255
224 237 255
224 237 255
224 237 255
224 237 255
224 237 255
224 237 255
224 237 255
224 237 255
224 237 255
224 237 255
224 237 255
224 237 255
224 237 255
224 237 255
224 237 255
224 237 255
224 237 255
224 237 255
224 237 255
224 237 255
224 237 255
224 237 255
224 237 255
224 237 255
224 237 255
224 237 255
224 237 255
224 237 255
224 237 255
224 237 255
224 237 255
224 237 255
224 237 255
224 237 255
224 237 255
224 237 255
224 237 255
224 237 255
224 237 255
224 237 255
224 237 255
224 237 255
224 237 255
224 237 255
224 237 255
224 237 255
224 237 255
224 237 255
224 237 255
224 237 255
224 237 255
224 237 255
224 237 255
224 237 255
224 237 255
224 237 255
224 237 255
224 237 255
224 237 255
224 237 255
224 237 255
224 237 255
224 237 255
224 237 255
224 237 255
224 237 255
224 237 255
224 237 255
224 237 255
224 237 255
224 237 255
224 237 255
224 237 255
224 237 255
224 237 255
224 237 255
224 237 255
224 237 255
224 237 255
224 237 255
224 237 255
224 237 255
224 237 255
224 237 255
224 237 255
224 237 255
224 237 255
224 237 255
224 237 255
224 237 255
224 237 255
224 237 255
224 237 255
224 237 255
224 237 255
224 237 255
224 237 255
224 237 255
224 237 255
224 237 255
224 237 255
224 237 255
224 237 255
224 237 255
224 237 255
224 237 255
224 237 255
224 237 255
224 237 255
224 237 255
224 237 255
224 237 255
224 237 255
224 237 255
219 233 250
78 93 77
37 62 3
38 60 0
37 58 1
40 63 8
22 39 32
2 7 42
0 0 42
0 0 41
0 0 42
0 0 42
0 0 42
0 0 42
0 0 42
0 0 43
0 0 45
0 0 44
0 0 45
0 0 45
0 0 45
0 0 47
0 0 48
0 0 49
0 0 50
0 0 50
0 0 52
0 0 51
0 0 47
0 0 47
0 0 47
0 0 47
0 0 47
0 0 48
0 0 47
0 0 47
0 0 45
0 0 45
0 0 44
0 0 42
0 0 42
0 0 42
0 0 42
0 0 42
0 0 42
0 0 42
0 0 42
0 0 42
0 0 42
0 0 42
0 0 42
0 0 42
0 0 42
0 0 42
0 0 42
0 0 42
0 0 42
0 0 42
0 0 41
0 0 42
0 0 42
0 0 41
0 0 43
0 0 42
0 0 42
0 0 43
0 0 42
0 0 42
0 0 42
0 0 42
0 0 42
0 0 42
0 0 42
0 0 42
0 0 42
0 0 42
0 0 42
0 0 42
0 0 42
0 0 42
0 0 42
0 0 42
0 0 42
0 0 42
0 0 43
0 0 42
0 0 42
0 0 46
0 0 45
0 0 47
0 0 42
7 10 52
60 69 57
58 70 34
44 45 56
23 23 57
21 24 58
31 30 60
16 14 49
0 0 43
0 0 42
21 16 45
65 60 63
90 85 65
91 87 57
92 89 60
111 109 69
119 116 75
114 109 67
129 122 86
146 134 99
122 117 73
126 123 76
128 125 85
142 125 86
144 133 97
126 115 92
13 13 42
0 0 42
0 0 40
0 0 42
0 0 44
0 0 43
0 0 41
0 0 41
0 0 42
0 0 42
0 0 42
0 0 42
0 0 42
0 0 42
0 0 42
0 0 43
13 14 44
24 28 43
24 26 45
5 5 44
0 0 42
0 0 41
0 0 36
0 0 42
0 0 42
0 0 42
69 64 61
50 48 53
14 15 41
96 89 65
187 163 126
199 195 160
198 186 149
197 181 143
202 195 158
196 181 138
178 160 121
133 122 89
132 123 88
150 136 104
171 156 129
178 159 134
178 164 148
173 155 134
169 156 131
151 143 119
222 235 253
224 237 255
224 237 255
224 237 255
224 237 255
224 237 255
224 237 255
224 237 255
224 237 255
224 237 255
224 237 255
224 237 255
224 237 255
224 237 255
224 237 255
224 237 255
224 237 255
224 237 255
224 237 255
224 237 255
224 237 255
224 237 255
224 237 255
224 237 255
224 237 255
224 237 255
224 237 255
224 237 255
224 237 255
224 237 255
224 237 255
224 237 255
224 237 255
224 237 255
224 237 255
224 237 255
224 237 255
224 237 255
224 237 255
224 237 255
224 237 255
224 237 255
224 237 255
224 237 255
224 237 255
224 237 255
224 237 255
224 237 255
224 237 255
224 237 255
224 237 255
224 237 255
224 237 255
224 237 255
224 237 255
224 237 255
224 237 255
224 237 255
224 237 255
224 237 255
224 237 255
224 237 255
224 237 255
224 237 255
224 237 255
224 237 255
224 237 255
224 237 255
224 237 255
224 237 255
224 237 255
224 237 255
224 237 255
224 237 255
224 237 255
224 237 255
224 237 255
224 237 255
224 237 255
224 237 255
224 237 255
224 237 255
224 237 255
224 237 255
224 237 255
224 237 255
224 237 255
224 237 255
224 237 255
224 237 255
224 237 255
224 237 255
224 237 255
224 237 255
224 237 255
224 237 255
224 237 255
224 237 255
224 237 255
224 237 255
224 237 255
224 237 255
224 237 255
224 237 255
224 237 255
224 237 255
224 237 255
224 237 255
224 237 255
224 237 255
224 237 255
224 237 255
224 237 255
224 237 255
224 237 255
224 237 255
224 237 255
224 237 255
224 237 255
224 237 255
224 237 255
224 237 255
224 237 255
224 237 255
224 237 255
224 237 255
224 237 255
224 237 255
224 237 255
224 237 255
224 237 255
224 237 255
224 237 255
224 237 255
224 237 255
224 237 255
224 237 255
224 237 255
224 237 255
224 237 255
224 237 255
224 237 255
224 237 255
224 237 255
224 237 255
224 237 255
224 237 255
224 237 255
224 237 255
224 237 255
224 237 255
224 237 255
224 237 255
224 237 255
224 237 255
224 237 255
224 237 255
224 237 255
224 237 255
224 237 255
224 237 255
224 237 255
224 237 255
224 237 255
224 237 255
224 237 255
224 237 255
224 237 255
224 237 255
224 237 255
224 237 255
224 237 255
224 237 255
224 237 255
224 237 255
224 237 255
224 237 255
224 237 255
224 237 255
224 237 255
224 237 255
224 237 255
224 237 255
224 237 255
224 237 255
224 237 255
224 237 255
224 237 255
224 237 255
224 237 255
224 237 255
224 237 255
224 237 255
224 237 255
224 237 255
224 237 255
224 237 255
224 237 255
224 237 255
224 237 255
224 237 255
224 237 255
224 237 255
224 237 255
224 237 255
224 237 255
224 237 255
224 237 255
224 237 255
224 237 255
224 237 255
224 237 255
224 237 255
224 237 255
224 237 255
224 237 255
224 237 255
224 237 255
224 237 255
224 237 255
224 237 255
224 237 255
224 237 255
224 237 255
224 237 255
224 237 255
224 237 255
224 237 255
224 237 255
224 237 255
224 237 255
224 237 255
224 237 255
224 237 255
224 237 255
224 237 255
224 237 255
151 163 168
36 60 5
36 58 0
38 58 5
38 59 13
20 35 42
0 3 42
0 0 41
0 0 43
0 0 42
0 0 42
0 0 42
0 0 42
0 0 42
0 0 42
0 0 43
0 0 44
0 0 44
0 0 45
0 0 45
0 0 45
0 0 45
0 0 47
0 0 50
0 0 49
0 0 49
0 0 51
0 0 48
0 0 45
0 0 45
0 0 45
0 0 45
0 0 45
0 0 45
0 0 45
0 0 44
0 0 44
0 0 43
0 0 42
0 0 42
0 0 42
0 0 42
0 0 42
0 0 42
0 0 42
0 0 42
0 0 42
0 0 42
0 0 42
0 0 42
0 0 42
0 0 42
0 0 42
0 0 42
0 0 42
0 0 42
0 0 42
0 0 42
0 0 42
0 0 42
0 0 42
0 0 42
0 0 42
0 0 42
0 0 42
0 0 42
0 0 42
0 0 42
0 0 42
0 0 42
0 0 42
0 0 42
0 0 42
0 0 42
0 0 42
0 0 42
0 0 42
0 0 42
0 0 42
0 0 42
0 0 42
0 0 42
0 0 42
0 0 42
0 0 42
0 0 42
0 0 42
0 0 42
0 0 42
0 0 41
0 0 38
0 0 47
22 22 44
47 49 52
1 1 53
0 0 42
3 4 55
8 8 44
0 0 48
17 15 49
64 58 65
98 85 73
138 120 93
130 118 81
127 116 80
165 147 110
187 161 124
190 172 136
192 175 138
174 161 123
169 147 114
157 139 105
176 155 120
181 164 127
179 162 118
182 165 123
200 182 138
136 127 114
10 11 45
0 0 44
0 0 40
0 0 41
0 0 40
0 0 39
0 0 42
0 0 42
0 0 42
0 0 42
0 0 42
0 0 42
0 0 42
0 0 42
0 0 38
16 21 42
28 32 44
43 48 50
19 21 47
0 0 38
0 0 44
0 0 44
0 0 41
0 0 42
0 0 43
50 51 51
44 43 49
0 0 40
51 48 51
170 159 128
206 214 174
205 198 161
202 186 150
201 181 148
171 173 140
170 159 120
163 148 111
134 122 88
134 126 92
150 136 105
150 135 114
169 153 135
178 163 144
174 156 133
159 146 123
193 199 200
224 237 255
224 237 255
224 237 255
224 237 255
224 237 255
224 237 255
224 237 255
224 237 255
224 237 255
224 237 255
224 237 255
224 237 255
224 237 255
224 237 255
224 237 255
224 237 255
224 237 255
224 237 255
224 237 255
224 237 255
224 237 255
224 237 255
224 237 255
224 237 255
224 237 255
224 237 255
224 237 255
224 237 255
224 237 255
224 237 255
224 237 255
224 237 255
224 237 255
224 237 255
224 237 255
224 237 255
224 237 255
224 237 255
224 237 255
224 237 255
224 237 255
224 237 255
224 237 255
224 237 255
224 237 255
224 237 255
224 237 255
224 237 255
224 237 255
224 237 255
224 237 255
224 237 255
224 237 255
224 237 255
224 237 255
224 237 255
224 237 255
224 237 255
224 237 255
224 237 255
224 237 255
224 237 255
224 237 255
224 237 255
224 237 255
224 237 255
224 237 255
224 237 255
224 237 255
224 237 255
224 237 255
224 237 255
224 237 255
224 237 255
224 237 255
224 237 255
224 237 255
224 237 255
224 237 255
224 237 255
224 237 255
224 237 255
224 237 255
224 237 255
224 237 255
224 237 255
224 237 255
224 237 255
224 237 255
224 237 255
224 237 255
224 237 255
224 237 255
224 237 255
224 237 255
224 237 255
224 237 255
224 237 255
224 237 255
224 237 255
224 237 255
224 237 255
224 237 255
224 237 255
224 237 255
224 237 255
224 237 255
224 237 255
224 237 255
224 237 255
224 237 255
224 237 255
224 237 255
224 237 255
224 237 255
224 237 255
224 237 255
224 237 255
224 237 255
224 237 255
224 237 255
224 237 255
224 237 255
224 237 255
224 237 255
224 237 255
224 237 255
224 237 255
224 237 255
224 237 255
224 237 255
224 237 255
224 237 255
224 237 255
224 237 255
224 237 255
224 237 255
224 237 255
224 237 255
224 237 255
224 237 255
224 237 255
224 237 255
224 237 255
224 237 255
224 237 255
224 237 255
224 237 255
224 237 255
224 237 255
224 237 255
224 237 255
224 237 255
224 237 255
224 237 255
224 237 255
224 237 255
224 237 255
224 237 255
224 237 255
224 237 255
224 237 255
224 237 255
224 237 255
224 237 255
224 237 255
224 237 255
224 237 255
224 237 255
224 237 255
224 237 255
224 237 255
224 237 255
224 237 255
224 237 255
224 237 255
224 237 255
224 237 255
224 237 255
224 237 255
224 237 255
224 237 255
224 237 255
224 237 255
224 237 255
224 237 255
224 237 255
224 237 255
224 237 255
224 237 255
224 237 255
224 237 255
224 237 255
224 237 255
224 237 255
224 237 255
224 237 255
224 237 255
224 237 255
224 237 255
224 237 255
224 237 255
224 237 255
224 237 255
224 237 255
224 237 255
224 237 255
224 237 255
224 237 255
224 237 255
224 237 255
224 237 255
224 237 255
224 237 255
224 237 255
224 237 255
224 237 255
224 237 255
224 237 255
224 237 255
224 237 255
224 237 255
224 237 255
224 237 255
224 237 255
224 237 255
224 237 255
224 237 255
224 237 255
224 237 255
224 237 255
224 237 255
224 237 255
224 237 255
224 237 255
201 214 229
46 63 37
35 59 0
41 60 8
39 58 16
17 31 44
0 0 43
0 0 42
0 0 42
0 0 42
0 0 42
0 0 42
0 0 42
0 0 42
0 0 42
0 0 42
0 0 42
0 0 42
0 0 44
0 0 44
0 0 44
0 0 42
0 0 42
0 0 45
0 0 46
0 0 47
0 0 48
0 0 49
0 0 46
0 0 43
0 0 42
0 0 42
0 0 42
0 0 42
0 0 43
0 0 42
0 0 42
0 0 42
0 0 42
0 0 42
0 0 42
0 0 42
0 0 42
0 0 42
0 0 42
0 0 42
0 0 42
0 0 42
0 0 42
0 0 42
0 0 42
0 0 42
0 0 42
0 0 42
0 0 42
0 0 42
0 0 42
0 0 42
0 0 42
0 0 42
0 0 42
0 0 42
0 0 42
0 0 42
0 0 42
0 0 42
0 0 42
0 0 42
0 0 42
0 0 42
0 0 42
0 0 42
0 0 42
0 0 42
0 0 42
0 0 42
0 0 42
0 0 42
0 0 42
0 0 42
0 0 42
0 0 42
0 0 42
0 0 42
0 0 42
0 0 42
0 0 42
0 0 42
0 0 42
0 0 42
0 0 44
0 0 45
0 0 41
38 41 50
78 85 46
61 65 55
69 65 70
93 84 79
109 92 81
72 61 61
86 77 62
125 116 83
135 121 94
133 117 97
138 120 94
166 139 116
202 169 139
191 160 129
188 158 127
191 166 131
205 190 150
195 180 141
155 149 117
191 178 144
200 185 148
187 177 135
201 183 145
202 184 149
159 148 119
15 27 71
0 0 42
0 0 42
0 0 38
0 0 40
0 0 42
0 0 42
0 0 40
0 0 42
0 0 42
0 0 42
0 0 42
0 0 42
0 0 42
0 0 41
0 0 43
0 0 43
0 0 40
0 0 40
0 0 44
0 0 41
0 0 39
0 0 43
0 0 44
0 0 42
0 0 43
0 0 46
0 0 39
26 25 44
162 146 108
204 204 170
205 189 155
204 187 153
198 169 138
201 186 151
182 183 147
172 163 125
182 169 131
145 132 98
129 120 90
155 143 116
151 141 125
167 158 145
169 157 143
170 159 141
185 178 151
216 227 241
224 237 255
224 237 255
224 237 255
224 237 255
224 237 255
224 237 255
224 237 255
224 237 255
224 237 255
224 237 255
224 237 255
224 237 255
224 237 255
224 237 255
224 237 255
224 237 255
224 237 255
224 237 255
224 237 255
224 237 255
224 237 255
224 237 255
224 237 255
224 237 255
224 237 255
224 237 255
224 237 255
224 237 255
224 237 255
224 237 255
224 237 255
224 237 255
224 237 255
224 237 255
224 237 255
224 237 255
224 237 255
224 237 255
224 237 255
224 237 255
224 237 255
224 237 255
224 237 255
224 237 255
224 237 255
224 237 255
224 237 255
224 237 255
224 237 255
224 237 255
224 237 255
224 237 255
224 237 255
224 237 255
224 237 255
224 237 255
224 237 255
224 237 255
224 237 255
224 237 255
224 237 255
224 237 255
224 237 255
224 237 255
224 237 255
224 237 255
224 237 255
224 237 255
224 237 255
224 237 255
224 237 255
224 237 255
224 237 255
224 237 255
224 237 255
224 237 255
224 237 255
224 237 255
224 237 255
224 237 255
224 237 255
224 237 255
224 237 255
224 237 255
224 237 255
224 237 255
224 237 255
224 237 255
224 237 255
224 237 255
224 237 255
224 237 255
224 237 255
224 237 255
224 237 255
224 237 255
224 237 255
224 237 255
224 237 255
224 237 255
224 237 255
224 237 255
224 237 255
224 237 255
224 237 255
224 237 255
224 237 255
224 237 255
224 237 255
224 237 255
224 237 255
224 237 255
224 237 255
224 237 255
224 237 255
224 237 255
224 237 255
224 237 255
224 237 255
224 237 255
224 237 255
224 237 255
224 237 255
224 237 255
224 237 255
224 237 255
224 237 255
224 237 255
224 237 255
224 237 255
224 237 255
224 237 255
224 237 255
224 237 255
224 237 255
224 237 255
224 237 255
224 237 255
224 237 255
224 237 255
224 237 255
224 237 255
224 237 255
224 237 255
224 237 255
224 237 255
224 237 255
224 237 255
224 237 255
224 237 255
224 237 255
224 237 255
224 237 255
224 237 255
224 237 255
224 237 255
224 237 255
224 237 255
224 237 255
224 237 255
224 237 255
224 237 255
224 237 255
224 237 255
224 237 255
224 237 255
224 237 255
224 237 255
224 237 255
224 237 255
224 237 255
224 237 255
224 237 255
224 237 255
224 237 255
224 237 255
224 237 255
224 237 255
224 237 255
224 237 255
224 237 255
224 237 255
224 237 255
224 237 255
224 237 255
224 237 255
224 237 255
224 237 255
224 237 255
224 237 255
224 237 255
224 237 255
224 237 255
224 237 255
224 237 255
224 237 255
224 237 255
224 237 255
224 237 255
224 237 255
224 237 255
224 237 255
224 237 255
224 237 255
224 237 255
224 237 255
224 237 255
224 237 255
224 237 255
224 237 255
224 237 255
224 237 255
224 237 255
224 237 255
224 237 255
224 237 255
224 237 255
224 237 255
224 237 255
224 237 255
224 237 255
224 237 255
224 237 255
224 237 255
224 237 255
224 237 255
224 237 255
224 237 255
224 237 255
224 237 255
224 237 255
224 237 255
224 237 255
224 237 255
111 123 122
31 54 0
42 62 10
41 61 17
18 31 47
0 0 41
0 0 42
0 0 42
0 0 42
0 0 42
0 0 42
0 0 42
0 0 42
0 0 42
0 0 42
0 0 42
0 0 42
0 0 42
0 0 42
0 0 42
0 0 42
0 0 42
0 0 42
0 0 42
0 0 42
0 0 43
0 0 44
0 0 44
0 0 42
0 0 42
0 0 42
0 0 42
0 0 42
0 0 42
0 0 42
0 0 42
0 0 42
0 0 42
0 0 42
0 0 42
0 0 42
0 0 42
0 0 42
0 0 42
0 0 42
0 0 42
0 0 42
0 0 42
0 0 42
0 0 42
0 0 42
0 0 42
0 0 42
0 0 42
0 0 42
0 0 42
0 0 42
0 0 42
0 0 42
0 0 42
0 0 42
0 0 42
0 0 42
0 0 42
0 0 42
0 0 42
0 0 42
0 0 42
0 0 42
0 0 42
0 0 42
0 0 42
0 0 42
0 0 42
0 0 42
0 0 42
0 0 42
0 0 42
0 0 42
0 0 42
0 0 42
0 0 42
0 0 42
0 0 42
0 0 42
0 0 42
0 0 42
0 0 42
0 0 42
0 0 42
0 0 43
0 0 40
15 13 47
84 81 64
108 107 59
102 101 66
108 104 63
160 146 106
183 162 125
164 139 107
152 127 107
154 127 99
171 132 111
178 143 113
195 160 128
203 165 130
194 159 128
180 151 123
192 164 136
196 172 140
205 189 149
206 201 161
200 202 165
203 213 177
206 211 172
203 205 173
204 199 161
192 193 162
90 89 86
5 11 50
0 0 42
0 0 41
0 0 40
0 0 41
0 0 41
0 0 40
0 0 41
0 0 41
0 0 42
0 0 42
0 0 42
0 0 41
0 0 43
0 0 43
0 0 41
0 0 40
0 0 40
0 0 46
0 0 40
0 0 41
0 0 42
0 0 44
0 0 41
0 0 44
0 0 43
0 0 42
0 0 42
11 11 42
113 99 74
178 167 141
199 180 153
204 181 149
207 178 145
207 179 145
197 190 160
151 154 123
179 168 129
182 171 132
156 142 108
143 131 101
170 158 131
160 148 132
176 161 145
160 151 140
194 185 162
195 191 181
224 237 255
224 237 255
224 237 255
224 237 255
224 237 255
224 237 255
224 237 255
224 237 255
224 237 255
224 237 255
224 237 255
224 237 255
224 237 255
224 237 255
224 237 255
224 237 255
224 237 255
224 237 255
224 237 255
224 237 255
224 237 255
224 237 255
224 237 255
224 237 255
224 237 255
224 237 255
224 237 255
224 237 255
224 237 255
224 237 255
224 237 255
224 237 255
224 237 255
224 237 255
224 237 255
224 237 255
224 237 255
224 237 255
224 237 255
224 237 255
224 237 255
224 237 255
224 237 255
224 237 255
224 237 255
224 237 255
224 237 255
224 237 255
224 237 255
224 237 255
224 237 255
224 237 255
224 237 255
224 237 255
224 237 255
224 237 255
224 237 255
224 237 255
224 237 255
224 237 255
224 237 255
224 237 255
224 237 255
224 237 255
224 237 255
224 237 255
224 237 255
224 237 255
224 237 255
224 237 255
224 237 255
224 237 255
224 237 255
224 237 255
224 237 255
224 237 255
224 237 255
224 237 255
224 237 255
224 237 255
224 237 255
224 237 255
224 237 255
224 237 255
224 237 255
224 237 255
224 237 255
224 237 255
224 237 255
224 237 255
224 237 255
224 237 255
224 237 255
224 237 255
224 237 255
224 237 255
224 237 255
224 237 255
224 237 255
224 237 255
224 237 255
224 237 255
224 237 255
224 237 255
224 237 255
224 237 255
224 237 255
224 237 255
224 237 255
224 237 255
224 237 255
224 237 255
224 237 255
224 237 255
224 237 255
224 237 255
224 237 255
224 237 255
224 237 255
224 237 255
224 237 255
224 237 255
224 237 255
224 237 255
224 237 255
224 237 255
224 237 255
224 237 255
224 237 255
224 237 255
224 237 255
224 237 255
224 237 255
224 237 255
224 237 255
224 237 255
224 237 255
224 237 255
224 237 255
224 237 255
224 237 255
224 237 255
224 237 255
224 237 255
224 237 255
224 237 255
224 237 255
224 237 255
224 237 255
224 237 255
224 237 255
224 237 255
224 237 255
224 237 255
224 237 255
224 237 255
224 237 255
224 237 255
224 237 255
224 237 255
224 237 255
224 237 255
224 237 255
224 237 255
224 237 255
224 237 255
224 237 255
224 237 255
224 237 255
224 237 255
224 237 255
224 237 255
224 237 255
224 237 255
224 237 255
224 237 255
224 237 255
224 237 255
224 237 255
224 237 255
224 237 255
224 237 255
224 237 255
224 237 255
224 237 255
224 237 255
224 237 255
224 237 255
224 237 255
224 237 255
224 237 255
224 237 255
224 237 255
224 237 255
224 237 255
224 237 255
224 237 255
224 237 255
224 237 255
224 237 255
224 237 255
224 237 255
224 237 255
224 237 255
224 237 255
224 237 255
224 237 255
224 237 255
224 237 255
224 237 255
224 237 255
224 237 255
224 237 255
224 237 255
224 237 255
224 237 255
224 237 255
224 237 255
224 237 255
224 237 255
224 237 255
224 237 255
224 237 255
224 237 255
224 237 255
224 237 255
224 237 255
224 237 255
224 237 255
224 237 255
224 237 255
224 237 255
224 237 255
176 188 198
36 59 13
41 63 10
44 66 10
20 37 52
0 0 42
0 0 42
0 0 42
0 0 42
0 0 42
0 0 42
0 0 42
0 0 42
0 0 42
0 0 42
0 0 42
0 0 42
0 0 42
0 0 42
0 0 42
0 0 42
0 0 42
0 0 42
0 0 42
0 0 42
0 0 42
0 0 42
0 0 42
0 0 42
0 0 42
0 0 42
0 0 42
0 0 42
0 0 42
0 0 42
0 0 42
0 0 42
0 0 42
0 0 42
0 0 42
0 0 42
0 0 42
0 0 42
0 0 42
0 0 42
0 0 42
0 0 42
0 0 42
0 0 42
0 0 42
0 0 42
0 0 42
0 0 42
0 0 42
0 0 42
0 0 42
0 0 42
0 0 42
0 0 42
0 0 42
0 0 42
0 0 42
0 0 42
0 0 42
0 0 42
0 0 42
0 0 42
0 0 42
0 0 42
0 0 42
0 0 42
0 0 42
0 0 42
0 0 42
0 0 42
0 0 42
0 0 42
0 0 42
0 0 42
0 0 42
0 0 42
0 0 42
0 0 42
0 0 42
0 0 42
0 0 42
0 0 42
0 0 42
0 0 42
0 0 42
0 0 41
3 2 40
23 20 49
58 53 58
121 110 84
135 114 80
126 110 78
119 106 72
151 140 105
175 150 122
180 153 123
200 158 129
201 155 127
199 156 122
206 164 130
204 166 131
194 158 125
181 147 118
200 171 137
205 175 142
204 177 147
207 189 153
205 202 166
200 207 184
210 229 204
208 225 204
192 190 173
200 203 167
199 212 170
145 140 129
81 94 101
16 19 49
0 0 43
0 0 38
0 0 45
0 0 42
0 0 41
0 0 37
0 0 41
0 0 43
0 0 42
0 0 38
0 0 40
0 0 41
1 0 43
19 14 42
3 0 43
0 0 43
0 0 41
0 0 40
0 0 42
0 0 40
0 0 39
0 0 42
0 0 40
0 0 39
0 0 40
0 0 41
0 0 42
92 81 62
145 130 98
162 140 116
197 171 141
204 173 142
207 183 146
206 187 155
193 197 168
168 158 123
183 172 135
174 162 122
174 157 117
148 132 101
171 156 131
177 161 142
167 153 141
169 164 152
189 173 147
203 212 219
224 237 255
224 237 255
224 237 255
224 237 255
224 237 255
224 237 255
224 237 255
224 237 255
224 237 255
224 237 255
224 237 255
224 237 255
224 237 255
224 237 255
224 237 255
224 237 255
224 237 255
224 237 255
224 237 255
224 237 255
224 237 255
224 237 255
224 237 255
224 237 255
224 237 255
224 237 255
224 237 255
224 237 255
224 237 255
224 237 255
224 237 255
224 237 255
224 237 255
224 237 255
224 237 255
224 237 255
224 237 255
224 237 255
224 237 255
224 237 255
224 237 255
224 237 255
224 237 255
224 237 255
224 237 255
224 237 255
224 237 255
224 237 255
224 237 255
224 237 255
224 237 255
224 237 255
224 237 255
224 237 255
224 237 255
224 237 255
224 237 255
224 237 255
224 237 255
224 237 255
224 237 255
224 237 255
224 237 255
224 237 255
224 237 255
224 237 255
224 237 255
224 237 255
224 237 255
224 237 255
224 237 255
224 237 255
224 237 255
224 237 255
224 237 255
224 237 255
224 237 255
224 237 255
224 237 255
224 237 255
224 237 255
224 237 255
224 237 255
224 237 255
224 237 255
224 237 255
224 237 255
224 237 255
224 237 255
224 237 255
224 237 255
224 237 255
224 237 255
224 237 255
224 237 255
224 237 255
224 237 255
224 237 255
224 237 255
224 237 255
224 237 255
224 237 255
224 237 255
224 237 255
224 237 255
224 237 255
224 237 255
224 237 255
224 237 255
224 237 255
224 237 255
224 237 255
224 237 255
224 237 255
224 237 255
224 237 255
224 237 255
224 237 255
224 237 255
224 237 255
224 237 255
224 237 255
224 237 255
224 237 255
224 237 255
224 237 255
224 237 255
224 237 255
224 237 255
224 237 255
224 237 255
224 237 255
224 237 255
224 237 255
224 237 255
224 237 255
224 237 255
224 237 255
224 237 255
224 237 255
224 237 255
224 237 255
224 237 255
224 237 255
224 237 255
224 237 255
224 237 255
224 237 255
224 237 255
224 237 255
224 237 255
224 237 255
224 237 255
224 237 255
224 237 255
224 237 255
224 237 255
224 237 255
224 237 255
224 237 255
224 237 255
224 237 255
224 237 255
224 237 255
224 237 255
224 237 255
224 237 255
224 237 255
224 237 255
224 237 255
224 237 255
224 237 255
224 237 255
224 237 255
224 237 255
224 237 255
224 237 255
224 237 255
224 237 255
224 237 255
224 237 255
224 237 255
224 237 255
224 237 255
224 237 255
224 237 255
224 237 255
224 237 255
224 237 255
224 237 255
224 237 255
224 237 255
224 237 255
224 237 255
224 237 255
224 237 255
224 237 255
224 237 255
224 237 255
224 237 255
224 237 255
224 237 255
224 237 255
224 237 255
224 237 255
224 237 255
224 237 255
224 237 255
224 237 255
224 237 255
224 237 255
224 237 255
224 237 255
224 237 255
224 237 255
224 237 255
224 237 255
224 237 255
224 237 255
224 237 255
224 237 255
224 237 255
224 237 255
224 237 255
224 237 255
224 237 255
224 237 255
224 237 255
224 237 255
224 237 255
224 237 255
219 232 249
90 109 100
22 74 76
37 60 12
31 51 30
1 7 48
0 0 41
0 0 41
0 0 42
0 0 42
0 0 42
0 0 42
0 0 42
0 0 42
0 0 42
0 0 42
0 0 42
0 0 42
0 0 42
0 0 42
0 0 42
0 0 42
0 0 42
0 0 42
0 0 42
0 0 42
0 0 42
0 0 42
0 0 42
0 0 42
0 0 42
0 0 42
0 0 42
0 0 42
0 0 42
0 0 42
0 0 42
0 0 42
0 0 42
0 0 42
0 0 42
0 0 42
0 0 42
0 0 42
0 0 42
0 0 42
0 0 42
0 0 42
0 0 42
0 0 42
0 0 42
0 0 42
0 0 42
0 0 42
0 0 42
0 0 42
0 0 42
0 0 42
0 0 42
0 0 42
0 0 42
0 0 42
0 0 42
0 0 42
0 0 42
0 0 42
0 0 42
0 0 42
0 0 42
0 0 42
0 0 42
0 0 42
0 0 42
0 0 42
0 0 41
0 0 41
0 0 43
0 0 40
0 0 38
0 0 42
0 0 40
0 0 39
0 0 41
0 0 42
0 0 42
0 0 42
0 0 42
0 0 43
0 0 42
0 0 39
0 0 43
15 11 43
68 61 62
103 92 83
123 106 80
126 108 78
114 101 71
120 103 76
153 132 106
179 163 132
200 168 136
206 170 137
202 158 127
207 163 129
202 160 129
206 159 126
201 157 125
202 166 131
200 173 138
208 178 140
205 176 143
203 176 148
201 180 143
205 205 166
206 225 198
205 226 196
206 226 199
207 225 194
206 224 198
205 213 166
204 197 145
189 190 149
156 160 139
102 103 100
52 44 60
51 46 62
38 35 53
11 9 41
0 0 46
0 0 38
0 0 42
0 0 39
0 0 40
0 0 42
32 30 48
102 83 71
138 128 111
127 132 110
46 49 57
6 5 39
0 0 47
0 0 44
0 0 43
0 0 41
0 0 42
0 0 39
0 0 44
0 0 45
0 0 42
0 0 40
74 65 62
174 163 119
198 184 157
197 173 146
205 170 142
206 182 148
208 198 163
207 195 163
200 201 166
191 188 155
165 155 120
181 170 132
175 164 123
152 136 107
167 153 129
154 143 121
166 149 135
177 170 151
184 176 155
222 236 253
224 237 255
224 237 255
224 237 255
224 237 255
224 237 255
224 237 255
224 237 255
224 237 255
224 237 255
224 237 255
224 237 255
224 237 255
224 237 255
224 237 255
224 237 255
224 237 255
224 237 255
224 237 255
224 237 255
224 237 255
224 237 255
224 237 255
224 237 255
224 237 255
224 237 255
224 237 255
224 237 255
224 237 255
224 237 255
224 237 255
224 237 255
224 237 255
224 237 255
224 237 255
224 237 255
224 237 255
224 237 255
224 237 255
224 237 255
224 237 255
224 237 255
224 237 255
224 237 255
224 237 255
224 237 255
224 237 255
224 237 255
224 237 255
224 237 255
224 237 255
224 237 255
224 237 255
224 237 255
224 237 255
224 237 255
224 237 255
224 237 255
224 237 255
224 237 255
224 237 255
224 237 255
224 237 255
224 237 255
224 237 255
224 237 255
224 237 255
224 237 255
224 237 255
224 237 255
224 237 255
224 237 255
224 237 255
224 237 255
224 237 255
224 237 255
224 237 255
224 237 255
224 237 255
224 237 255
224 237 255
224 237 255
224 237 255
224 237 255
224 237 255
224 237 255
224 237 255
224 237 255
224 237 255
224 237 255
224 237 255
224 237 255
224 237 255
224 237 255
224 237 255
224 237 255
224 237 255
224 237 255
224 237 255
224 237 255
224 237 255
224 237 255
224 237 255
224 237 255
224 237 255
224 237 255
224 237 255
224 237 255
224 237 255
224 237 255
224 237 255
224 237 255
224 237 255
224 237 255
224 237 255
224 237 255
224 237 255
224 237 255
224 237 255
224 237 255
224 237 255
224 237 255
224 237 255
224 237 255
224 237 255
224 237 255
224 237 255
224 237 255
224 237 255
224 237 255
224 237 255
224 237 255
224 237 255
224 237 255
224 237 255
224 237 255
224 237 255
224 237 255
224 237 255
224 237 255
224 237 255
224 237 255
224 237 255
224 237 255
224 237 255
224 237 255
224 237 255
224 237 255
224 237 255
224 237 255
224 237 255
224 237 255
224 237 255
224 237 255
224 237 255
224 237 255
224 237 255
224 237 255
224 237 255
224 237 255
224 237 255
224 237 255
224 237 255
224 237 255
224 237 255
224 237 255
224 237 255
224 237 255
224 237 255
224 237 255
224 237 255
224 237 255
224 237 255
224 237 255
224 237 255
224 237 255
224 237 255
224 237 255
224 237 255
224 237 255
224 237 255
224 237 255
224 237 255
224 237 255
224 237 255
224 237 255
224 237 255
224 237 255
224 237 255
224 237 255
224 237 255
224 237 255
224 237 255
224 237 255
224 237 255
224 237 255
224 237 255
224 237 255
224 237 255
224 237 255
224 237 255
224 237 255
224 237 255
224 237 255
224 237 255
224 237 255
224 237 255
224 237 255
224 237 255
224 237 255
224 237 255
224 237 255
224 237 255
224 237 255
224 237 255
224 237 255
224 237 255
224 237 255
224 237 255
224 237 255
224 237 255
224 237 255
224 237 255
224 237 255
224 237 255
224 237 255
224 237 255
224 237 255
224 237 255
224 237 255
224 237 255
167 180 198
19 80 93
9 21 54
36 60 38
22 34 40
0 0 42
0 0 42
0 0 42
0 0 42
0 0 42
0 0 42
0 0 42
0 0 42
0 0 42
0 0 42
0 0 42
0 0 42
0 0 42
0 0 42
0 0 42
0 0 42
0 0 42
0 0 42
0 0 42
0 0 42
0 0 42
0 0 42
0 0 42
0 0 42
0 0 42
0 0 42
0 0 42
0 0 42
0 0 42
0 0 42
0 0 42
0 0 42
0 0 42
0 0 42
0 0 42
0 0 42
0 0 42
0 0 42
0 0 42
0 0 42
0 0 42
0 0 42
0 0 42
0 0 42
0 0 42
0 0 42
0 0 42
0 0 42
0 0 42
0 0 42
0 0 42
0 0 42
0 0 42
0 0 42
0 0 42
0 0 42
0 0 42
0 0 42
0 0 42
0 0 42
0 0 42
0 0 42
0 0 42
0 0 42
0 0 42
0 0 42
0 0 42
0 0 42
0 0 42
0 0 41
0 0 42
0 0 42
0 0 39
0 0 44
0 0 42
0 0 42
0 0 41
0 0 42
0 0 42
0 0 42
0 0 42
0 0 42
0 0 42
0 0 39
0 0 47
6 11 47
75 68 71
131 113 88
139 114 90
151 127 96
152 132 99
128 113 85
139 124 94
181 153 123
184 159 124
182 156 127
203 166 137
201 159 134
193 152 128
193 152 122
195 159 124
205 175 137
209 178 141
207 179 138
209 177 137
205 174 140
207 176 145
207 184 145
209 197 154
208 219 178
205 225 180
209 228 179
206 227 176
205 214 157
208 211 157
205 197 152
208 196 156
206 197 151
204 200 160
206 184 142
200 169 129
184 170 130
145 137 116
35 33 49
0 0 40
0 0 42
0 0 40
0 0 44
0 0 44
126 106 92
200 177 144
202 219 178
208 215 176
174 180 157
151 160 134
129 136 125
49 54 57
43 45 53
10 9 42
0 0 40
0 0 42
10 15 50
30 45 62
16 41 71
31 50 73
100 101 94
161 157 128
191 191 159
198 189 164
195 172 145
204 174 145
207 196 162
204 196 166
207 204 170
204 214 181
199 205 177
185 183 157
179 179 146
158 146 112
150 134 106
160 149 125
151 136 116
160 153 141
175 166 147
211 218 222
224 237 255
224 237 255
224 237 255
224 237 255
224 237 255
224 237 255
224 237 255
224 237 255
224 237 255
224 237 255
224 237 255
224 237 255
224 237 255
224 237 255
224 237 255
224 237 255
224 237 255
224 237 255
224 237 255
224 237 255
224 237 255
224 237 255
224 237 255
224 237 255
224 237 255
224 237 255
224 237 255
224 237 255
224 237 255
224 237 255
224 237 255
224 237 255
224 237 255
224 237 255
224 237 255
224 237 255
224 237 255
224 237 255
224 237 255
224 237 255
224 237 255
224 237 255
224 237 255
224 237 255
224 237 255
224 237 255
224 237 255
224 237 255
224 237 255
224 237 255
224 237 255
224 237 255
224 237 255
224 237 255
224 237 255
224 237 255
224 237 255
224 237 255
224 237 255
224 237 255
224 237 255
224 237 255
224 237 255
224 237 255
224 237 255
224 237 255
224 237 255
224 237 255
224 237 255
224 237 255
224 237 255
224 237 255
224 237 255
224 237 255
224 237 255
224 237 255
224 237 255
224 237 255
224 237 255
224 237 255
224 237 255
224 237 255
224 237 255
224 237 255
224 237 255
224 237 255
224 237 255
224 237 255
224 237 255
224 237 255
224 237 255
224 237 255
224 237 255
224 237 255
224 237 255
224 237 255
224 237 255
224 237 255
224 237 255
224 237 255
224 237 255
224 237 255
224 237 255
224 237 255
224 237 255
224 237 255
224 237 255
224 237 255
224 237 255
224 237 255
224 237 255
224 237 255
224 237 255
224 237 255
224 237 255
224 237 255
224 237 255
224 237 255
224 237 255
224 237 255
224 237 255
224 237 255
224 237 255
224 237 255
224 237 255
224 237 255
224 237 255
224 237 255
224 237 255
224 237 255
224 237 255
224 237 255
224 237 255
224 237 255
224 237 255
224 237 255
224 237 255
224 237 255
224 237 255
224 237 255
224 237 255
224 237 255
224 237 255
224 237 255
224 237 255
224 237 255
224 237 255
224 237 255
224 237 255
224 237 255
224 237 255
224 237 255
224 237 255
224 237 255
224 237 255
224 237 255
224 237 255
224 237 255
224 237 255
224 237 255
224 237 255
224 237 255
224 237 255
224 237 255
224 237 255
224 237 255
224 237 255
224 237 255
224 237 255
224 237 255
224 237 255
224 237 255
224 237 255
224 237 255
224 237 255
224 237 255
224 237 255
224 237 255
224 237 255
224 237 255
224 237 255
224 237 255
224 237 255
224 237 255
224 237 255
224 237 255
224 237 255
224 237 255
224 237 255
224 237 255
224 237 255
224 237 255
224 237 255
224 237 255
224 237 255
224 237 255
224 237 255
224 237 255
224 237 255
224 237 255
224 237 255
224 237 255
224 237 255
224 237 255
224 237 255
224 237 255
224 237 255
224 237 255
224 237 255
224 237 255
224 237 255
224 237 255
224 237 255
224 237 255
224 237 255
224 237 255
224 237 255
224 237 255
224 237 255
224 237 255
224 237 255
224 237 255
224 237 255
224 237 255
224 237 255
224 237 255
224 237 255
224 237 255
224 237 255
221 234 252
78 86 107
3 40 67
4 24 57
36 55 27
0 0 41
0 0 42
0 0 42
0 0 42
0 0 42
0 0 42
0 0 42
0 0 42
0 0 42
0 0 42
0 0 42
0 0 42
0 0 42
0 0 42
0 0 42
0 0 42
0 0 42
0 0 42
0 0 42
0 0 42
0 0 42
0 0 42
0 0 42
0 0 42
0 0 42
0 0 42
0 0 42
0 0 42
0 0 42
0 0 42
0 0 42
0 0 42
0 0 42
0 0 42
0 0 42
0 0 42
0 0 42
0 0 42
0 0 42
0 0 42
0 0 42
0 0 42
0 0 42
0 0 42
0 0 42
0 0 42
0 0 42
0 0 42
0 0 42
0 0 42
0 0 42
0 0 42
0 0 42
0 0 42
0 0 42
0 0 42
0 0 42
0 0 42
0 0 42
0 0 42
0 0 42
0 0 42
0 0 42
0 0 42
0 0 42
0 0 42
0 0 42
0 0 42
0 0 42
0 0 42
0 0 41
0 0 40
0 0 41
0 0 39
0 0 41
0 0 42
0 0 42
0 0 42
0 0 42
0 0 42
0 0 42
0 0 42
0 0 42
0 0 42
0 0 40
0 0 41
33 36 74
131 108 94
155 135 110
170 144 118
154 126 102
125 105 82
122 110 83
143 125 98
170 145 114
186 157 126
185 155 129
192 158 130
193 161 134
192 158 130
196 164 135
205 174 140
209 171 133
205 172 135
205 183 140
207 188 141
204 180 140
204 178 143
208 186 146
203 192 147
210 209 159
208 216 158
204 220 161
207 220 164
206 204 147
209 206 147
207 204 155
209 189 146
205 183 142
206 186 145
202 180 135
205 179 142
204 187 155
205 187 152
153 146 118
29 28 44
0 0 37
0 0 42
0 0 42
0 0 37
89 90 84
201 203 165
205 211 173
206 212 179
203 192 158
206 201 165
201 206 174
179 194 161
179 190 158
158 170 149
100 110 105
86 91 88
96 106 84
60 76 37
66 84 54
150 168 142
179 199 170
204 211 173
199 189 156
194 172 147
201 185 157
200 183 150
207 196 162
207 208 169
208 209 171
206 209 175
206 212 180
207 209 180
133 139 140
94 94 102
163 149 113
160 148 117
148 136 111
147 137 124
158 153 142
179 179 164
222 235 252
224 237 255
224 237 255
224 237 255
224 237 255
224 237 255
224 237 255
224 237 255
224 237 255
224 237 255
224 237 255
224 237 255
224 237 255
224 237 255
224 237 255
224 237 255
224 237 255
224 237 255
224 237 255
224 237 255
224 237 255
224 237 255
224 237 255
224 237 255
224 237 255
224 237 255
224 237 255
224 237 255
224 237 255
224 237 255
224 237 255
224 237 255
224 237 255
224 237 255
224 237 255
224 237 255
224 237 255
224 237 255
224 237 255
224 237 255
224 237 255
224 237 255
224 237 255
224 237 255
224 237 255
224 237 255
224 237 255
224 237 255
224 237 255
224 237 255
224 237 255
224 237 255
224 237 255
224 237 255
224 237 255
224 237 255
224 237 255
224 237 255
224 237 255
224 237 255
224 237 255
224 237 255
224 237 255
224 237 255
224 237 255
224 237 255
224 237 255
224 237 255
224 237 255
224 237 255
224 237 255
224 237 255
224 237 255
224 237 255
224 237 255
224 237 255
224 237 255
224 237 255
224 237 255
224 237 255
224 237 255
224 237 255
224 237 255
224 237 255
224 237 255
224 237 255
224 237 255
224 237 255
224 237 255
224 237 255
224 237 255
224 237 255
224 237 255
224 237 255
224 237 255
224 237 255
224 237 255
224 237 255
224 237 255
224 237 255
224 237 255
224 237 255
224 237 255
224 237 255
224 237 255
224 237 255
224 237 255
224 237 255
224 237 255
224 237 255
224 237 255
224 237 255
224 237 255
224 237 255
224 237 255
224 237 255
224 237 255
224 237 255
224 237 255
224 237 255
224 237 255
224 237 255
224 237 255
224 237 255
224 237 255
224 237 255
224 237 255
224 237 255
224 237 255
224 237 255
224 237 255
224 237 255
224 237 255
224 237 255
224 237 255
224 237 255
224 237 255
224 237 255
224 237 255
224 237 255
224 237 255
224 237 255
224 237 255
224 237 255
224 237 255
224 237 255
224 237 255
224 237 255
224 237 255
224 237 255
224 237 255
224 237 255
224 237 255
224 237 255
224 237 255
224 237 255
224 237 255
224 237 255
224 237 255
224 237 255
224 237 255
224 237 255
224 237 255
224 237 255
224 237 255
224 237 255
224 237 255
224 237 255
224 237 255
224 237 255
224 237 255
224 237 255
224 237 255
224 237 255
224 237 255
224 237 255
224 237 255
224 237 255
224 237 255
224 237 255
224 237 255
224 237 255
224 237 255
224 237 255
224 237 255
224 237 255
224 237 255
224 237 255
224 237 255
224 237 255
224 237 255
224 237 255
224 237 255
224 237 255
224 237 255
224 237 255
224 237 255
224 237 255
224 237 255
224 237 255
224 237 255
224 237 255
224 237 255
224 237 255
224 237 255
224 237 255
224 237 255
224 237 255
224 237 255
224 237 255
224 237 255
224 237 255
224 237 255
224 237 255
224 237 255
224 237 255
224 237 255
224 237 255
224 237 255
224 237 255
224 237 255
224 237 255
224 237 255
224 237 255
224 237 255
224 237 255
224 237 255
224 237 255
224 237 255
163 173 188
0 4 42
0 0 41
32 48 56
27 38 37
0 0 41
0 0 42
0 0 42
0 0 42
0 0 42
0 0 42
0 0 42
0 0 42
0 0 42
0 0 42
0 0 42
0 0 42
0 0 42
0 0 42
0 0 42
0 0 42
0 0 42
0 0 42
0 0 42
0 0 42
0 0 42
0 0 42
0 0 42
0 0 42
0 0 42
0 0 42
0 0 42
0 0 42
0 0 42
0 0 42
0 0 42
0 0 42
0 0 42
0 0 42
0 0 42
0 0 42
0 0 42
0 0 42
0 0 42
0 0 42
0 0 42
0 0 42
0 0 42
0 0 42
0 0 42
0 0 42
0 0 42
0 0 42
0 0 42
0 0 42
0 0 42
0 0 42
0 0 42
0 0 42
0 0 42
0 0 42
0 0 42
0 0 42
0 0 42
0 0 42
0 0 42
0 0 42
0 0 42
0 0 42
0 0 42
0 0 42
0 0 42
0 0 42
0 0 42
0 0 42
0 0 42
0 0 41
0 0 42
0 0 40
0 0 40
0 0 41
0 0 42
0 0 42
0 0 42
0 0 42
0 0 42
0 0 42
0 0 42
0 0 43
0 0 44
0 0 44
107 101 96
181 158 126
173 153 122
139 119 91
121 102 83
122 104 88
156 136 108
167 147 118
190 158 130
202 163 135
204 167 135
195 161 133
185 154 125
201 170 135
206 170 133
206 174 138
210 175 135
206 177 136
206 195 149
210 197 143
207 190 140
206 186 146
205 183 144
208 199 153
210 215 166
208 212 157
207 210 154
207 205 150
208 203 142
208 200 141
208 201 146
205 200 149
209 189 144
205 186 141
205 189 145
207 190 149
205 193 144
208 189 143
203 191 157
179 177 137
151 150 131
141 136 113
74 72 68
8 0 45
21 20 41
177 189 159
206 210 172
205 212 175
207 198 174
206 204 173
211 210 180
205 199 166
207 220 188
208 227 211
203 215 201
198 206 172
201 211 166
177 185 144
110 116 84
183 195 156
206 215 180
204 213 179
203 190 155
202 181 150
201 168 137
199 181 141
206 189 148
210 201 154
209 198 160
205 199 164
208 203 166
207 208 173
170 178 158
24 28 72
123 118 105
161 147 109
166 152 118
135 126 100
156 149 138
179 171 147
197 205 206
224 237 255
224 237 255
224 237 255
224 237 255
224 237 255
224 237 255
224 237 255
224 237 255
224 237 255
224 237 255
224 237 255
224 237 255
224 237 255
224 237 255
224 237 255
224 237 255
224 237 255
224 237 255
224 237 255
224 237 255
224 237 255
224 237 255
224 237 255
224 237 255
224 237 255
224 237 255
224 237 255
224 237 255
224 237 255
224 237 255
224 237 255
224 237 255
224 237 255
224 237 255
224 237 255
224 237 255
224 237 255
224 237 255
224 237 255
224 237 255
224 237 255
224 237 255
224 237 255
224 237 255
224 237 255
224 237 255
224 237 255
224 237 255
224 237 255
224 237 255
224 237 255
224 237 255
224 237 255
224 237 255
224 237 255
224 237 255
224 237 255
224 237 255
224 237 255
224 237 255
224 237 255
224 237 255
224 237 255
224 237 255
224 237 255
224 237 255
224 237 255
224 237 255
224 237 255
224 237 255
224 237 255
224 237 255
224 237 255
224 237 255
224 237 255
224 237 255
224 237 255
224 237 255
224 237 255
224 237 255
224 237 255
224 237 255
224 237 255
224 237 255
224 237 255
224 237 255
224 237 255
224 237 255
224 237 255
224 237 255
224 237 255
224 237 255
224 237 255
224 237 255
224 237 255
224 237 255
224 237 255
224 237 255
224 237 255
224 237 255
224 237 255
224 237 255
224 237 255
224 237 255
224 237 255
224 237 255
224 237 255
224 237 255
224 237 255
224 237 255
224 237 255
224 237 255
224 237 255
224 237 255
224 237 255
224 237 255
224 237 255
224 237 255
224 237 255
224 237 255
224 237 255
224 237 255
224 237 255
224 237 255
224 237 255
224 237 255
224 237 255
224 237 255
224 237 255
224 237 255
224 237 255
224 237 255
224 237 255
224 237 255
224 237 255
224 237 255
224 237 255
224 237 255
224 237 255
224 237 255
224 237 255
224 237 255
224 237 255
224 237 255
224 237 255
224 237 255
224 237 255
224 237 255
224 237 255
224 237 255
224 237 255
224 237 255
224 237 255
224 237 255
224 237 255
224 237 255
224 237 255
224 237 255
224 237 255
224 237 255
224 237 255
224 237 255
224 237 255
224 237 255
224 237 255
224 237 255
224 237 255
224 237 255
224 237 255
224 237 255
224 237 255
224 237 255
224 237 255
224 237 255
224 237 255
224 237 255
224 237 255
224 237 255
224 237 255
224 237 255
224 237 255
224 237 255
224 237 255
224 237 255
224 237 255
224 237 255
224 237 255
224 237 255
224 237 255
224 237 255
224 237 255
224 237 255
224 237 255
224 237 255
224 237 255
224 237 255
224 237 255
224 237 255
224 237 255
224 237 255
224 237 255
224 237 255
224 237 255
224 237 255
224 237 255
224 237 255
224 237 255
224 237 255
224 237 255
224 237 255
224 237 255
224 237 255
224 237 255
224 237 255
224 237 255
224 237 255
224 237 255
224 237 255
224 237 255
224 237 255
224 237 255
224 237 255
224 237 255
224 237 255
224 237 255
224 237 255
224 237 255
222 235 253
74 78 94
0 0 42
5 9 43
47 67 37
10 17 45
0 0 42
0 0 42
0 0 42
0 0 42
0 0 42
0 0 42
0 0 42
0 0 42
0 0 42
0 0 42
0 0 42
0 0 42
0 0 42
0 0 42
0 0 42
0 0 42
0 0 42
0 0 42
0 0 42
0 0 42
0 0 42
0 0 42
0 0 42
0 0 42
0 0 42
0 0 42
0 0 42
0 0 42
0 0 42
0 0 42
0 0 42
0 0 42
0 0 42
0 0 42
0 0 42
0 0 42
0 0 42
0 0 42
0 0 42
0 0 42
0 0 42
0 0 42
0 0 42
0 0 42
0 0 42
0 0 42
0 0 42
0 0 42
0 0 42
0 0 42
0 0 42
0 0 42
0 0 42
0 0 42
0 0 42
0 0 42
0 0 42
0 0 42
0 0 42
0 0 42
0 0 42
0 0 42
0 0 42
0 0 42
0 0 42
0 0 42
0 0 42
0 0 42
0 0 42
0 0 42
0 0 42
0 0 41
0 0 42
0 0 43
0 0 44
0 0 44
0 0 41
0 0 41
0 0 42
0 0 42
0 0 42
0 0 43
0 0 43
0 0 43
0 0 43
0 10 55
119 101 93
142 123 97
130 116 88
130 109 85
155 130 110
154 128 103
155 130 108
157 133 111
177 149 126
188 156 133
198 164 139
200 164 136
199 173 139
207 188 141
210 192 141
207 189 145
209 196 149
209 192 146
205 195 143
204 197 140
207 194 143
206 193 150
209 193 149
208 203 158
208 219 171
206 217 163
205 206 151
209 205 147
207 197 140
205 192 132
204 199 143
206 208 161
205 191 149
206 186 150
205 184 145
205 183 143
208 191 150
209 192 150
203 192 151
206 196 153
206 199 154
205 202 162
193 206 165
140 151 136
120 129 121
197 216 183
208 226 196
211 227 208
209 221 198
210 221 188
209 224 196
206 214 187
205 214 180
206 222 190
202 198 160
207 208 158
204 217 166
208 213 155
184 183 144
197 188 150
169 181 153
205 208 178
178 162 137
200 175 139
201 157 122
200 149 117
210 173 130
212 180 126
204 175 129
206 181 142
207 195 160
208 206 169
208 204 168
142 145 137
22 22 55
158 149 119
179 166 130
160 150 121
152 146 125
160 154 146
164 164 147
223 235 252
224 237 255
224 237 255
224 237 255
224 237 255
224 237 255
224 237 255
224 237 255
224 237 255
224 237 255
224 237 255
224 237 255
224 237 255
224 237 255
224 237 255
224 237 255
224 237 255
224 237 255
224 237 255
224 237 255
224 237 255
224 237 255
224 237 255
224 237 255
224 237 255
224 237 255
224 237 255
224 237 255
224 237 255
224 237 255
224 237 255
224 237 255
224 237 255
224 237 255
224 237 255
224 237 255
224 237 255
224 237 255
224 237 255
224 237 255
224 237 255
224 237 255
224 237 255
224 237 255
224 237 255
224 237 255
224 237 255
224 237 255
224 237 255
224 237 255
224 237 255
224 237 255
224 237 255
224 237 255
224 237 255
224 237 255
224 237 255
224 237 255
224 237 255
224 237 255
224 237 255
224 237 255
224 237 255
224 237 255
224 237 255
224 237 255
224 237 255
224 237 255
224 237 255
224 237 255
224 237 255
224 237 255
224 237 255
224 237 255
224 237 255
224 237 255
224 237 255
224 237 255
224 237 255
224 237 255
224 237 255
224 237 255
224 237 255
224 237 255
224 237 255
224 237 255
224 237 255
224 237 255
224 237 255
224 237 255
224 237 255
224 237 255
224 237 255
224 237 255
224 237 255
224 237 255
224 237 255
224 237 255
224 237 255
224 237 255
224 237 255
224 237 255
224 237 255
224 237 255
224 237 255
224 237 255
224 237 255
224 237 255
224 237 255
224 237 255
224 237 255
224 237 255
224 237 255
224 237 255
224 237 255
224 237 255
224 237 255
224 237 255
224 237 255
224 237 255
224 237 255
224 237 255
224 237 255
224 237 255
224 237 255
224 237 255
224 237 255
224 237 255
224 237 255
224 237 255
224 237 255
224 237 255
224 237 255
224 237 255
224 237 255
224 237 255
224 237 255
224 237 255
224 237 255
224 237 255
224 237 255
224 237 255
224 237 255
224 237 255
224 237 255
224 237 255
224 237 255
224 237 255
224 237 255
224 237 255
224 237 255
224 237 255
224 237 255
224 237 255
224 237 255
224 237 255
224 237 255
224 237 255
224 237 255
224 237 255
224 237 255
224 237 255
224 237 255
224 237 255
224 237 255
224 237 255
224 237 255
224 237 255
224 237 255
224 237 255
224 237 255
224 237 255
224 237 255
224 237 255
224 237 255
224 237 255
224 237 255
224 237 255
224 237 255
224 237 255
224 237 255
224 237 255
224 237 255
224 237 255
224 237 255
224 237 255
224 237 255
224 237 255
224 237 255
224 237 255
224 237 255
224 237 255
224 237 255
224 237 255
224 237 255
224 237 255
224 237 255
224 237 255
224 237 255
224 237 255
224 237 255
224 237 255
224 237 255
224 237 255
224 237 255
224 237 255
224 237 255
224 237 255
224 237 255
224 237 255
224 237 255
224 237 255
224 237 255
224 237 255
224 237 255
224 237 255
224 237 255
224 237 255
224 237 255
224 237 255
224 237 255
224 237 255
224 237 255
224 237 255
224 237 255
224 237 255
224 237 255
179 190 206
0 0 42
0 0 42
32 44 42
45 63 27
0 0 43
0 0 42
0 0 42
0 0 42
0 0 42
0 0 42
0 0 42
0 0 42
0 0 42
0 0 42
0 0 42
0 0 42
0 0 42
0 0 42
0 0 42
0 0 42
0 0 42
0 0 42
0 0 42
0 0 42
0 0 42
0 0 42
0 0 42
0 0 42
0 0 42
0 0 42
0 0 42
0 0 42
0 0 42
0 0 42
0 0 42
0 0 42
0 0 42
0 0 42
0 0 42
0 0 42
0 0 42
0 0 42
0 0 42
0 0 42
0 0 42
0 0 42
0 0 42
0 0 42
0 0 42
0 0 42
0 0 42
0 0 42
0 0 42
0 0 42
0 0 42
0 0 42
0 0 42
0 0 42
0 0 42
0 0 42
0 0 42
0 0 42
0 0 42
0 0 42
0 0 42
0 0 42
0 0 42
0 0 42
0 0 42
0 0 42
0 0 42
0 0 42
0 0 42
0 0 42
0 0 42
0 0 41
0 0 42
0 0 41
0 0 39
0 0 40
0 0 43
0 0 42
0 0 41
0 0 39
0 0 46
0 0 45
0 0 41
0 0 46
0 0 48
0 0 52
0 7 59
91 88 93
140 119 92
146 127 96
148 124 100
155 130 112
149 124 106
156 135 114
166 142 118
192 157 131
197 157 129
205 170 141
203 168 135
205 182 143
206 192 143
209 199 143
208 197 146
210 199 148
206 202 150
206 206 153
208 202 150
210 199 151
206 196 152
205 197 154
209 204 157
207 216 162
209 210 161
208 204 151
205 202 146
209 188 128
210 180 126
206 199 149
208 213 166
205 200 159
205 187 151
204 168 133
209 172 138
206 180 149
207 192 154
209 198 155
205 192 153
210 194 153
208 205 165
209 222 186
205 227 193
205 225 203
206 222 196
203 223 187
209 228 205
208 226 204
205 221 190
205 227 197
206 227 204
207 223 200
206 220 196
200 207 177
206 216 172
204 209 163
209 203 159
152 171 147
187 184 151
160 162 146
172 166 141
155 140 115
167 144 122
195 170 136
199 162 130
198 167 131
208 195 142
211 192 139
205 177 130
210 181 139
205 192 156
203 191 155
205 202 168
80 90 103
56 55 71
171 161 130
183 172 135
157 152 130
170 166 152
153 151 135
205 214 218
224 237 255
224 237 255
224 237 255
224 237 255
224 237 255
224 237 255
224 237 255
224 237 255
224 237 255
224 237 255
224 237 255
224 237 255
224 237 255
224 237 255
224 237 255
224 237 255
224 237 255
224 237 255
224 237 255
224 237 255
224 237 255
224 237 255
224 237 255
224 237 255
224 237 255
224 237 255
224 237 255
224 237 255
224 237 255
224 237 255
224 237 255
224 237 255
224 237 255
224 237 255
224 237 255
224 237 255
224 237 255
224 237 255
224 237 255
224 237 255
224 237 255
224 237 255
224 237 255
224 237 255
224 237 255
224 237 255
224 237 255
224 237 255
224 237 255
224 237 255
224 237 255
224 237 255
224 237 255
224 237 255
224 237 255
224 237 255
224 237 255
224 237 255
224 237 255
224 237 255
224 237 255
224 237 255
224 237 255
224 237 255
224 237 255
224 237 255
224 237 255
224 237 255
224 237 255
224 237 255
224 237 255
224 237 255
224 237 255
224 237 255
224 237 255
224 237 255
224 237 255
224 237 255
224 237 255
224 237 255
224 237 255
224 237 255
224 237 255
224 237 255
224 237 255
224 237 255
224 237 255
224 237 255
224 237 255
224 237 255
224 237 255
224 237 255
224 237 255
224 237 255
224 237 255
224 237 255
224 237 255
224 237 255
224 237 255
224 237 255
224 237 255
224 237 255
224 237 255
224 237 255
224 237 255
224 237 255
224 237 255
224 237 255
224 237 255
224 237 255
224 237 255
224 237 255
224 237 255
224 237 255
224 237 255
224 237 255
224 237 255
224 237 255
224 237 255
224 237 255
224 237 255
224 237 255
224 237 255
224 237 255
224 237 255
224 237 255
224 237 255
224 237 255
224 237 255
224 237 255
224 237 255
224 237 255
224 237 255
224 237 255
224 237 255
224 237 255
224 237 255
224 237 255
224 237 255
224 237 255
224 237 255
224 237 255
224 237 255
224 237 255
224 237 255
224 237 255
224 237 255
224 237 255
224 237 255
224 237 255
224 237 255
224 237 255
224 237 255
224 237 255
224 237 255
224 237 255
224 237 255
224 237 255
224 237 255
224 237 255
224 237 255
224 237 255
224 237 255
224 237 255
224 237 255
224 237 255
224 237 255
224 237 255
224 237 255
224 237 255
224 237 255
224 237 255
224 237 255
224 237 255
224 237 255
224 237 255
224 237 255
224 237 255
224 237 255
224 237 255
224 237 255
224 237 255
224 237 255
224 237 255
224 237 255
224 237 255
224 237 255
224 237 255
224 237 255
224 237 255
224 237 255
224 237 255
224 237 255
224 237 255
224 237 255
224 237 255
224 237 255
224 237 255
224 237 255
224 237 255
224 237 255
224 237 255
224 237 255
224 237 255
224 237 255
224 237 255
224 237 255
224 237 255
224 237 255
224 237 255
224 237 255
224 237 255
224 237 255
224 237 255
224 237 255
224 237 255
224 237 255
224 237 255
224 237 255
224 237 255
224 237 255
224 237 255
224 237 255
224 237 255
224 237 255
224 237 255
67 71 86
0 0 42
0 0 42
36 51 41
27 36 40
0 4 49
0 0 41
0 0 42
0 0 42
0 0 42
0 0 42
0 0 42
0 0 42
0 0 42
0 0 42
0 0 42
0 0 42
0 0 42
0 0 42
0 0 42
0 0 42
0 0 42
0 0 42
0 0 42
0 0 42
0 0 42
0 0 42
0 0 42
0 0 42
0 0 42
0 0 42
0 0 42
0 0 42
0 0 42
0 0 42
0 0 42
0 0 42
0 0 42
0 0 42
0 0 42
0 0 42
0 0 42
0 0 42
0 0 42
0 0 42
0 0 42
0 0 42
0 0 42
0 0 42
0 0 42
0 0 42
0 0 42
0 0 42
0 0 42
0 0 42
0 0 42
0 0 42
0 0 42
0 0 42
0 0 42
0 0 42
0 0 42
0 0 42
0 0 42
0 0 42
0 0 42
0 0 42
0 0 42
0 0 42
0 0 42
0 0 42
0 0 42
0 0 42
0 0 42
0 0 42
0 0 42
0 0 42
0 0 42
0 0 42
0 0 42
0 0 38
0 0 41
0 0 42
0 0 45
0 0 39
0 0 39
0 0 45
0 0 46
0 0 48
0 0 46
0 0 48
13 28 72
130 116 110
161 126 102
170 140 112
168 138 116
168 144 122
171 145 122
178 149 123
192 154 127
197 163 133
203 168 134
204 172 138
197 161 124
195 161 127
201 178 133
208 198 143
204 202 146
209 209 153
208 212 156
209 204 155
205 180 143
203 174 141
204 181 144
206 193 150
203 188 141
208 193 141
205 198 148
206 194 144
207 192 140
202 190 139
208 203 155
209 211 167
204 198 162
208 193 160
205 184 153
208 171 141
207 172 143
208 179 148
205 187 153
204 188 152
208 189 154
204 189 155
206 197 160
209 218 178
206 222 195
211 227 198
209 224 199
207 221 183
205 218 184
204 219 197
206 227 199
208 228 194
209 229 199
205 227 194
206 225 184
204 224 196
210 227 202
207 224 191
210 208 166
203 207 173
178 189 158
207 203 163
137 126 118
142 124 101
138 127 110
183 154 129
182 158 134
197 169 141
209 213 159
211 200 152
197 170 134
204 180 142
212 181 140
209 189 150
209 208 173
192 211 183
54 61 76
40 38 61
162 155 134
116 120 117
131 132 122
146 143 133
168 169 154
223 236 254
224 237 255
224 237 255
224 237 255
224 237 255
224 237 255
224 237 255
224 237 255
224 237 255
224 237 255
224 237 255
224 237 255
224 237 255
224 237 255
224 237 255
224 237 255
224 237 255
224 237 255
224 237 255
224 237 255
224 237 255
224 237 255
224 237 255
224 237 255
224 237 255
224 237 255
224 237 255
224 237 255
224 237 255
224 237 255
224 237 255
224 237 255
224 237 255
224 237 255
224 237 255
224 237 255
224 237 255
224 237 255
224 237 255
224 237 255
224 237 255
224 237 255
224 237 255
224 237 255
224 237 255
224 237 255
224 237 255
224 237 255
224 237 255
224 237 255
224 237 255
224 237 255
224 237 255
224 237 255
224 237 255
224 237 255
224 237 255
224 237 255
224 237 255
224 237 255
224 237 255
224 237 255
224 237 255
224 237 255
224 237 255
224 237 255
224 237 255
224 237 255
224 237 255
224 237 255
224 237 255
224 237 255
224 237 255
224 237 255
224 237 255
224 237 255
224 237 255
224 237 255
224 237 255
224 237 255
224 237 255
224 237 255
224 237 255
224 237 255
224 237 255
224 237 255
224 237 255
224 237 255
224 237 255
224 237 255
224 237 255
224 237 255
224 237 255
224 237 255
224 237 255
224 237 255
224 237 255
224 237 255
224 237 255
224 237 255
224 237 255
224 237 255
224 237 255
224 237 255
224 237 255
224 237 255
224 237 255
224 237 255
224 237 255
224 237 255
224 237 255
224 237 255
224 237 255
224 237 255
224 237 255
224 237 255
224 237 255
224 237 255
224 237 255
224 237 255
224 237 255
224 237 255
224 237 255
224 237 255
224 237 255
224 237 255
224 237 255
224 237 255
224 237 255
224 237 255
224 237 255
224 237 255
224 237 255
224 237 255
224 237 255
224 237 255
224 237 255
224 237 255
224 237 255
224 237 255
224 237 255
224 237 255
224 237 255
224 237 255
224 237 255
224 237 255
224 237 255
224 237 255
224 237 255
224 237 255
224 237 255
224 237 255
224 237 255
224 237 255
224 237 255
224 237 255
224 237 255
224 237 255
224 237 255
224 237 255
224 237 255
224 237 255
224 237 255
224 237 255
224 237 255
224 237 255
224 237 255
224 237 255
224 237 255
224 237 255
224 237 255
224 237 255
224 237 255
224 237 255
224 237 255
224 237 255
224 237 255
224 237 255
224 237 255
224 237 255
224 237 255
224 237 255
224 237 255
224 237 255
224 237 255
224 237 255
224 237 255
224 237 255
224 237 255
224 237 255
224 237 255
224 237 255
224 237 255
224 237 255
224 237 255
224 237 255
224 237 255
224 237 255
224 237 255
224 237 255
224 237 255
224 237 255
224 237 255
224 237 255
224 237 255
224 237 255
224 237 255
224 237 255
224 237 255
224 237 255
224 237 255
224 237 255
224 237 255
224 237 255
224 237 255
224 237 255
224 237 255
224 237 255
224 237 255
224 237 255
224 237 255
224 237 255
224 237 255
224 237 255
224 237 255
185 196 212
0 0 42
0 0 42
0 6 49
46 59 32
10 10 46
6 7 49
0 0 42
0 0 42
0 0 42
0 0 42
0 0 42
0 0 42
0 0 42
0 0 42
0 0 42
0 0 42
0 0 42
0 0 42
0 0 42
0 0 42
0 0 42
0 0 42
0 0 42
0 0 42
0 0 42
0 0 42
0 0 42
0 0 42
0 0 42
0 0 42
0 0 42
0 0 42
0 0 42
0 0 42
0 0 42
0 0 42
0 0 42
0 0 42
0 0 42
0 0 42
0 0 42
0 0 42
0 0 42
0 0 42
0 0 42
0 0 42
0 0 42
0 0 42
0 0 42
0 0 42
0 0 42
0 0 42
0 0 42
0 0 42
0 0 42
0 0 42
0 0 42
0 0 42
0 0 42
0 0 42
0 0 42
0 0 42
0 0 42
0 0 42
0 0 42
0 0 42
0 0 42
0 0 42
0 0 42
0 0 42
0 0 42
0 0 42
0 0 42
0 0 42
0 0 42
0 0 42
0 0 41
0 0 40
0 0 41
0 0 42
0 0 45
0 0 44
0 0 43
0 0 39
0 0 41
7 6 45
8 7 44
0 0 45
0 0 45
0 2 52
11 27 78
117 102 111
171 136 108
172 146 124
175 147 124
178 150 127
165 142 118
174 148 122
198 161 135
205 170 145
206 175 143
205 173 138
200 166 133
204 169 131
198 163 130
203 173 130
203 188 139
210 205 153
209 204 154
211 198 153
204 177 147
207 171 147
194 167 140
205 171 142
207 176 144
205 174 137
208 182 135
207 193 143
205 194 143
207 198 148
208 204 158
207 194 155
206 189 153
212 176 146
211 172 140
208 188 149
204 187 147
208 183 148
207 175 142
203 172 141
202 178 144
182 159 126
180 159 128
205 192 157
205 208 169
203 215 182
209 226 199
209 224 188
211 226 189
208 216 177
206 211 177
206 226 199
206 227 196
206 227 190
207 227 187
206 227 189
208 227 185
211 228 183
205 222 175
205 210 169
205 209 164
178 187 160
210 218 187
185 170 140
108 100 97
53 49 60
126 107 90
150 129 110
169 151 124
205 215 179
205 207 160
191 174 144
192 167 139
206 186 147
206 177 135
207 194 160
208 218 186
188 205 172
36 43 69
5 3 48
30 34 68
116 122 120
168 173 159
165 175 167
195 206 206
224 237 255
224 237 255
224 237 255
224 237 255
224 237 255
224 237 255
224 237 255
224 237 255
224 237 255
224 237 255
224 237 255
224 237 255
224 237 255
224 237 255
224 237 255
224 237 255
224 237 255
224 237 255
224 237 255
224 237 255
224 237 255
224 237 255
224 237 255
224 237 255
224 237 255
224 237 255
224 237 255
224 237 255
224 237 255
224 237 255
224 237 255
224 237 255
224 237 255
224 237 255
224 237 255
224 237 255
224 237 255
224 237 255
224 237 255
224 237 255
224 237 255
224 237 255
224 237 255
224 237 255
224 237 255
224 237 255
224 237 255
224 237 255
224 237 255
224 237 255
224 237 255
224 237 255
224 237 255
224 237 255
224 237 255
224 237 255
224 237 255
224 237 255
224 237 255
224 237 255
224 237 255
224 237 255
224 237 255
224 237 255
224 237 255
224 237 255
224 237 255
224 237 255
224 237 255
224 237 255
224 237 255
224 237 255
224 237 255
224 237 255
224 237 255
224 237 255
224 237 255
224 237 255
224 237 255
224 237 255
224 237 255
224 237 255
224 237 255
224 237 255
224 237 255
224 237 255
224 237 255
224 237 255
224 237 255
224 237 255
224 237 255
224 237 255
224 237 255
224 237 255
224 237 255
224 237 255
224 237 255
224 237 255
224 237 255
224 237 255
224 237 255
224 237 255
224 237 255
224 237 255
224 237 255
224 237 255
224 237 255
224 237 255
224 237 255
224 237 255
224 237 255
224 237 255
224 237 255
224 237 255
224 237 255
224 237 255
224 237 255
224 237 255
224 237 255
224 237 255
224 237 255
224 237 255
224 237 255
224 237 255
224 237 255
224 237 255
224 237 255
224 237 255
224 237 255
224 237 255
224 237 255
224 237 255
224 237 255
224 237 255
224 237 255
224 237 255
224 237 255
224 237 255
224 237 255
224 237 255
224 237 255
224 237 255
224 237 255
224 237 255
224 237 255
224 237 255
224 237 255
224 237 255
224 237 255
224 237 255
224 237 255
224 237 255
224 237 255
224 237 255
224 237 255
224 237 255
224 237 255
224 237 255
224 237 255
224 237 255
224 237 255
224 237 255
224 237 255
224 237 255
224 237 255
224 237 255
224 237 255
224 237 255
224 237 255
224 237 255
224 237 255
224 237 255
224 237 255
224 237 255
224 237 255
224 237 255
224 237 255
224 237 255
224 237 255
224 237 255
224 237 255
224 237 255
224 237 255
224 237 255
224 237 255
224 237 255
224 237 255
224 237 255
224 237 255
224 237 255
224 237 255
224 237 255
224 237 255
224 237 255
224 237 255
224 237 255
224 237 255
224 237 255
224 237 255
224 237 255
224 237 255
224 237 255
224 237 255
224 237 255
224 237 255
224 237 255
224 237 255
224 237 255
224 237 255
224 237 255
224 237 255
224 237 255
224 237 255
224 237 255
224 237 255
224 237 255
224 237 255
224 237 255
224 237 255
224 237 255
224 237 255
224 237 255
224 237 255
224 237 255
114 121 135
0 0 42
0 0 42
15 24 54
32 41 46
0 0 46
2 4 42
0 0 42
0 0 42
0 0 42
0 0 42
0 0 42
0 0 42
0 0 42
0 0 42
0 0 42
0 0 42
0 0 42
0 0 42
0 0 42
0 0 42
0 0 42
0 0 42
0 0 42
0 0 42
0 0 42
0 0 42
0 0 42
0 0 42
0 0 42
0 0 42
0 0 42
0 0 42
0 0 42
0 0 42
0 0 42
0 0 42
0 0 42
0 0 42
0 0 42
0 0 42
0 0 42
0 0 42
0 0 42
0 0 42
0 0 42
0 0 42
0 0 42
0 0 42
0 0 42
0 0 42
0 0 42
0 0 42
0 0 42
0 0 42
0 0 42
0 0 42
0 0 42
0 0 42
0 0 42
0 0 42
0 0 42
0 0 42
0 0 42
0 0 42
0 0 42
0 0 42
0 0 42
0 0 42
0 0 42
0 0 42
0 0 42
0 0 42
0 0 42
0 0 42
0 0 42
0 0 42
0 0 40
0 0 40
0 0 46
0 0 43
4 4 31
0 0 37
0 0 40
0 0 40
0 0 39
34 29 50
12 10 39
0 0 42
0 8 67
27 37 78
116 119 120
178 150 121
181 151 123
173 146 123
182 150 124
187 161 134
196 175 147
194 170 138
202 173 140
210 179 145
206 182 145
206 180 141
207 170 131
203 172 126
202 180 137
205 190 143
209 200 152
205 195 151
207 198 161
197 177 147
199 166 144
189 155 133
188 152 130
196 159 138
197 168 141
205 178 146
210 192 153
207 202 159
206 203 161
211 204 158
206 193 151
204 186 148
207 187 142
210 177 135
204 174 134
208 188 141
211 184 133
208 181 135
203 177 142
206 193 159
193 182 145
205 197 162
205 197 166
204 198 167
192 172 147
181 174 148
204 208 176
204 226 193
209 227 198
207 217 183
210 198 165
207 216 182
212 230 198
207 221 177
207 210 167
213 226 187
210 229 183
207 227 178
209 225 179
206 225 182
205 221 177
188 206 164
183 194 159
205 193 161
170 148 120
49 47 62
19 19 44
149 133 114
150 132 117
197 188 155
207 189 154
178 152 134
193 166 149
203 186 155
209 186 144
210 180 136
210 188 150
209 222 191
122 141 151
82 90 95
0 0 47
77 72 75
79 83 97
67 78 102
141 150 150
224 237 255
224 237 255
224 237 255
224 237 255
224 237 255
224 237 255
224 237 255
224 237 255
224 237 255
224 237 255
224 237 255
224 237 255
224 237 255
224 237 255
224 237 255
224 237 255
224 237 255
224 237 255
224 237 255
224 237 255
224 237 255
224 237 255
224 237 255
224 237 255
224 237 255
224 237 255
224 237 255
224 237 255
224 237 255
224 237 255
224 237 255
224 237 255
224 237 255
224 237 255
224 237 255
224 237 255
224 237 255
224 237 255
224 237 255
224 237 255
224 237 255
224 237 255
224 237 255
224 237 255
224 237 255
224 237 255
224 237 255
224 237 255
224 237 255
224 237 255
224 237 255
224 237 255
224 237 255
224 237 255
224 237 255
224 237 255
224 237 255
224 237 255
224 237 255
224 237 255
224 237 255
224 237 255
224 237 255
224 237 255
224 237 255
224 237 255
224 237 255
224 237 255
224 237 255
224 237 255
224 237 255
224 237 255
224 237 255
224 237 255
224 237 255
224 237 255
224 237 255
224 237 255
224 237 255
224 237 255
224 237 255
224 237 255
224 237 255
224 237 255
224 237 255
224 237 255
224 237 255
224 237 255
224 237 255
224 237 255
224 237 255
224 237 255
224 237 255
224 237 255
224 237 255
224 237 255
224 237 255
224 237 255
224 237 255
224 237 255
224 237 255
224 237 255
224 237 255
224 237 255
224 237 255
224 237 255
224 237 255
224 237 255
224 237 255
224 237 255
224 237 255
224 237 255
224 237 255
224 237 255
224 237 255
224 237 255
224 237 255
224 237 255
224 237 255
224 237 255
224 237 255
224 237 255
224 237 255
224 237 255
224 237 255
224 237 255
224 237 255
224 237 255
224 237 255
224 237 255
224 237 255
224 237 255
224 237 255
224 237 255
224 237 255
224 237 255
224 237 255
224 237 255
224 237 255
224 237 255
224 237 255
224 237 255
224 237 255
224 237 255
224 237 255
224 237 255
224 237 255
224 237 255
224 237 255
224 237 255
224 237 255
224 237 255
224 237 255
224 237 255
224 237 255
224 237 255
224 237 255
224 237 255
224 237 255
224 237 255
224 237 255
224 237 255
224 237 255
224 237 255
224 237 255
224 237 255
224 237 255
224 237 255
224 237 255
224 237 255
224 237 255
224 237 255
224 237 255
224 237 255
224 237 255
224 237 255
224 237 255
224 237 255
224 237 255
224 237 255
224 237 255
224 237 255
224 237 255
224 237 255
224 237 255
224 237 255
224 237 255
224 237 255
224 237 255
224 237 255
224 237 255
224 237 255
224 237 255
224 237 255
224 237 255
224 237 255
224 237 255
224 237 255
224 237 255
224 237 255
224 237 255
224 237 255
224 237 255
224 237 255
224 237 255
224 237 255
224 237 255
224 237 255
224 237 255
224 237 255
224 237 255
224 237 255
224 237 255
224 237 255
224 237 255
224 237 255
224 237 255
224 237 255
224 237 255
224 237 255
224 237 255
224 237 255
224 237 255
193 204 221
0 0 42
0 0 42
0 0 42
10 24 60
5 8 51
0 0 48
0 0 41
0 0 42
0 0 42
0 0 42
0 0 42
0 0 42
0 0 42
0 0 42
0 0 42
0 0 42
0 0 42
0 0 42
0 0 42
0 0 42
0 0 42
0 0 42
0 0 42
0 0 42
0 0 42
0 0 42
0 0 42
0 0 42
0 0 42
0 0 42
0 0 42
0 0 42
0 0 42
0 0 42
0 0 42
0 0 42
0 0 42
0 0 42
0 0 42
0 0 42
0 0 42
0 0 42
0 0 42
0 0 42
0 0 42
0 0 42
0 0 42
0 0 42
0 0 42
0 0 42
0 0 42
0 0 42
0 0 42
0 0 42
0 0 42
0 0 42
0 0 42
0 0 42
0 0 42
0 0 42
0 0 42
0 0 42
0 0 42
0 0 42
0 0 42
0 0 42
0 0 42
0 0 42
0 0 42
0 0 42
0 0 42
0 0 42
0 0 42
0 0 42
0 0 42
0 0 42
0 0 41
0 0 40
0 0 40
0 0 40
0 0 40
29 28 47
21 21 48
26 30 47
9 8 44
26 22 55
38 29 51
10 15 69
63 69 89
102 105 113
158 157 148
191 160 131
182 153 130
192 158 137
187 156 132
203 176 147
212 187 156
207 190 157
208 199 160
208 198 153
206 196 150
209 189 142
206 181 136
208 180 137
209 180 129
211 184 136
209 196 145
211 212 161
208 213 167
207 202 169
202 175 151
191 159 141
168 137 117
187 156 129
192 161 130
191 161 133
205 189 160
209 209 173
205 205 169
205 191 155
209 197 149
207 188 128
207 187 130
209 174 128
207 159 120
207 157 119
206 162 117
211 174 124
210 176 120
210 178 129
206 191 151
199 187 143
211 199 155
204 209 169
206 202 171
150 130 109
128 115 100
172 154 132
204 219 183
207 228 200
211 226 194
211 207 174
210 210 174
208 226 193
210 227 187
208 211 168
207 217 181
209 229 194
210 228 177
207 222 176
207 225 179
209 225 197
207 225 183
187 201 170
190 187 156
193 176 145
128 111 91
13 11 44
53 48 59
144 136 117
142 128 108
160 140 119
148 130 116
184 165 146
195 177 154
206 189 155
210 180 142
210 181 142
208 197 159
196 214 187
120 136 147
0 0 57
129 130 116
39 34 52
0 0 45
32 34 58
207 219 232
224 237 255
224 237 255
224 237 255
224 237 255
224 237 255
224 237 255
224 237 255
224 237 255
224 237 255
224 237 255
224 237 255
224 237 255
224 237 255
224 237 255
224 237 255
224 237 255
224 237 255
224 237 255
224 237 255
224 237 255
224 237 255
224 237 255
224 237 255
224 237 255
224 237 255
224 237 255
224 237 255
224 237 255
224 237 255
224 237 255
224 237 255
224 237 255
224 237 255
224 237 255
224 237 255
224 237 255
224 237 255
224 237 255
224 237 255
224 237 255
224 237 255
224 237 255
224 237 255
224 237 255
224 237 255
224 237 255
224 237 255
224 237 255
224 237 255
224 237 255
224 237 255
224 237 255
224 237 255
224 237 255
224 237 255
224 237 255
224 237 255
224 237 255
224 237 255
224 237 255
224 237 255
224 237 255
224 237 255
224 237 255
224 237 255
224 237 255
224 237 255
224 237 255
224 237 255
224 237 255
224 237 255
224 237 255
224 237 255
224 237 255
224 237 255
224 237 255
224 237 255
224 237 255
224 237 255
224 237 255
224 237 255
224 237 255
224 237 255
224 237 255
224 237 255
224 237 255
224 237 255
224 237 255
224 237 255
224 237 255
224 237 255
224 237 255
224 237 255
224 237 255
224 237 255
224 237 255
224 237 255
224 237 255
224 237 255
224 237 255
224 237 255
224 237 255
224 237 255
224 237 255
224 237 255
224 237 255
224 237 255
224 237 255
224 237 255
224 237 255
224 237 255
224 237 255
224 237 255
224 237 255
224 237 255
224 237 255
224 237 255
224 237 255
224 237 255
224 237 255
224 237 255
224 237 255
224 237 255
224 237 255
224 237 255
224 237 255
224 237 255
224 237 255
224 237 255
224 237 255
224 237 255
224 237 255
224 237 255
224 237 255
224 237 255
224 237 255
224 237 255
224 237 255
224 237 255
224 237 255
224 237 255
224 237 255
224 237 255
224 237 255
224 237 255
224 237 255
224 237 255
224 237 255
224 237 255
224 237 255
224 237 255
224 237 255
224 237 255
224 237 255
224 237 255
224 237 255
224 237 255
224 237 255
224 237 255
224 237 255
224 237 255
224 237 255
225 237 255
225 237 255
225 237 255
225 237 255
225 237 255
225 237 255
225 237 255
225 237 255
225 237 255
225 237 255
225 237 255
225 237 255
225 237 255
225 237 255
225 237 255
225 237 255
225 237 255
225 237 255
225 237 255
225 237 255
225 237 255
225 237 255
225 237 255
225 237 255
225 237 255
225 237 255
225 237 255
225 237 255
225 237 255
225 237 255
225 237 255
225 237 255
225 237 255
225 237 255
225 237 255
225 237 255
225 237 255
225 237 255
225 237 255
225 237 255
225 237 255
225 237 255
225 237 255
225 237 255
225 237 255
225 237 255
225 237 255
225 237 255
225 237 255
225 237 255
225 237 255
225 237 255
225 237 255
225 237 255
225 237 255
225 237 255
225 237 255
225 237 255
225 237 255
225 237 255
149 157 172
0 0 42
0 0 43
0 0 44
0 0 45
26 39 50
0 0 47
0 0 41
0 0 41
0 0 42
0 0 42
0 0 42
0 0 42
0 0 42
0 0 42
0 0 42
0 0 42
0 0 42
0 0 42
0 0 42
0 0 42
0 0 42
0 0 42
0 0 42
0 0 42
0 0 42
0 0 42
0 0 42
0 0 42
0 0 42
0 0 42
0 0 42
0 0 42
0 0 42
0 0 42
0 0 42
0 0 42
0 0 42
0 0 42
0 0 42
0 0 42
0 0 42
0 0 42
0 0 42
0 0 42
0 0 42
0 0 42
0 0 42
0 0 42
0 0 42
0 0 42
0 0 42
0 0 42
0 0 42
0 0 42
0 0 42
0 0 42
0 0 42
0 0 42
0 0 42
0 0 42
0 0 42
0 0 42
0 0 42
0 0 42
0 0 42
0 0 42
0 0 42
0 0 42
0 0 42
0 0 42
0 0 42
0 0 42
0 0 42
0 0 42
0 0 42
0 0 42
0 0 42
0 0 41
0 0 42
0 0 42
0 0 42
6 5 42
0 0 41
24 27 49
8 7 46
0 0 44
0 2 49
76 83 97
188 190 153
202 199 161
195 181 151
160 136 114
195 167 137
202 164 131
208 174 144
204 184 155
208 196 162
210 220 178
203 208 169
211 207 162
210 194 147
205 183 141
205 179 140
204 173 132
206 176 135
210 188 138
207 198 144
212 216 165
211 221 175
207 191 154
204 173 140
202 174 144
194 170 139
206 187 153
207 194 155
202 188 152
209 203 168
207 203 164
210 196 159
210 189 149
207 192 143
203 183 130
206 189 138
208 179 134
208 170 131
201 162 124
210 179 137
208 172 129
209 167 117
202 175 115
207 189 133
211 205 146
204 201 153
211 216 169
209 209 176
186 167 142
141 127 111
158 143 123
199 199 166
206 224 190
208 227 194
210 221 180
209 218 180
210 227 183
214 230 189
206 207 165
203 209 168
212 229 192
210 229 181
207 222 166
211 221 174
210 229 183
209 227 192
205 225 202
187 199 174
175 170 138
156 137 114
87 76 68
0 0 43
83 78 85
155 145 131
138 129 118
117 106 98
153 133 120
186 166 148
202 186 161
211 187 151
211 192 156
209 196 159
209 217 186
190 210 189
54 61 83
133 147 136
130 124 106
12 11 44
0 0 45
148 156 166
225 237 255
225 237 255
225 237 255
225 237 255
225 237 255
225 237 255
225 237 255
225 237 255
225 237 255
225 237 255
225 237 255
225 237 255
225 237 255
225 237 255
225 237 255
225 237 255
225 237 255
225 237 255
225 237 255
225 237 255
225 237 255
225 237 255
225 237 255
225 237 255
225 237 255
225 237 255
225 237 255
225 237 255
225 237 255
225 237 255
225 237 255
225 237 255
225 237 255
225 237 255
225 237 255
225 237 255
225 237 255
225 237 255
225 237 255
225 237 255
225 237 255
225 237 255
225 237 255
225 237 255
225 237 255
225 237 255
225 237 255
225 237 255
225 237 255
225 237 255
225 237 255
225 237 255
225 237 255
225 237 255
225 237 255
225 237 255
225 237 255
225 237 255
225 237 255
224 237 255
224 237 255
224 237 255
224 237 255
224 237 255
224 237 255
224 237 255
224 237 255
224 237 255
224 237 255
224 237 255
224 237 255
224 237 255
224 237 255
224 237 255
224 237 255
224 237 255
224 237 255
224 237 255
224 237 255
224 237 255
224 237 255
224 237 255
224 237 255
224 237 255
224 237 255
224 237 255
224 237 255
224 237 255
224 237 255
224 237 255
224 237 255
224 237 255
224 237 255
224 237 255
224 237 255
224 237 255
224 237 255
224 237 255
224 237 255
224 237 255
224 237 255
224 237 255
224 237 255
224 237 255
224 237 255
224 237 255
224 237 255
224 237 255
224 237 255
224 237 255
224 237 255
224 237 255
224 237 255
224 237 255
224 237 255
224 237 255
224 237 255
224 237 255
224 237 255
225 237 255
225 237 255
225 237 255
225 237 255
225 237 255
225 237 255
225 237 255
225 237 255
225 237 255
225 237 255
225 237 255
225 237 255
225 237 255
225 237 255
225 237 255
225 237 255
225 237 255
225 237 255
225 237 255
225 237 255
225 237 255
225 237 255
225 237 255
225 237 255
225 237 255
225 237 255
225 237 255
225 237 255
225 237 255
225 237 255
225 237 255
225 237 255
225 237 255
225 237 255
225 237 255
225 237 255
225 237 255
225 237 255
225 237 255
225 237 255
225 237 255
225 237 255
225 237 255
225 237 255
225 237 255
225 237 255
225 237 255
225 237 255
225 237 255
225 237 255
225 237 255
225 237 255
225 237 255
225 237 255
225 237 255
225 237 255
225 237 255
225 237 255
225 237 255
225 237 255
225 237 255
225 237 255
225 237 255
225 237 255
225 237 255
225 237 255
225 237 255
225 237 255
225 237 255
225 237 255
225 237 255
225 237 255
225 237 255
225 237 255
225 237 255
225 237 255
225 237 255
225 237 255
225 237 255
225 237 255
225 237 255
225 237 255
225 237 255
225 237 255
225 237 255
225 237 255
225 237 255
225 237 255
225 237 255
225 237 255
225 237 255
225 237 255
225 237 255
225 237 255
225 237 255
225 237 255
225 237 255
225 237 255
225 237 255
225 237 255
225 237 255
225 237 255
215 228 245
31 33 56
0 0 42
0 0 42
0 0 41
0 0 44
21 34 59
0 0 46
0 0 41
0 0 42
0 0 42
0 0 42
0 0 42
0 0 42
0 0 42
0 0 42
0 0 42
0 0 42
0 0 42
0 0 42
0 0 42
0 0 42
0 0 42
0 0 42
0 0 42
0 0 42
0 0 42
0 0 42
0 0 42
0 0 42
0 0 42
0 0 42
0 0 42
0 0 42
0 0 42
0 0 42
0 0 42
0 0 42
0 0 42
0 0 42
0 0 42
0 0 42
0 0 42
0 0 42
0 0 42
0 0 42
0 0 42
0 0 42
0 0 42
0 0 42
0 0 42
0 0 42
0 0 42
0 0 42
0 0 42
0 0 42
0 0 42
0 0 42
0 0 42
0 0 42
0 0 42
0 0 42
0 0 42
0 0 42
0 0 42
0 0 42
0 0 42
0 0 42
0 0 42
0 0 42
0 0 42
0 0 42
0 0 42
0 0 42
0 0 42
0 0 42
0 0 42
0 0 42
0 0 42
0 0 42
0 0 42
0 0 42
0 0 40
0 0 40
0 0 36
0 0 48
0 0 40
0 0 46
25 33 65
160 166 145
207 185 156
204 198 169
188 177 153
162 144 123
166 140 111
189 151 121
196 160 128
204 182 147
204 189 155
207 190 156
207 177 145
199 173 136
204 177 144
187 156 128
188 156 129
203 172 144
202 170 136
206 186 140
210 207 150
211 215 161
209 220 173
206 199 157
208 186 149
207 183 142
206 190 150
208 191 155
205 179 144
203 176 142
201 177 146
195 173 141
186 155 128
169 144 114
194 166 132
189 151 109
201 158 112
202 159 120
201 158 126
198 165 128
210 178 138
205 159 120
208 176 125
199 170 129
202 181 137
206 197 148
210 193 151
206 199 153
208 216 167
208 216 170
194 176 151
187 169 140
208 222 187
208 223 185
209 228 194
206 225 191
212 228 187
209 228 185
207 224 184
208 186 146
207 179 141
211 215 167
208 228 182
209 227 164
206 218 164
207 217 172
210 220 183
209 217 178
208 225 192
196 205 173
192 180 149
153 139 116
54 48 61
0 0 42
102 99 99
133 123 109
129 119 110
147 130 117
187 163 144
191 174 152
209 195 166
208 190 155
211 204 166
208 199 167
208 227 192
165 182 162
171 192 180
193 180 152
121 115 99
16 15 50
48 51 72
219 231 248
225 237 255
225 237 255
225 237 255
225 237 255
225 237 255
225 237 255
225 237 255
225 237 255
225 237 255
225 237 255
225 237 255
225 237 255
225 237 255
225 237 255
225 237 255
225 237 255
225 237 255
225 237 255
225 237 255
225 237 255
225 237 255
225 237 255
225 237 255
225 237 255
225 237 255
225 237 255
225 237 255
225 237 255
225 237 255
225 237 255
225 237 255
225 237 255
225 237 255
225 237 255
225 237 255
225 237 255
225 237 255
225 237 255
225 237 255
225 237 255
225 237 255
225 237 255
225 237 255
225 237 255
225 237 255
225 237 255
225 237 255
225 237 255
225 237 255
225 237 255
225 237 255
225 237 255
225 237 255
225 237 255
225 237 255
225 237 255
225 237 255
225 237 255
225 237 255
225 237 255
225 237 255
225 237 255
225 237 255
225 237 255
225 237 255
225 237 255
225 237 255
225 237 255
225 237 255
225 237 255
225 237 255
225 237 255
225 237 255
225 237 255
225 237 255
225 237 255
225 237 255
225 237 255
225 237 255
225 237 255
225 237 255
225 237 255
225 237 255
225 237 255
225 237 255
225 237 255
225 237 255
225 237 255
225 237 255
225 237 255
225 237 255
225 237 255
225 237 255
225 237 255
225 237 255
225 237 255
225 237 255
225 237 255
225 237 255
225 237 255
225 237 255
224 237 255
224 237 255
224 237 255
224 237 255
224 237 255
224 237 255
224 237 255
224 237 255
224 237 255
225 237 255
225 237 255
225 237 255
225 237 255
225 237 255
225 237 255
225 237 255
225 237 255
225 237 255
225 237 255
225 237 255
225 237 255
225 237 255
225 237 255
225 237 255
225 237 255
225 237 255
225 237 255
225 237 255
225 237 255
225 237 255
225 237 255
225 237 255
225 237 255
225 237 255
225 237 255
225 237 255
225 237 255
225 237 255
225 237 255
225 237 255
225 237 255
225 237 255
225 237 255
225 237 255
225 237 255
225 237 255
225 237 255
225 237 255
225 237 255
225 237 255
225 237 255
225 237 255
225 237 255
225 237 255
225 237 255
225 237 255
225 237 255
225 237 255
225 237 255
225 237 255
225 237 255
225 237 255
225 237 255
225 237 255
225 237 255
225 237 255
225 237 255
225 237 255
225 237 255
225 237 255
225 237 255
225 237 255
225 237 255
225 237 255
225 237 255
225 237 255
225 237 255
225 237 255
225 237 255
225 237 255
225 237 255
225 237 255
225 237 255
225 237 255
225 237 255
225 237 255
225 237 255
225 237 255
225 237 255
225 237 255
225 237 255
225 237 255
225 237 255
225 237 255
225 237 255
225 237 255
225 237 255
225 237 255
225 237 255
225 237 255
225 237 255
225 237 255
225 237 255
225 237 255
225 237 255
225 237 255
225 237 255
225 237 255
225 237 255
225 237 255
225 237 255
225 237 255
225 237 255
225 237 255
225 237 255
225 237 255
225 237 255
225 237 255
225 237 255
177 187 203
0 0 43
0 0 42
28 45 41
16 30 45
1 3 50
4 9 49
0 0 44
0 0 42
0 0 42
0 0 42
0 0 42
0 0 42
0 0 42
0 0 42
0 0 42
0 0 42
0 0 42
0 0 42
0 0 42
0 0 42
0 0 42
0 0 42
0 0 42
0 0 42
0 0 42
0 0 42
0 0 42
0 0 42
0 0 42
0 0 42
0 0 42
0 0 42
0 0 42
0 0 42
0 0 42
0 0 42
0 0 42
0 0 42
0 0 42
0 0 42
0 0 42
0 0 42
0 0 42
0 0 42
0 0 42
0 0 42
0 0 42
0 0 42
0 0 42
0 0 42
0 0 42
0 0 42
0 0 42
0 0 42
0 0 42
0 0 42
0 0 42
0 0 42
0 0 42
0 0 42
0 0 42
0 0 42
0 0 42
0 0 42
0 0 42
0 0 42
0 0 42
0 0 42
0 0 42
0 0 42
0 0 42
0 0 42
0 0 42
0 0 42
0 0 42
0 0 42
0 0 42
0 0 42
0 0 42
0 0 42
0 0 42
0 0 42
0 0 46
0 0 43
0 0 43
0 0 40
66 71 92
137 140 134
198 200 164
209 204 182
203 199 167
175 157 131
188 161 137
184 159 134
188 157 135
200 169 146
208 191 162
207 207 172
207 200 165
209 199 157
205 177 141
197 167 142
180 151 131
185 154 133
196 166 143
201 174 145
209 186 148
209 202 148
208 210 154
210 221 169
212 218 167
210 199 155
207 187 143
208 187 146
198 170 139
199 161 131
194 158 130
180 149 126
173 146 119
189 170 141
184 167 144
175 152 128
165 138 113
159 133 113
154 136 123
154 135 118
181 153 127
206 174 134
207 167 119
200 164 131
188 153 129
207 186 150
211 211 166
206 210 162
206 206 159
210 203 157
200 189 151
198 177 144
203 193 159
210 227 188
209 225 185
203 226 189
212 229 208
207 228 195
210 229 193
208 217 179
198 184 142
205 172 134
204 183 135
208 222 165
207 223 161
207 221 162
204 198 151
206 200 159
208 203 163
208 222 185
207 214 172
189 185 154
170 152 127
143 133 116
24 21 47
27 27 48
141 136 122
151 139 123
142 128 115
172 149 131
191 174 150
193 180 156
195 182 157
208 196 159
210 203 166
211 222 187
207 226 190
207 217 183
208 195 154
170 156 131
93 85 84
0 2 46
182 192 207
225 237 255
225 237 255
225 237 255
225 237 255
225 237 255
225 237 255
225 237 255
225 237 255
225 237 255
225 237 255
225 237 255
225 237 255
225 237 255
225 237 255
225 237 255
225 237 255
225 237 255
225 237 255
225 237 255
225 237 255
225 237 255
225 237 255
225 237 255
225 237 255
225 237 255
225 237 255
225 237 255
225 237 255
225 237 255
225 237 255
225 237 255
225 237 255
225 237 255
225 237 255
225 237 255
225 237 255
225 237 255
225 237 255
225 237 255
225 237 255
225 237 255
225 237 255
225 237 255
225 237 255
225 237 255
225 237 255
225 237 255
225 237 255
225 237 255
225 237 255
225 237 255
225 237 255
225 237 255
225 237 255
225 237 255
225 237 255
225 237 255
225 237 255
225 237 255
225 237 255
225 237 255
225 237 255
225 237 255
225 237 255
225 237 255
225 237 255
225 237 255
225 237 255
225 237 255
225 237 255
225 237 255
225 237 255
225 237 255
225 237 255
225 237 255
225 237 255
225 237 255
225 237 255
225 237 255
225 237 255
225 237 255
225 237 255
225 237 255
225 237 255
225 237 255
225 237 255
225 237 255
225 237 255
225 237 255
225 237 255
225 237 255
225 237 255
225 237 255
225 237 255
225 237 255
225 237 255
225 237 255
225 237 255
225 237 255
225 237 255
225 237 255
225 237 255
225 237 255
225 237 255
225 237 255
225 237 255
225 237 255
225 237 255
225 237 255
225 237 255
225 237 255
225 237 255
225 237 255
225 237 255
225 237 255
225 237 255
225 237 255
225 237 255
225 237 255
225 237 255
225 237 255
225 237 255
225 237 255
225 237 255
225 237 255
225 237 255
225 237 255
225 237 255
225 237 255
225 237 255
225 237 255
225 237 255
225 237 255
225 237 255
225 237 255
225 237 255
225 237 255
225 237 255
225 237 255
225 237 255
225 237 255
225 237 255
225 237 255
225 237 255
225 237 255
225 237 255
225 237 255
225 237 255
225 237 255
225 237 255
225 237 255
225 237 255
225 237 255
225 237 255
225 237 255
225 237 255
225 237 255
225 237 255
225 237 255
225 237 255
225 237 255
225 237 255
225 237 255
225 237 255
225 237 255
225 237 255
225 237 255
225 237 255
225 237 255
225 237 255
225 237 255
225 237 255
225 237 255
225 237 255
225 237 255
225 237 255
225 237 255
225 237 255
225 237 255
225 237 255
225 237 255
225 237 255
225 237 255
225 237 255
225 237 255
225 237 255
225 237 255
225 237 255
225 237 255
225 237 255
225 237 255
225 237 255
225 237 255
225 237 255
225 237 255
225 238 255
225 237 255
225 238 255
225 238 255
225 238 255
225 238 255
225 238 255
225 238 255
225 238 255
225 238 255
225 238 255
225 238 255
225 238 255
225 238 255
225 238 255
225 238 255
225 238 255
225 238 255
225 238 255
225 238 255
225 238 255
225 238 255
225 238 255
225 238 255
225 238 255
119 125 140
1 7 50
25 39 43
34 63 54
38 61 45
0 0 50
0 0 51
0 0 44
0 0 41
0 0 42
0 0 42
0 0 42
0 0 42
0 0 42
0 0 42
0 0 42
0 0 42
0 0 42
0 0 42
0 0 42
0 0 42
0 0 42
0 0 42
0 0 42
0 0 42
0 0 42
0 0 42
0 0 42
0 0 42
0 0 42
0 0 42
0 0 42
0 0 42
0 0 42
0 0 42
0 0 42
0 0 42
0 0 42
0 0 42
0 0 42
0 0 42
0 0 42
0 0 42
0 0 42
0 0 42
0 0 42
0 0 42
0 0 42
0 0 42
0 0 42
0 0 42
0 0 42
0 0 42
0 0 42
0 0 42
0 0 42
0 0 42
0 0 42
0 0 42
0 0 42
0 0 42
0 0 42
0 0 42
0 0 42
0 0 42
0 0 42
0 0 42
0 0 42
0 0 42
0 0 42
0 0 42
0 0 42
0 0 42
0 0 42
0 0 42
0 0 42
0 0 42
0 0 42
0 0 42
0 0 42
0 0 42
0 0 42
0 0 44
0 0 39
0 0 37
0 0 44
12 13 52
137 149 139
204 206 180
207 211 182
204 205 166
207 191 156
189 162 139
201 173 152
209 180 153
206 177 151
205 177 155
203 198 178
209 227 191
210 223 187
211 207 165
209 181 146
203 181 159
191 163 142
189 159 138
195 163 139
209 176 144
208 180 142
211 202 151
210 213 157
206 217 169
208 223 177
207 205 159
210 188 144
206 170 136
201 165 136
199 165 132
199 167 129
171 149 127
160 141 120
184 178 149
197 188 158
189 173 143
188 176 148
168 149 123
159 135 115
167 143 125
181 155 127
196 177 142
197 173 130
189 162 131
198 165 127
206 184 123
212 204 137
210 225 164
207 210 162
207 197 157
206 176 140
209 199 163
203 210 172
207 223 180
210 224 186
206 226 197
209 229 196
210 228 191
208 229 192
211 224 182
205 179 137
205 169 126
204 167 127
207 188 143
208 206 148
212 208 154
209 209 158
212 203 152
208 204 158
208 217 173
207 227 195
199 204 168
174 153 129
170 151 126
108 100 93
3 3 44
29 29 52
141 133 122
133 121 111
143 129 117
184 169 151
198 181 155
194 180 158
198 186 158
208 209 170
209 212 185
213 229 188
208 220 186
210 188 149
206 188 157
184 172 148
13 22 56
100 106 121
225 238 255
225 238 255
225 238 255
225 238 255
225 238 255
225 238 255
225 238 255
225 238 255
225 238 255
225 238 255
225 238 255
225 238 255
225 238 255
225 238 255
225 238 255
225 238 255
225 238 255
225 238 255
225 238 255
225 238 255
225 238 255
225 238 255
225 238 255
225 238 255
225 238 255
225 237 255
225 237 255
225 237 255
225 237 255
225 237 255
225 237 255
225 237 255
225 237 255
225 237 255
225 237 255
225 237 255
225 237 255
225 237 255
225 237 255
225 237 255
225 237 255
225 237 255
225 237 255
225 237 255
225 237 255
225 237 255
225 237 255
225 237 255
225 237 255
225 237 255
225 237 255
225 237 255
225 237 255
225 237 255
225 237 255
225 237 255
225 237 255
225 237 255
225 237 255
225 237 255
225 237 255
225 237 255
225 237 255
225 237 255
225 237 255
225 237 255
225 237 255
225 237 255
225 237 255
225 237 255
225 237 255
225 237 255
225 237 255
225 237 255
225 237 255
225 237 255
225 237 255
225 237 255
225 237 255
225 237 255
225 237 255
225 237 255
225 237 255
225 237 255
225 237 255
225 237 255
225 237 255
225 237 255
225 237 255
225 237 255
225 237 255
225 237 255
225 237 255
225 237 255
225 237 255
225 237 255
225 237 255
225 237 255
225 237 255
225 237 255
225 237 255
225 237 255
225 237 255
225 237 255
225 237 255
225 237 255
225 237 255
225 237 255
225 237 255
225 237 255
225 237 255
225 237 255
225 237 255
225 237 255
225 237 255
225 237 255
225 237 255
225 237 255
225 237 255
225 237 255
225 237 255
225 237 255
225 237 255
225 237 255
225 237 255
225 237 255
225 237 255
225 237 255
225 237 255
225 237 255
225 237 255
225 237 255
225 237 255
225 237 255
225 237 255
225 237 255
225 237 255
225 237 255
225 237 255
225 237 255
225 237 255
225 237 255
225 237 255
225 237 255
225 237 255
225 237 255
225 238 255
225 237 255
225 238 255
225 238 255
225 238 255
225 238 255
225 238 255
225 238 255
225 238 255
225 238 255
225 238 255
225 238 255
225 238 255
225 238 255
225 238 255
225 238 255
225 238 255
225 238 255
225 238 255
225 238 255
225 238 255
225 238 255
225 238 255
225 238 255
225 238 255
225 238 255
225 238 255
225 238 255
225 238 255
225 238 255
225 238 255
225 238 255
225 238 255
225 238 255
225 238 255
225 238 255
225 238 255
225 238 255
225 238 255
225 238 255
225 238 255
225 238 255
225 238 255
225 238 255
225 238 255
225 238 255
225 238 255
225 238 255
225 238 255
225 238 255
225 238 255
225 238 255
225 238 255
225 238 255
225 238 255
225 238 255
225 238 255
225 238 255
225 238 255
225 238 255
225 238 255
225 238 255
225 238 255
225 238 255
225 238 255
225 238 255
225 238 255
225 238 255
225 238 255
225 238 255
225 238 255
225 238 255
225 238 255
216 228 245
25 45 37
11 22 42
13 22 48
15 25 45
46 75 34
11 21 49
0 0 48
0 5 43
0 0 41
0 0 42
0 0 42
0 0 42
0 0 42
0 0 42
0 0 42
0 0 42
0 0 42
0 0 42
0 0 42
0 0 42
0 0 42
0 0 42
0 0 42
0 0 42
0 0 42
0 0 42
0 0 42
0 0 42
0 0 42
0 0 42
0 0 42
0 0 42
0 0 42
0 0 42
0 0 42
0 0 42
0 0 42
0 0 42
0 0 42
0 0 42
0 0 42
0 0 42
0 0 42
0 0 42
0 0 42
0 0 42
0 0 42
0 0 42
0 0 42
0 0 42
0 0 42
0 0 42
0 0 42
0 0 42
0 0 42
0 0 42
0 0 42
0 0 42
0 0 42
0 0 42
0 0 42
0 0 42
0 0 42
0 0 42
0 0 42
0 0 42
0 0 42
0 0 42
0 0 42
0 0 42
0 0 42
0 0 42
0 0 42
0 0 42
0 0 42
0 0 42
0 0 42
0 0 42
0 0 41
0 0 42
0 0 42
0 0 41
0 0 42
0 0 46
0 0 50
0 7 62
39 48 90
187 210 182
210 215 182
204 216 176
212 192 160
208 178 146
200 175 150
209 183 160
208 201 179
211 206 183
207 188 166
211 192 163
206 212 183
212 219 184
204 203 164
209 203 164
204 173 148
198 164 142
198 167 144
194 161 132
194 159 127
210 180 140
210 206 154
206 216 162
208 225 182
209 220 174
210 205 157
209 189 149
193 161 131
191 157 130
181 153 126
194 167 138
189 168 142
186 171 139
204 204 174
189 189 160
182 168 138
207 202 165
199 190 155
165 146 120
186 165 140
174 151 123
192 166 143
180 154 120
203 177 136
206 180 133
213 199 136
207 212 151
207 223 161
209 213 159
202 184 145
212 182 140
208 216 176
206 220 185
206 216 183
210 229 185
207 226 185
206 221 166
207 210 162
211 226 178
209 222 176
205 185 143
208 197 145
205 173 134
202 173 133
215 209 151
208 201 149
206 222 168
210 218 166
210 214 164
207 212 170
209 228 194
200 207 169
169 155 125
196 172 141
155 138 121
35 33 51
0 0 40
31 28 48
133 129 114
133 122 111
157 142 126
207 192 166
204 192 164
191 178 153
211 207 172
210 212 181
208 227 191
209 226 185
214 195 153
209 178 145
208 193 167
65 75 85
0 0 43
211 223 240
225 238 255
225 238 255
225 238 255
225 238 255
225 238 255
225 238 255
225 238 255
225 238 255
225 238 255
225 238 255
225 238 255
225 238 255
225 238 255
225 238 255
225 238 255
225 238 255
225 238 255
225 238 255
225 238 255
225 238 255
225 238 255
225 238 255
225 238 255
225 238 255
225 238 255
225 238 255
225 238 255
225 238 255
225 238 255
225 238 255
225 238 255
225 238 255
225 238 255
225 238 255
225 238 255
225 238 255
225 238 255
225 238 255
225 238 255
225 238 255
225 238 255
225 238 255
225 238 255
225 238 255
225 238 255
225 238 255
225 238 255
225 238 255
225 238 255
225 238 255
225 238 255
225 238 255
225 238 255
225 238 255
225 238 255
225 238 255
225 238 255
225 238 255
225 238 255
225 238 255
225 238 255
225 238 255
225 238 255
225 238 255
225 238 255
225 238 255
225 238 255
225 238 255
225 238 255
225 238 255
225 238 255
225 238 255
225 238 255
225 237 255
225 237 255
225 237 255
225 237 255
225 237 255
225 237 255
225 237 255
225 237 255
225 237 255
225 237 255
225 237 255
225 237 255
225 237 255
225 237 255
225 237 255
225 237 255
225 237 255
225 237 255
225 237 255
225 237 255
225 237 255
225 237 255
225 237 255
225 237 255
225 237 255
225 237 255
225 237 255
225 237 255
225 237 255
225 237 255
225 237 255
225 237 255
225 237 255
225 237 255
225 237 255
225 237 255
225 238 255
225 238 255
225 238 255
225 238 255
225 238 255
225 238 255
225 238 255
225 238 255
225 238 255
225 238 255
225 238 255
225 238 255
225 238 255
225 238 255
225 238 255
225 238 255
225 238 255
225 238 255
225 238 255
225 238 255
225 238 255
225 238 255
225 238 255
225 238 255
225 238 255
225 238 255
225 238 255
225 238 255
225 238 255
225 238 255
225 238 255
225 238 255
225 238 255
225 238 255
225 238 255
225 238 255
225 238 255
225 238 255
225 238 255
225 238 255
225 238 255
225 238 255
225 238 255
225 238 255
225 238 255
225 238 255
225 238 255
225 238 255
225 238 255
225 238 255
225 238 255
225 238 255
225 238 255
225 238 255
225 238 255
225 238 255
225 238 255
225 238 255
225 238 255
225 238 255
225 238 255
225 238 255
225 238 255
225 238 255
225 238 255
225 238 255
225 238 255
225 238 255
225 238 255
225 238 255
225 238 255
225 238 255
225 238 255
225 238 255
225 238 255
225 238 255
225 238 255
225 238 255
225 238 255
225 238 255
225 238 255
225 238 255
225 238 255
225 238 255
225 238 255
225 238 255
225 238 255
225 238 255
225 238 255
225 238 255
225 238 255
225 238 255
225 238 255
225 238 255
225 238 255
225 238 255
225 238 255
225 238 255
225 238 255
225 238 255
225 238 255
225 238 255
225 238 255
225 238 255
225 238 255
225 238 255
225 238 255
225 238 255
225 238 255
164 173 189
30 56 33
3 5 41
4 6 42
6 10 44
40 61 28
9 17 44
0 0 43
0 0 45
0 0 44
0 0 41
0 0 42
0 0 42
0 0 42
0 0 42
0 0 42
0 0 42
0 0 42
0 0 42
0 0 42
0 0 42
0 0 42
0 0 42
0 0 42
0 0 42
0 0 42
0 0 42
0 0 42
0 0 42
0 0 42
0 0 42
0 0 42
0 0 42
0 0 42
0 0 42
0 0 42
0 0 42
0 0 42
0 0 42
0 0 42
0 0 42
0 0 42
0 0 42
0 0 42
0 0 42
0 0 42
0 0 42
0 0 42
0 0 42
0 0 42
0 0 42
0 0 42
0 0 42
0 0 42
0 0 42
0 0 42
0 0 42
0 0 42
0 0 42
0 0 42
0 0 42
0 0 42
0 0 42
0 0 42
0 0 42
0 0 42
0 0 42
0 0 42
0 0 42
0 0 42
0 0 42
0 0 42
0 0 42
0 0 42
0 0 42
0 0 42
0 0 42
0 0 42
0 0 42
0 0 39
0 0 41
0 0 41
0 0 40
0 0 40
0 0 48
0 0 55
10 22 82
79 94 111
199 219 201
208 214 188
203 207 170
212 192 153
205 192 164
204 193 173
209 194 175
209 210 183
212 222 189
210 205 175
210 185 158
210 188 158
207 201 164
208 208 171
204 184 156
181 157 134
185 160 132
193 164 133
197 168 133
201 177 136
206 190 145
207 209 162
211 221 170
209 223 179
215 218 169
210 205 156
207 193 151
193 168 135
189 161 133
187 160 133
185 161 132
199 180 149
207 196 160
202 197 163
197 194 163
198 185 156
209 196 161
198 185 152
204 190 158
203 204 165
199 199 158
187 170 140
189 159 129
200 169 128
204 182 132
210 217 156
204 227 169
210 224 159
206 203 144
209 173 132
209 201 157
213 228 191
209 228 198
210 224 183
208 219 174
192 182 149
197 179 137
209 183 134
214 222 170
207 215 167
209 208 162
210 205 150
207 189 142
198 181 143
211 177 137
210 187 140
208 217 165
208 225 172
208 220 174
196 196 153
190 201 164
201 201 161
145 139 111
195 177 150
176 163 137
119 119 113
27 24 48
0 0 44
83 79 82
136 124 110
179 165 147
205 189 164
211 198 164
197 182 159
207 195 161
210 210 171
214 224 187
211 227 179
210 212 169
212 175 139
210 206 176
107 121 122
0 0 44
146 154 169
225 238 255
225 238 255
225 238 255
225 238 255
225 238 255
225 238 255
225 238 255
225 238 255
225 238 255
225 238 255
225 238 255
225 238 255
225 238 255
225 238 255
225 238 255
225 238 255
225 238 255
225 238 255
225 238 255
225 238 255
225 238 255
225 238 255
225 238 255
225 238 255
225 238 255
225 238 255
225 238 255
225 238 255
225 238 255
225 238 255
225 238 255
225 238 255
225 238 255
225 238 255
225 238 255
225 238 255
225 238 255
225 238 255
225 238 255
225 238 255
225 238 255
225 238 255
225 238 255
225 238 255
225 238 255
225 238 255
225 238 255
225 238 255
225 238 255
225 238 255
225 238 255
225 238 255
225 238 255
225 238 255
225 238 255
225 238 255
225 238 255
225 238 255
225 238 255
225 238 255
225 238 255
225 238 255
225 238 255
225 238 255
225 238 255
225 238 255
225 238 255
225 238 255
225 238 255
225 238 255
225 238 255
225 238 255
225 238 255
225 238 255
225 238 255
225 238 255
225 238 255
225 238 255
225 238 255
225 238 255
225 238 255
225 238 255
225 238 255
225 238 255
225 238 255
225 238 255
225 238 255
225 238 255
225 238 255
225 238 255
225 238 255
225 238 255
225 238 255
225 238 255
225 238 255
225 238 255
225 238 255
225 238 255
225 238 255
225 238 255
225 238 255
225 238 255
225 238 255
225 238 255
225 238 255
225 238 255
225 238 255
225 238 255
225 238 255
225 238 255
225 238 255
225 238 255
225 238 255
225 238 255
225 238 255
225 238 255
225 238 255
225 238 255
225 238 255
225 238 255
225 238 255
225 238 255
225 238 255
225 238 255
225 238 255
225 238 255
225 238 255
225 238 255
225 238 255
225 238 255
225 238 255
225 238 255
225 238 255
225 238 255
225 238 255
225 238 255
225 238 255
225 238 255
225 238 255
225 238 255
225 238 255
225 238 255
225 238 255
225 238 255
225 238 255
225 238 255
225 238 255
225 238 255
225 238 255
225 238 255
225 238 255
225 238 255
225 238 255
225 238 255
225 238 255
225 238 255
225 238 255
225 238 255
225 238 255
225 238 255
225 238 255
225 238 255
225 238 255
225 238 255
225 238 255
225 238 255
225 238 255
225 238 255
225 238 255
225 238 255
225 238 255
225 238 255
225 238 255
225 238 255
225 238 255
225 238 255
225 238 255
225 238 255
225 238 255
225 238 255
225 238 255
225 238 255
225 238 255
225 238 255
225 238 255
225 238 255
225 238 255
225 238 255
225 238 255
225 238 255
225 238 255
225 238 255
225 238 255
225 238 255
225 238 255
225 238 255
225 238 255
225 238 255
225 238 255
225 238 255
225 238 255
225 238 255
225 238 255
225 238 255
225 238 255
225 238 255
225 238 255
225 238 255
225 238 255
225 238 255
225 238 255
225 238 255
225 238 255
225 238 255
225 238 255
225 238 255
225 238 255
225 238 255
107 118 124
23 44 25
0 0 43
0 0 43
0 0 42
45 69 22
33 46 36
0 0 44
8 10 40
7 8 43
0 0 41
0 0 42
0 0 42
0 0 42
0 0 42
0 0 42
0 0 42
0 0 42
0 0 42
0 0 42
0 0 42
0 0 42
0 0 42
0 0 42
0 0 42
0 0 42
0 0 42
0 0 42
0 0 42
0 0 42
0 0 42
0 0 42
0 0 42
0 0 42
0 0 42
0 0 42
0 0 42
0 0 42
0 0 42
0 0 42
0 0 42
0 0 42
0 0 42
0 0 42
0 0 42
0 0 42
0 0 42
0 0 42
0 0 42
0 0 42
0 0 42
0 0 42
0 0 42
0 0 42
0 0 42
0 0 42
0 0 42
0 0 42
0 0 42
0 0 42
0 0 42
0 0 42
0 0 42
0 0 42
0 0 42
0 0 42
0 0 42
0 0 42
0 0 42
0 0 42
0 0 42
0 0 42
0 0 42
0 0 42
0 0 42
0 0 42
0 0 42
0 0 42
0 0 43
0 0 41
0 0 41
0 0 42
0 0 43
0 0 46
0 0 53
0 0 65
67 91 117
185 202 195
206 212 181
208 202 163
210 188 150
212 208 173
210 211 183
210 210 185
210 204 176
210 207 180
213 217 185
208 210 179
209 193 166
210 192 161
208 194 167
198 188 160
175 156 131
186 152 129
200 168 127
204 180 139
211 185 139
205 184 138
208 194 147
210 212 166
208 216 168
210 218 174
209 211 165
210 204 154
210 196 150
209 191 151
207 187 154
204 182 151
198 180 145
203 188 150
206 197 160
199 191 157
201 192 161
185 168 141
195 173 147
179 160 133
195 175 144
205 201 164
209 212 168
210 221 181
197 189 158
201 168 128
206 182 130
206 216 158
208 228 172
210 220 163
209 190 141
210 181 142
209 217 176
208 227 196
211 227 193
210 221 178
200 194 159
189 169 143
190 168 135
210 184 140
202 198 146
212 182 138
205 206 153
208 203 151
209 189 140
212 214 164
206 190 150
209 194 148
208 213 159
210 229 183
208 225 184
213 202 150
203 206 158
176 179 133
183 161 132
183 166 141
194 187 168
171 168 146
134 127 119
27 25 51
33 31 52
144 135 116
168 158 142
187 174 151
198 182 153
202 193 173
209 191 158
214 212 172
210 207 168
209 225 177
213 227 176
211 186 147
213 212 176
150 167 159
0 0 48
105 111 125
225 238 255
225 238 255
225 238 255
225 238 255
225 238 255
225 238 255
225 238 255
225 238 255
225 238 255
225 238 255
225 238 255
225 238 255
225 238 255
225 238 255
225 238 255
225 238 255
225 238 255
225 238 255
225 238 255
225 238 255
225 238 255
225 238 255
225 238 255
225 238 255
225 238 255
225 238 255
225 238 255
225 238 255
225 238 255
225 238 255
225 238 255
225 238 255
225 238 255
225 238 255
225 238 255
225 238 255
225 238 255
225 238 255
225 238 255
225 238 255
225 238 255
225 238 255
225 238 255
225 238 255
225 238 255
225 238 255
225 238 255
225 238 255
225 238 255
225 238 255
225 238 255
225 238 255
225 238 255
225 238 255
225 238 255
225 238 255
225 238 255
225 238 255
225 238 255
225 238 255
225 238 255
225 238 255
225 238 255
225 238 255
225 238 255
225 238 255
225 238 255
225 238 255
225 238 255
225 238 255
225 238 255
225 238 255
225 238 255
225 238 255
225 238 255
225 238 255
225 238 255
225 238 255
225 238 255
225 238 255
225 238 255
225 238 255
225 238 255
225 238 255
225 238 255
225 238 255
225 238 255
225 238 255
225 238 255
225 238 255
225 238 255
225 238 255
225 238 255
225 238 255
225 238 255
225 238 255
225 238 255
225 238 255
225 238 255
225 238 255
225 238 255
225 238 255
225 238 255
225 238 255
225 238 255
225 238 255
225 238 255
225 238 255
225 238 255
225 238 255
225 238 255
225 238 255
225 238 255
225 238 255
225 238 255
225 238 255
225 238 255
225 238 255
225 238 255
225 238 255
225 238 255
225 238 255
225 238 255
225 238 255
225 238 255
225 238 255
225 238 255
225 238 255
225 238 255
225 238 255
225 238 255
225 238 255
225 238 255
225 238 255
225 238 255
225 238 255
225 238 255
225 238 255
225 238 255
225 238 255
225 238 255
225 238 255
225 238 255
225 238 255
225 238 255
225 238 255
225 238 255
225 238 255
225 238 255
225 238 255
225 238 255
225 238 255
225 238 255
225 238 255
225 238 255
225 238 255
225 238 255
225 238 255
225 238 255
225 238 255
225 238 255
225 238 255
225 238 255
225 238 255
225 238 255
225 238 255
225 238 255
225 238 255
225 238 255
225 238 255
225 238 255
225 238 255
225 238 255
225 238 255
225 238 255
225 238 255
225 238 255
225 238 255
225 238 255
225 238 255
225 238 255
225 238 255
225 238 255
225 238 255
225 238 255
225 238 255
225 238 255
225 238 255
225 238 255
225 238 255
225 238 255
225 238 255
225 238 255
225 238 255
225 238 255
225 238 255
225 238 255
225 238 255
225 238 255
225 238 255
225 238 255
225 238 255
225 238 255
225 238 255
225 238 255
225 238 255
225 238 255
225 238 255
225 238 255
225 238 255
225 238 255
225 238 255
225 238 255
225 238 255
225 238 255
225 238 255
225 238 255
205 217 233
24 46 38
10 18 40
0 0 42
0 0 42
0 0 42
34 50 41
40 57 24
8 10 41
8 10 41
0 0 43
0 0 42
0 0 42
0 0 42
0 0 42
0 0 42
0 0 42
0 0 42
0 0 42
0 0 42
0 0 42
0 0 42
0 0 42
0 0 42
0 0 42
0 0 42
0 0 42
0 0 42
0 0 42
0 0 42
0 0 42
0 0 42
0 0 42
0 0 42
0 0 42
0 0 42
0 0 42
0 0 42
0 0 42
0 0 42
0 0 42
0 0 42
0 0 42
0 0 42
0 0 42
0 0 42
0 0 42
0 0 42
0 0 42
0 0 42
0 0 42
0 0 42
0 0 42
0 0 42
0 0 42
0 0 42
0 0 42
0 0 42
0 0 42
0 0 42
0 0 42
0 0 42
0 0 42
0 0 42
0 0 42
0 0 42
0 0 42
0 0 42
0 0 42
0 0 42
0 0 42
0 0 42
0 0 42
0 0 42
0 0 42
0 0 40
0 0 42
0 0 41
0 0 41
0 0 44
0 0 45
0 0 43
0 0 45
0 0 49
0 0 55
0 6 64
29 57 96
189 212 181
209 220 183
205 198 159
204 189 147
209 194 154
208 211 179
211 214 187
209 217 182
210 208 174
208 205 174
206 214 180
210 215 180
212 195 165
205 189 159
193 175 150
186 152 129
188 155 127
205 175 135
212 182 137
209 178 135
209 179 138
212 196 150
211 209 161
213 222 175
210 217 166
211 217 170
211 208 162
208 205 158
207 201 154
209 203 157
209 197 155
211 193 155
204 189 150
210 205 164
211 205 166
207 197 162
192 176 148
176 150 124
186 159 134
200 182 153
184 163 136
206 193 164
209 209 172
206 225 177
209 219 180
206 187 142
208 189 137
209 206 149
211 209 157
202 192 144
206 179 131
209 177 139
210 219 177
208 228 190
209 224 181
214 217 171
206 193 159
177 161 134
190 176 144
204 195 143
208 200 140
209 185 142
207 199 148
210 198 148
208 202 148
211 210 158
208 199 157
212 205 156
210 218 162
211 227 180
212 229 184
211 203 153
212 213 158
183 180 138
199 177 142
206 178 143
181 170 148
165 155 136
154 143 125
87 84 90
0 0 38
123 116 112
167 159 132
174 165 146
173 155 136
194 181 155
212 197 166
208 210 174
211 209 169
212 226 177
211 228 178
211 196 152
209 217 186
169 188 181
0 12 56
0 0 42
217 229 247
225 238 255
225 238 255
225 238 255
225 238 255
225 238 255
225 238 255
225 238 255
225 238 255
225 238 255
225 238 255
225 238 255
225 238 255
225 238 255
225 238 255
225 238 255
225 238 255
225 238 255
225 238 255
225 238 255
225 238 255
225 238 255
225 238 255
225 238 255
225 238 255
225 238 255
225 238 255
225 238 255
225 238 255
225 238 255
225 238 255
225 238 255
225 238 255
225 238 255
225 238 255
225 238 255
225 238 255
225 238 255
225 238 255
225 238 255
225 238 255
225 238 255
225 238 255
225 238 255
225 238 255
225 238 255
225 238 255
225 238 255
225 238 255
225 238 255
225 238 255
225 238 255
225 238 255
225 238 255
225 238 255
225 238 255
225 238 255
225 238 255
225 238 255
225 238 255
225 238 255
225 238 255
225 238 255
225 238 255
225 238 255
225 238 255
225 238 255
225 238 255
225 238 255
225 238 255
225 238 255
225 238 255
225 238 255
225 238 255
225 238 255
225 238 255
225 238 255
225 238 255
225 238 255
225 238 255
225 238 255
225 238 255
225 238 255
225 238 255
225 238 255
225 238 255
225 238 255
225 238 255
225 238 255
225 238 255
225 238 255
225 238 255
225 238 255
225 238 255
225 238 255
225 238 255
225 238 255
225 238 255
225 238 255
225 238 255
225 238 255
225 238 255
225 238 255
225 238 255
225 238 255
225 238 255
225 238 255
225 238 255
225 238 255
225 238 255
225 238 255
225 238 255
225 238 255
225 238 255
225 238 255
225 238 255
225 238 255
225 238 255
225 238 255
225 238 255
225 238 255
225 238 255
225 238 255
225 238 255
225 238 255
225 238 255
225 238 255
225 238 255
225 238 255
225 238 255
225 238 255
225 238 255
225 238 255
225 238 255
225 238 255
225 238 255
225 238 255
225 238 255
225 238 255
225 238 255
225 238 255
225 238 255
225 238 255
225 238 255
225 238 255
225 238 255
225 238 255
225 238 255
225 238 255
225 238 255
225 238 255
225 238 255
225 238 255
225 238 255
225 238 255
225 238 255
225 238 255
225 238 255
225 238 255
225 238 255
225 238 255
225 238 255
225 238 255
225 238 255
225 238 255
225 238 255
225 238 255
225 238 255
225 238 255
225 238 255
225 238 255
225 238 255
225 238 255
225 238 255
225 238 255
225 238 255
225 238 255
225 238 255
225 238 255
225 238 255
225 238 255
225 238 255
225 238 255
225 238 255
225 238 255
225 238 255
225 238 255
225 238 255
225 238 255
225 238 255
225 238 255
225 238 255
225 238 255
225 238 255
225 238 255
225 238 255
225 238 255
225 238 255
225 238 255
225 238 255
225 238 255
225 238 255
225 238 255
225 238 255
225 238 255
225 238 255
225 238 255
225 238 255
225 238 255
225 238 255
225 238 255
225 238 255
225 238 255
225 238 255
225 238 255
225 238 255
225 238 255
174 186 197
27 54 27
0 0 42
0 0 42
0 0 42
5 8 40
24 38 31
36 54 25
6 7 39
0 0 38
0 0 44
0 0 42
0 0 42
0 0 42
0 0 42
0 0 42
0 0 42
0 0 42
0 0 42
0 0 42
0 0 42
0 0 42
0 0 42
0 0 42
0 0 42
0 0 42
0 0 42
0 0 42
0 0 42
0 0 42
0 0 42
0 0 42
0 0 42
0 0 42
0 0 42
0 0 42
0 0 42
0 0 42
0 0 42
0 0 42
0 0 42
0 0 42
0 0 42
0 0 42
0 0 42
0 0 42
0 0 42
0 0 42
0 0 42
0 0 42
0 0 42
0 0 42
0 0 42
0 0 42
0 0 42
0 0 42
0 0 42
0 0 42
0 0 42
0 0 42
0 0 42
0 0 42
0 0 42
0 0 42
0 0 42
0 0 42
0 0 42
0 0 42
0 0 42
0 0 42
0 0 42
0 0 42
0 0 42
0 0 42
0 0 42
0 0 40
0 0 40
0 0 41
0 0 41
0 0 45
0 0 48
0 0 45
0 0 48
0 0 54
0 7 65
0 30 83
117 143 153
213 226 181
209 213 171
207 199 167
212 191 158
209 196 162
212 204 171
205 201 170
207 215 175
209 204 164
213 204 167
210 201 169
211 199 166
206 188 157
201 172 144
196 161 130
208 183 136
208 182 139
210 179 136
212 164 124
209 172 131
211 186 142
210 197 155
208 198 159
207 198 155
208 209 159
209 214 164
211 212 163
210 212 163
210 211 162
213 214 163
210 205 158
207 193 153
210 196 156
211 208 168
207 204 168
194 183 152
187 167 141
185 160 135
187 159 130
200 190 155
201 182 150
200 190 160
209 212 164
211 226 169
209 219 171
206 199 153
213 199 146
209 190 136
211 181 136
210 179 135
211 180 134
211 186 139
205 207 170
210 224 183
209 222 175
211 216 174
201 187 150
181 161 132
187 168 133
209 197 144
210 184 135
208 189 134
211 191 141
210 189 140
209 197 146
201 197 150
205 190 149
211 202 151
211 218 164
210 226 177
209 226 179
212 211 163
209 215 164
201 194 156
212 205 151
201 181 143
174 157 132
166 154 136
178 169 147
131 121 109
19 19 46
72 69 73
170 164 135
147 138 112
162 145 126
205 193 164
207 190 157
209 204 164
215 212 167
211 225 180
212 223 175
211 197 152
213 217 187
205 217 203
28 44 70
0 0 42
165 175 190
225 238 255
225 238 255
225 238 255
225 238 255
225 238 255
225 238 255
225 238 255
225 238 255
225 238 255
225 238 255
225 238 255
225 238 255
225 238 255
225 238 255
225 238 255
225 238 255
225 238 255
225 238 255
225 238 255
225 238 255
225 238 255
225 238 255
225 238 255
225 238 255
225 238 255
225 238 255
225 238 255
225 238 255
225 238 255
225 238 255
225 238 255
225 238 255
225 238 255
225 238 255
225 238 255
225 238 255
225 238 255
225 238 255
225 238 255
225 238 255
225 238 255
225 238 255
225 238 255
225 238 255
225 238 255
225 238 255
225 238 255
225 238 255
225 238 255
225 238 255
225 238 255
225 238 255
225 238 255
225 238 255
225 238 255
225 238 255
225 238 255
225 238 255
225 238 255
225 238 255
225 238 255
225 238 255
225 238 255
225 238 255
225 238 255
225 238 255
225 238 255
225 238 255
225 238 255
225 238 255
225 238 255
225 238 255
225 238 255
225 238 255
225 238 255
225 238 255
225 238 255
225 238 255
225 238 255
225 238 255
225 238 255
225 238 255
225 238 255
225 238 255
225 238 255
225 238 255
225 238 255
225 238 255
225 238 255
225 238 255
225 238 255
225 238 255
225 238 255
225 238 255
225 238 255
225 238 255
225 238 255
225 238 255
225 238 255
225 238 255
225 238 255
225 238 255
225 238 255
225 238 255
225 238 255
225 238 255
225 238 255
225 238 255
225 238 255
225 238 255
225 238 255
225 238 255
225 238 255
225 238 255
225 238 255
225 238 255
225 238 255
225 238 255
225 238 255
225 238 255
225 238 255
225 238 255
225 238 255
225 238 255
225 238 255
225 238 255
225 238 255
225 238 255
225 238 255
225 238 255
225 238 255
225 238 255
225 238 255
225 238 255
225 238 255
225 238 255
225 238 255
225 238 255
225 238 255
225 238 255
225 238 255
225 238 255
225 238 255
225 238 255
225 238 255
225 238 255
225 238 255
225 238 255
225 238 255
225 238 255
225 238 255
225 238 255
225 238 255
225 238 255
225 238 255
225 238 255
225 238 255
225 238 255
225 238 255
225 238 255
225 238 255
225 238 255
225 238 255
225 238 255
225 238 255
225 238 255
225 238 255
225 238 255
225 238 255
225 238 255
225 238 255
225 238 255
225 238 255
225 238 255
225 238 255
225 238 255
225 238 255
225 238 255
225 238 255
225 238 255
225 238 255
225 238 255
225 238 255
225 238 255
225 238 255
225 238 255
225 238 255
225 238 255
225 238 255
225 238 255
225 238 255
225 238 255
225 238 255
225 238 255
225 238 255
225 238 255
225 238 255
225 238 255
225 238 255
225 238 255
225 238 255
225 238 255
225 238 255
225 238 255
225 238 255
225 238 255
225 238 255
225 238 255
225 238 255
225 238 255
225 238 255
225 238 255
225 238 255
225 238 255
225 238 255
225 238 255
116 131 125
23 42 33
0 0 42
0 0 42
0 0 42
0 0 42
0 1 42
4 5 39
36 45 41
33 46 34
14 20 38
0 0 42
0 0 42
0 0 42
0 0 42
0 0 42
0 0 42
0 0 42
0 0 42
0 0 42
0 0 42
0 0 42
0 0 42
0 0 42
0 0 42
0 0 42
0 0 42
0 0 42
0 0 42
0 0 42
0 0 42
0 0 42
0 0 42
0 0 42
0 0 42
0 0 42
0 0 42
0 0 42
0 0 42
0 0 42
0 0 42
0 0 42
0 0 42
0 0 42
0 0 42
0 0 42
0 0 42
0 0 42
0 0 42
0 0 42
0 0 42
0 0 42
0 0 42
0 0 42
0 0 42
0 0 42
0 0 42
0 0 42
0 0 42
0 0 42
0 0 42
0 0 42
0 0 42
0 0 42
0 0 42
0 0 42
0 0 42
0 0 42
0 0 42
0 0 42
0 0 42
0 0 42
0 0 42
0 0 42
0 0 42
0 0 40
0 0 41
0 0 40
0 0 42
0 0 45
0 0 51
0 0 50
0 0 56
0 1 62
0 14 75
61 90 117
179 196 172
207 206 170
208 196 157
211 200 162
210 184 157
210 181 155
199 173 142
205 198 156
210 208 160
214 195 153
212 200 157
208 195 159
210 189 155
209 182 145
208 183 135
211 190 139
210 184 137
211 173 127
208 156 114
211 140 103
207 143 108
211 152 118
206 169 134
208 178 142
211 184 144
210 198 150
209 208 157
212 217 170
212 219 170
210 213 168
212 212 163
211 207 157
209 201 157
210 206 162
209 208 163
212 208 168
206 203 166
193 183 147
202 191 155
203 184 150
203 188 150
211 206 165
212 201 160
208 206 154
209 218 164
209 219 163
214 216 163
208 210 157
208 182 143
197 158 121
207 178 132
207 173 129
209 199 149
207 193 157
201 195 161
198 182 147
175 162 129
169 149 120
167 144 119
183 156 127
204 188 136
210 192 142
211 184 130
209 180 131
210 201 149
212 212 157
210 192 148
211 192 149
214 197 146
209 216 160
209 222 170
213 226 173
211 226 172
210 214 165
200 191 162
208 206 167
207 197 163
200 187 157
183 172 146
192 186 158
159 146 127
74 71 77
0 0 43
99 97 96
152 145 113
144 135 114
195 182 155
205 186 151
212 194 150
210 205 158
215 228 181
212 220 170
212 193 147
208 200 171
209 228 214
31 46 73
0 0 42
84 89 103
225 238 255
225 238 255
225 238 255
225 238 255
225 238 255
225 238 255
225 238 255
225 238 255
225 238 255
225 238 255
225 238 255
225 238 255
225 238 255
225 238 255
225 238 255
225 238 255
225 238 255
225 238 255
225 238 255
225 238 255
225 238 255
225 238 255
225 238 255
225 238 255
225 238 255
225 238 255
225 238 255
225 238 255
225 238 255
225 238 255
225 238 255
225 238 255
225 238 255
225 238 255
225 238 255
225 238 255
225 238 255
225 238 255
225 238 255
225 238 255
225 238 255
225 238 255
225 238 255
225 238 255
225 238 255
225 238 255
225 238 255
225 238 255
225 238 255
225 238 255
225 238 255
225 238 255
225 238 255
225 238 255
225 238 255
225 238 255
225 238 255
225 238 255
225 238 255
225 238 255
225 238 255
225 238 255
225 238 255
225 238 255
225 238 255
225 238 255
225 238 255
225 238 255
225 238 255
225 238 255
225 238 255
225 238 255
225 238 255
225 238 255
225 238 255
225 238 255
225 238 255
225 238 255
225 238 255
225 238 255
225 238 255
225 238 255
225 238 255
225 238 255
225 238 255
225 238 255
225 238 255
225 238 255
225 238 255
225 238 255
225 238 255
225 238 255
225 238 255
225 238 255
225 238 255
225 238 255
225 238 255
225 238 255
225 238 255
225 238 255
225 238 255
225 238 255
225 238 255
225 238 255
225 238 255
225 238 255
225 238 255
225 238 255
225 238 255
225 238 255
225 238 255
225 238 255
225 238 255
225 238 255
225 238 255
225 238 255
225 238 255
225 238 255
225 238 255
225 238 255
225 238 255
225 238 255
225 238 255
225 238 255
225 238 255
225 238 255
225 238 255
225 238 255
225 238 255
225 238 255
225 238 255
225 238 255
225 238 255
225 238 255
225 238 255
225 238 255
225 238 255
225 238 255
225 238 255
225 238 255
225 238 255
225 238 255
225 238 255
225 238 255
225 238 255
225 238 255
225 238 255
225 238 255
225 238 255
225 238 255
225 238 255
225 238 255
225 238 255
225 238 255
225 238 255
225 238 255
225 238 255
225 238 255
225 238 255
225 238 255
225 238 255
225 238 255
225 238 255
225 238 255
225 238 255
225 238 255
225 238 255
225 238 255
225 238 255
225 238 255
225 238 255
225 238 255
225 238 255
225 238 255
225 238 255
225 238 255
225 238 255
225 238 255
225 238 255
225 238 255
225 238 255
225 238 255
225 238 255
225 238 255
225 238 255
225 238 255
225 238 255
225 238 255
225 238 255
225 238 255
225 238 255
225 238 255
225 238 255
225 238 255
225 238 255
225 238 255
225 238 255
225 238 255
225 238 255
225 238 255
225 238 255
225 238 255
225 238 255
225 238 255
225 238 255
225 238 255
225 238 255
225 238 255
225 238 255
225 238 255
225 238 255
225 238 255
225 238 255
225 238 255
225 238 255
216 229 245
42 67 28
8 14 41
0 0 42
0 0 41
4 9 38
9 14 39
0 0 42
0 0 45
46 60 36
50 69 18
36 58 25
0 0 44
0 0 41
0 0 42
0 0 42
0 0 42
0 0 42
0 0 42
0 0 42
0 0 42
0 0 42
0 0 42
0 0 42
0 0 42
0 0 42
0 0 42
0 0 42
0 0 42
0 0 42
0 0 42
0 0 42
0 0 42
0 0 42
0 0 42
0 0 42
0 0 42
0 0 42
0 0 42
0 0 42
0 0 42
0 0 42
0 0 42
0 0 42
0 0 42
0 0 42
0 0 42
0 0 42
0 0 42
0 0 42
0 0 42
0 0 42
0 0 42
0 0 42
0 0 42
0 0 42
0 0 42
0 0 42
0 0 42
0 0 42
0 0 42
0 0 42
0 0 42
0 0 42
0 0 42
0 0 42
0 0 42
0 0 42
0 0 42
0 0 42
0 0 42
0 0 42
0 0 42
0 0 42
0 0 42
0 0 42
0 0 42
0 0 42
0 0 42
0 0 43
0 0 46
0 0 57
0 0 57
0 0 63
0 6 71
0 32 91
148 170 166
205 205 163
205 184 148
206 192 166
207 203 168
210 187 154
204 178 147
210 191 153
207 199 149
206 208 155
208 212 159
213 211 149
210 208 154
207 204 159
208 201 149
211 197 139
210 189 139
211 183 137
211 179 134
214 157 115
208 141 104
208 139 106
206 137 106
190 130 97
200 158 123
211 187 141
212 202 152
208 208 162
211 213 170
209 220 172
209 217 170
210 211 163
213 205 156
213 201 154
212 200 154
211 202 157
211 223 175
210 206 167
213 217 177
209 222 177
210 203 162
211 199 155
208 210 164
213 207 159
207 201 151
211 219 164
212 218 161
212 211 159
211 205 157
209 203 158
190 168 130
211 178 136
210 184 137
211 211 158
203 188 144
202 199 163
166 148 122
167 148 128
160 139 117
155 134 111
183 152 126
202 176 130
211 194 142
213 186 132
213 181 131
210 191 141
207 211 155
208 204 152
207 192 147
211 191 143
211 213 159
210 224 170
213 227 170
210 222 169
211 205 161
199 200 168
209 218 185
207 202 168
206 189 154
202 188 159
198 194 165
163 148 127
107 100 92
0 0 42
0 0 39
94 90 85
150 140 108
175 159 132
188 166 137
210 191 145
212 206 157
213 226 175
210 206 160
211 196 153
213 209 173
209 220 192
70 75 85
0 0 42
45 47 65
223 235 253
225 238 255
225 238 255
225 238 255
225 238 255
225 238 255
225 238 255
225 238 255
225 238 255
225 238 255
225 238 255
225 238 255
225 238 255
225 238 255
225 238 255
225 238 255
225 238 255
225 238 255
225 238 255
225 238 255
225 238 255
225 238 255
225 238 255
225 238 255
225 238 255
225 238 255
225 238 255
225 238 255
225 238 255
225 238 255
225 238 255
225 238 255
225 238 255
225 238 255
225 238 255
225 238 255
225 238 255
225 238 255
225 238 255
225 238 255
225 238 255
225 238 255
225 238 255
225 238 255
225 238 255
225 238 255
225 238 255
225 238 255
225 238 255
225 238 255
225 238 255
225 238 255
225 238 255
225 238 255
225 238 255
225 238 255
225 238 255
225 238 255
225 238 255
225 238 255
225 238 255
225 238 255
225 238 255
225 238 255
225 238 255
225 238 255
225 238 255
225 238 255
225 238 255
225 238 255
225 238 255
225 238 255
225 238 255
225 238 255
225 238 255
225 238 255
225 238 255
225 238 255
225 238 255
225 238 255
225 238 255
225 238 255
225 238 255
225 238 255
225 238 255
225 238 255
225 238 255
225 238 255
225 238 255
225 238 255
225 238 255
225 238 255
225 238 255
225 238 255
225 238 255
225 238 255
225 238 255
225 238 255
225 238 255
225 238 255
225 238 255
225 238 255
225 238 255
225 238 255
225 238 255
225 238 255
225 238 255
225 238 255
225 238 255
225 238 255
225 238 255
225 238 255
225 238 255
225 238 255
225 238 255
225 238 255
225 238 255
225 238 255
225 238 255
225 238 255
225 238 255
225 238 255
225 238 255
225 238 255
225 238 255
225 238 255
225 238 255
225 238 255
225 238 255
225 238 255
225 238 255
225 238 255
225 238 255
225 238 255
225 238 255
225 238 255
225 238 255
225 238 255
225 238 255
225 238 255
225 238 255
225 238 255
225 238 255
225 238 255
225 238 255
225 238 255
225 238 255
225 238 255
225 238 255
225 238 255
225 238 255
225 238 255
225 238 255
225 238 255
225 238 255
225 238 255
225 238 255
225 238 255
225 238 255
225 238 255
225 238 255
225 238 255
225 238 255
225 238 255
225 238 255
225 238 255
225 238 255
225 238 255
225 238 255
225 238 255
225 238 255
225 238 255
225 238 255
225 238 255
225 238 255
225 238 255
225 238 255
225 238 255
225 238 255
225 238 255
225 238 255
225 238 255
225 238 255
225 238 255
225 238 255
225 238 255
225 238 255
225 238 255
225 238 255
225 238 255
225 238 255
225 238 255
225 238 255
225 238 255
225 238 255
225 238 255
225 238 255
225 238 255
225 238 255
225 238 255
225 238 255
225 238 255
225 238 255
225 238 255
225 238 255
225 238 255
225 238 255
225 238 255
225 238 255
225 238 255
225 238 255
225 238 255
225 238 255
225 238 255
225 238 255
176 189 198
32 55 26
0 0 42
0 0 42
0 0 42
15 24 36
28 44 28
5 8 41
26 38 32
53 67 31
52 70 20
46 71 21
20 27 38
0 0 42
0 0 41
0 0 43
0 0 42
0 0 42
0 0 42
0 0 41
0 0 42
0 0 42
0 0 42
0 0 42
0 0 42
0 0 42
0 0 42
0 0 42
0 0 42
0 0 42
0 0 42
0 0 42
0 0 42
0 0 42
0 0 42
0 0 42
0 0 42
0 0 42
0 0 42
0 0 42
0 0 42
0 0 42
0 0 42
0 0 42
0 0 42
0 0 42
0 0 42
0 0 42
0 0 42
0 0 42
0 0 42
0 0 42
0 0 42
0 0 42
0 0 42
0 0 42
0 0 42
0 0 42
0 0 42
0 0 42
0 0 42
0 0 42
0 0 42
0 0 42
0 0 42
0 0 42
0 0 42
0 0 42
0 0 42
0 0 42
0 0 42
0 0 42
0 0 42
0 0 42
0 0 42
0 0 42
0 0 43
0 0 45
0 0 44
0 0 44
0 0 46
0 0 61
0 3 64
0 11 74
0 8 75
40 63 114
206 221 189
210 200 164
203 201 169
210 211 178
209 207 170
207 203 156
210 198 157
209 199 155
209 211 161
203 207 155
204 190 143
208 200 146
209 210 154
211 206 152
214 202 144
211 194 139
205 185 135
206 191 144
216 190 142
209 156 116
213 152 113
208 155 116
214 168 127
210 173 130
214 190 140
208 200 150
205 205 154
211 221 177
209 223 185
209 224 179
212 222 172
212 216 167
211 202 156
210 196 154
211 195 153
211 206 162
213 220 173
209 213 170
217 223 176
212 222 171
209 207 159
207 194 147
212 206 155
213 206 155
210 203 154
209 215 157
210 222 164
213 217 165
209 213 163
210 208 160
202 195 154
204 172 136
212 206 155
211 214 162
207 195 147
209 190 148
181 169 141
165 141 124
149 130 111
152 135 112
171 143 115
207 183 133
213 215 157
210 192 139
210 176 126
212 205 147
214 191 137
214 198 145
211 201 150
210 207 157
215 217 165
211 218 166
213 217 163
215 212 162
210 204 159
201 200 168
210 221 181
211 210 168
209 193 151
208 192 157
196 177 149
174 164 138
140 131 110
15 14 49
0 0 41
0 0 44
146 133 93
151 141 102
178 160 135
206 192 148
212 199 148
210 217 164
212 193 149
212 212 175
211 217 182
201 206 180
23 35 77
0 0 42
0 0 42
187 197 213
225 238 255
225 238 255
225 238 255
225 238 255
225 238 255
225 238 255
225 238 255
225 238 255
225 238 255
225 238 255
225 238 255
225 238 255
225 238 255
225 238 255
225 238 255
225 238 255
225 238 255
225 238 255
225 238 255
225 238 255
225 238 255
225 238 255
225 238 255
225 238 255
225 238 255
225 238 255
225 238 255
225 238 255
225 238 255
225 238 255
225 238 255
225 238 255
225 238 255
225 238 255
225 238 255
225 238 255
225 238 255
225 238 255
225 238 255
225 238 255
225 238 255
225 238 255
225 238 255
225 238 255
225 238 255
225 238 255
225 238 255
225 238 255
225 238 255
225 238 255
225 238 255
225 238 255
225 238 255
225 238 255
225 238 255
225 238 255
225 238 255
225 238 255
225 238 255
225 238 255
225 238 255
225 238 255
225 238 255
225 238 255
225 238 255
225 238 255
225 238 255
225 238 255
225 238 255
225 238 255
225 238 255
225 238 255
225 238 255
225 238 255
225 238 255
225 238 255
225 238 255
225 238 255
225 238 255
225 238 255
225 238 255
225 238 255
225 238 255
225 238 255
225 238 255
225 238 255
225 238 255
225 238 255
225 238 255
225 238 255
225 238 255
225 238 255
225 238 255
225 238 255
225 238 255
225 238 255
225 238 255
225 238 255
225 238 255
225 238 255
225 238 255
225 238 255
225 238 255
225 238 255
225 238 255
225 238 255
225 238 255
225 238 255
225 238 255
225 238 255
225 238 255
225 238 255
225 238 255
225 238 255
225 238 255
225 238 255
225 238 255
225 238 255
225 238 255
225 238 255
225 238 255
225 238 255
225 238 255
225 238 255
225 238 255
225 238 255
225 238 255
225 238 255
225 238 255
225 238 255
225 238 255
225 238 255
225 238 255
225 238 255
225 238 255
225 238 255
225 238 255
225 238 255
225 238 255
225 238 255
225 238 255
225 238 255
225 238 255
225 238 255
225 238 255
225 238 255
225 238 255
225 238 255
225 238 255
225 238 255
225 238 255
225 238 255
225 238 255
225 238 255
225 238 255
225 238 255
225 238 255
225 238 255
225 238 255
225 238 255
225 238 255
225 238 255
225 238 255
225 238 255
225 238 255
225 238 255
225 238 255
225 238 255
225 238 255
225 238 255
225 238 255
225 238 255
225 238 255
225 238 255
225 238 255
225 238 255
225 238 255
225 238 255
225 238 255
225 238 255
225 238 255
225 238 255
225 238 255
225 238 255
225 238 255
225 238 255
225 238 255
225 238 255
225 238 255
225 238 255
225 238 255
225 238 255
225 238 255
225 238 255
225 238 255
225 238 255
225 238 255
225 238 255
225 238 255
225 238 255
225 238 255
225 238 255
225 238 255
225 238 255
225 238 255
225 238 255
225 238 255
225 238 255
225 238 255
225 238 255
225 238 255
225 238 255
225 238 255
225 238 255
143 154 161
23 42 33
0 0 40
0 0 42
0 0 42
0 5 42
0 2 42
3 5 40
11 18 41
42 52 34
29 40 38
32 44 40
17 23 40
20 31 30
15 21 41
0 0 43
0 0 42
0 0 42
0 0 41
0 0 42
0 0 42
0 0 42
0 0 42
0 0 42
0 0 42
0 0 42
0 0 42
0 0 42
0 0 42
0 0 42
0 0 42
0 0 42
0 0 42
0 0 42
0 0 42
0 0 42
0 0 42
0 0 42
0 0 42
0 0 42
0 0 42
0 0 42
0 0 42
0 0 42
0 0 42
0 0 42
0 0 42
0 0 42
0 0 42
0 0 42
0 0 42
0 0 42
0 0 42
0 0 42
0 0 42
0 0 42
0 0 42
0 0 42
0 0 42
0 0 42
0 0 42
0 0 42
0 0 42
0 0 42
0 0 42
0 0 42
0 0 42
0 0 42
0 0 42
0 0 42
0 0 42
0 0 42
0 0 42
0 0 42
0 0 42
0 0 42
0 0 45
0 0 48
0 0 49
0 0 51
0 0 53
0 0 59
0 10 71
0 18 86
0 24 87
34 72 121
190 212 190
210 206 164
209 222 184
211 216 173
206 206 162
208 210 161
204 194 152
208 196 155
197 177 133
189 169 134
202 196 145
212 212 156
212 214 157
209 209 152
210 202 150
211 191 140
210 184 133
212 187 140
212 191 146
207 182 137
207 186 139
211 200 150
209 197 148
204 197 148
208 202 150
213 214 158
209 217 164
209 223 182
209 221 186
212 219 177
212 209 163
211 204 160
210 199 159
210 196 155
210 195 153
208 211 165
215 210 163
211 218 169
213 216 164
211 210 164
211 205 154
211 193 145
210 195 149
213 198 154
209 202 158
214 221 160
210 228 171
213 226 175
210 223 170
210 205 157
211 213 166
209 212 171
208 214 166
212 208 157
211 201 149
213 195 148
201 197 159
178 164 137
160 142 117
163 144 122
169 140 112
203 173 129
212 215 161
211 205 154
214 198 143
210 201 145
212 186 133
208 188 137
211 203 145
209 216 164
213 219 165
213 213 160
214 213 155
213 210 156
211 202 156
207 199 154
207 199 156
210 211 168
205 197 159
205 199 162
206 189 153
178 159 134
167 152 129
95 93 84
5 3 42
0 0 38
52 46 52
139 125 92
163 153 129
188 168 131
212 199 148
212 202 153
209 184 141
214 210 177
210 209 178
195 187 156
48 47 72
0 0 42
0 0 42
153 161 176
225 238 255
225 238 255
225 238 255
225 238 255
225 238 255
225 238 255
225 238 255
225 238 255
225 238 255
225 238 255
225 238 255
225 238 255
225 238 255
225 238 255
225 238 255
225 238 255
225 238 255
225 238 255
225 238 255
225 238 255
225 238 255
225 238 255
225 238 255
225 238 255
225 238 255
225 238 255
225 238 255
225 238 255
225 238 255
225 238 255
225 238 255
225 238 255
225 238 255
225 238 255
225 238 255
225 238 255
225 238 255
225 238 255
225 238 255
225 238 255
225 238 255
225 238 255
225 238 255
225 238 255
225 238 255
225 238 255
225 238 255
225 238 255
225 238 255
225 238 255
225 238 255
225 238 255
225 238 255
225 238 255
225 238 255
225 238 255
225 238 255
225 238 255
225 238 255
225 238 255
225 238 255
225 238 255
225 238 255
225 238 255
225 238 255
225 238 255
225 238 255
225 238 255
225 238 255
225 238 255
225 238 255
225 238 255
225 238 255
225 238 255
225 238 255
225 238 255
225 238 255
225 238 255
225 238 255
225 238 255
225 238 255
225 238 255
225 238 255
225 238 255
225 238 255
225 238 255
225 238 255
225 238 255
225 238 255
225 238 255
225 238 255
225 238 255
225 238 255
225 238 255
225 238 255
225 238 255
225 238 255
225 238 255
225 238 255
225 238 255
225 238 255
225 238 255
225 238 255
225 238 255
225 238 255
225 238 255
225 238 255
225 238 255
225 238 255
225 238 255
225 238 255
225 238 255
225 238 255
225 238 255
225 238 255
225 238 255
225 238 255
225 238 255
225 238 255
225 238 255
225 238 255
225 238 255
225 238 255
225 238 255
225 238 255
225 238 255
225 238 255
225 238 255
225 238 255
225 238 255
225 238 255
225 238 255
225 238 255
225 238 255
225 238 255
225 238 255
225 238 255
225 238 255
225 238 255
225 238 255
225 238 255
225 238 255
225 238 255
225 238 255
225 238 255
225 238 255
225 238 255
225 238 255
225 238 255
225 238 255
225 238 255
225 238 255
225 238 255
225 238 255
225 238 255
225 238 255
225 238 255
225 238 255
225 238 255
225 238 255
225 238 255
225 238 255
225 238 255
225 238 255
225 238 255
225 238 255
225 238 255
225 238 255
225 238 255
225 238 255
225 238 255
225 238 255
225 238 255
225 238 255
225 238 255
225 238 255
225 238 255
225 238 255
225 238 255
225 238 255
225 238 255
225 238 255
225 238 255
225 238 255
225 238 255
225 238 255
225 238 255
225 238 255
225 238 255
225 238 255
225 238 255
225 238 255
225 238 255
225 238 255
225 238 255
225 238 255
225 238 255
225 238 255
225 238 255
225 238 255
225 238 255
225 238 255
225 238 255
225 238 255
225 238 255
225 238 255
225 238 255
225 238 255
225 238 255
225 238 255
225 238 255
225 238 255
225 238 255
225 238 255
88 100 94
17 31 35
0 2 43
0 0 42
0 0 42
0 0 40
0 0 42
0 0 43
0 0 42
9 11 45
0 0 41
0 0 44
0 0 40
35 52 36
19 30 35
0 0 42
0 0 42
0 0 42
0 0 40
0 0 42
0 0 42
0 0 42
0 0 42
0 0 42
0 0 42
0 0 42
0 0 42
0 0 42
0 0 42
0 0 42
0 0 42
0 0 42
0 0 42
0 0 42
0 0 42
0 0 42
0 0 42
0 0 42
0 0 42
0 0 42
0 0 42
0 0 42
0 0 42
0 0 42
0 0 42
0 0 42
0 0 42
0 0 42
0 0 42
0 0 42
0 0 42
0 0 42
0 0 42
0 0 42
0 0 42
0 0 42
0 0 42
0 0 42
0 0 42
0 0 42
0 0 42
0 0 42
0 0 42
0 0 42
0 0 42
0 0 42
0 0 42
0 0 42
0 0 42
0 0 42
0 0 42
0 0 42
0 0 42
0 0 42
0 0 42
0 0 43
0 0 49
0 0 54
0 0 59
0 0 62
0 2 63
0 9 64
0 8 69
0 26 91
0 33 97
2 80 123
77 126 149
191 204 163
211 211 169
214 216 163
213 218 163
208 203 159
198 175 139
189 163 125
204 198 156
214 223 181
212 225 174
211 222 171
211 223 170
210 215 158
213 207 155
209 196 145
214 196 143
216 197 146
211 207 158
212 222 171
212 227 176
215 231 179
209 228 180
211 227 175
208 225 174
214 228 171
216 221 165
210 211 165
201 200 163
210 204 166
213 198 157
208 189 149
205 186 148
202 185 150
194 176 139
206 197 156
211 206 162
216 211 160
211 207 158
214 208 157
215 206 154
210 190 144
210 183 142
207 185 151
186 174 136
206 217 165
211 230 169
211 229 181
217 233 178
210 220 167
212 200 152
211 221 178
211 228 183
211 218 165
212 202 151
213 220 161
208 220 161
212 215 170
183 183 152
181 168 146
173 138 113
201 162 124
212 194 143
212 203 147
210 198 144
209 173 128
211 175 125
210 177 124
211 205 151
208 219 175
211 221 172
213 206 149
213 204 146
212 215 159
211 205 158
211 194 145
213 184 140
207 193 150
193 188 157
208 199 165
209 196 154
194 173 147
186 171 143
171 156 130
102 98 95
6 4 41
0 0 45
93 86 68
144 135 100
166 148 125
216 199 151
213 196 148
205 181 146
215 200 167
213 201 168
143 133 118
14 14 43
0 0 42
0 0 42
93 98 112
225 238 255
225 238 255
225 238 255
225 238 255
225 238 255
225 238 255
225 238 255
225 238 255
225 238 255
225 238 255
225 238 255
225 238 255
225 238 255
225 238 255
225 238 255
225 238 255
225 238 255
225 238 255
225 238 255
225 238 255
225 238 255
225 238 255
225 238 255
225 238 255
225 238 255
225 238 255
225 238 255
225 238 255
225 238 255
225 238 255
225 238 255
225 238 255
225 238 255
225 238 255
225 238 255
225 238 255
225 238 255
225 238 255
225 238 255
225 238 255
225 238 255
225 238 255
225 238 255
225 238 255
225 238 255
225 238 255
225 238 255
225 238 255
225 238 255
225 238 255
225 238 255
225 238 255
225 238 255
225 238 255
225 238 255
225 238 255
225 238 255
225 238 255
225 238 255
225 238 255
225 238 255
225 238 255
225 238 255
225 238 255
225 238 255
225 238 255
225 238 255
225 238 255
225 238 255
225 238 255
225 238 255
225 238 255
225 238 255
225 238 255
225 238 255
225 238 255
225 238 255
225 238 255
225 238 255
225 238 255
225 238 255
225 238 255
225 238 255
225 238 255
225 238 255
225 238 255
225 238 255
225 238 255
225 238 255
225 238 255
225 238 255
225 238 255
225 238 255
225 238 255
225 238 255
225 238 255
225 238 255
225 238 255
225 238 255
225 238 255
225 238 255
225 238 255
225 238 255
225 238 255
225 238 255
225 238 255
225 238 255
225 238 255
225 238 255
225 238 255
225 238 255
225 238 255
225 238 255
225 238 255
225 238 255
225 238 255
225 238 255
225 238 255
225 238 255
225 238 255
225 238 255
225 238 255
225 238 255
225 238 255
225 238 255
225 238 255
225 238 255
225 238 255
225 238 255
225 238 255
225 238 255
225 238 255
225 238 255
225 238 255
225 238 255
225 238 255
225 238 255
225 238 255
225 238 255
225 238 255
225 238 255
225 238 255
225 238 255
225 238 255
225 238 255
225 238 255
225 238 255
225 238 255
225 238 255
225 238 255
225 238 255
225 238 255
225 238 255
225 238 255
225 238 255
225 238 255
225 238 255
225 238 255
225 238 255
225 238 255
225 238 255
225 238 255
225 238 255
225 238 255
225 238 255
225 238 255
225 238 255
225 238 255
225 238 255
225 238 255
225 238 255
225 238 255
225 238 255
225 238 255
225 238 255
225 238 255
225 238 255
225 238 255
225 238 255
225 238 255
225 238 255
225 238 255
225 238 255
225 238 255
225 238 255
225 238 255
225 238 255
225 238 255
225 238 255
225 238 255
225 238 255
225 238 255
225 238 255
225 238 255
225 238 255
225 238 255
225 238 255
225 238 255
225 238 255
225 238 255
225 238 255
225 238 255
225 238 255
225 238 255
225 238 255
225 238 255
225 238 255
225 238 255
225 238 255
225 238 255
225 238 255
225 238 255
225 238 255
218 231 248
38 57 21
38 61 6
11 19 40
0 0 42
0 0 42
0 0 42
0 0 42
0 0 41
0 0 42
0 0 41
0 0 40
0 0 42
0 0 41
0 0 45
0 0 43
0 0 41
0 0 41
0 0 42
0 0 40
0 0 42
0 0 41
0 0 42
0 0 42
0 0 42
0 0 42
0 0 42
0 0 42
0 0 42
0 0 42
0 0 42
0 0 42
0 0 42
0 0 42
0 0 42
0 0 42
0 0 42
0 0 42
0 0 42
0 0 42
0 0 42
0 0 42
0 0 42
0 0 42
0 0 42
0 0 42
0 0 42
0 0 42
0 0 42
0 0 42
0 0 42
0 0 42
0 0 42
0 0 42
0 0 42
0 0 42
0 0 42
0 0 42
0 0 42
0 0 42
0 0 42
0 0 42
0 0 42
0 0 42
0 0 42
0 0 42
0 0 42
0 0 42
0 0 42
0 0 42
0 0 42
0 0 42
0 0 42
0 0 43
0 0 42
0 0 43
0 0 44
0 0 51
0 0 55
0 0 62
0 6 70
0 13 78
0 18 81
0 28 86
0 45 105
0 45 104
0 74 121
36 99 132
184 203 166
207 202 150
208 203 153
204 191 144
206 189 147
196 165 129
199 167 129
212 208 159
211 228 178
206 224 182
214 229 191
213 224 177
210 216 158
213 210 154
212 208 152
211 212 155
213 220 162
213 222 167
212 228 175
209 228 182
211 230 187
208 228 187
211 230 186
210 229 185
208 229 179
212 219 164
206 195 143
209 195 152
207 189 151
211 197 157
205 190 152
194 172 139
207 186 157
199 180 146
208 193 153
207 197 155
207 198 151
212 203 152
211 203 152
212 204 154
212 196 148
210 187 143
192 170 137
202 183 153
207 208 166
208 228 177
212 230 176
212 228 177
213 223 172
212 217 166
213 228 187
211 230 186
209 228 177
214 229 180
213 228 179
210 223 169
215 220 170
208 220 172
210 196 149
202 175 140
206 173 135
216 186 139
211 192 137
213 182 130
207 168 122
208 170 125
213 176 125
212 209 152
209 231 190
208 219 173
214 205 148
213 200 147
208 203 154
214 204 157
210 204 149
210 191 140
210 183 135
189 174 141
204 184 149
207 187 151
209 186 152
185 168 139
159 143 126
165 153 118
75 71 73
0 0 44
6 6 53
124 122 92
147 134 110
193 180 143
211 193 152
206 187 154
203 188 154
210 203 167
96 93 92
0 0 41
0 0 42
0 0 42
0 0 42
220 232 249
225 238 255
225 238 255
225 238 255
225 238 255
225 238 255
225 238 255
225 238 255
225 238 255
225 238 255
225 238 255
225 238 255
225 238 255
225 238 255
225 238 255
225 238 255
225 238 255
225 238 255
225 238 255
225 238 255
225 238 255
225 238 255
225 238 255
225 238 255
225 238 255
225 238 255
225 238 255
225 238 255
225 238 255
225 238 255
225 238 255
225 238 255
225 238 255
225 238 255
225 238 255
225 238 255
225 238 255
225 238 255
225 238 255
225 238 255
225 238 255
225 238 255
225 238 255
225 238 255
225 238 255
225 238 255
225 238 255
225 238 255
225 238 255
225 238 255
225 238 255
225 238 255
225 238 255
225 238 255
225 238 255
225 238 255
225 238 255
225 238 255
225 238 255
225 238 255
225 238 255
225 238 255
225 238 255
225 238 255
225 238 255
225 238 255
225 238 255
225 238 255
225 238 255
225 238 255
225 238 255
225 238 255
225 238 255
225 238 255
225 238 255
225 238 255
225 238 255
225 238 255
225 238 255
225 238 255
225 238 255
225 238 255
225 238 255
225 238 255
225 238 255
225 238 255
225 238 255
225 238 255
225 238 255
225 238 255
225 238 255
225 238 255
225 238 255
225 238 255
225 238 255
225 238 255
225 238 255
225 238 255
225 238 255
225 238 255
225 238 255
225 238 255
225 238 255
225 238 255
225 238 255
225 238 255
225 238 255
225 238 255
225 238 255
225 238 255
225 238 255
225 238 255
225 238 255
225 238 255
225 238 255
225 238 255
225 238 255
225 238 255
225 238 255
225 238 255
225 238 255
225 238 255
225 238 255
225 238 255
225 238 255
225 238 255
225 238 255
225 238 255
225 238 255
225 238 255
225 238 255
225 238 255
225 238 255
225 238 255
225 238 255
225 238 255
225 238 255
225 238 255
225 238 255
225 238 255
225 238 255
225 238 255
225 238 255
225 238 255
225 238 255
225 238 255
225 238 255
225 238 255
225 238 255
225 238 255
225 238 255
225 238 255
225 238 255
225 238 255
225 238 255
225 238 255
225 238 255
225 238 255
225 238 255
225 238 255
225 238 255
225 238 255
225 238 255
225 238 255
225 238 255
225 238 255
225 238 255
225 238 255
225 238 255
225 238 255
225 238 255
225 238 255
225 238 255
225 238 255
225 238 255
225 238 255
225 238 255
225 238 255
225 238 255
225 238 255
225 238 255
225 238 255
225 238 255
225 238 255
225 238 255
225 238 255
225 238 255
225 238 255
225 238 255
225 238 255
225 238 255
225 238 255
225 238 255
225 238 255
225 238 255
225 238 255
225 238 255
225 238 255
225 238 255
225 238 255
225 238 255
225 238 255
225 238 255
225 238 255
225 238 255
225 238 255
225 238 255
225 238 255
225 238 255
225 238 255
225 238 255
225 238 255
225 238 255
190 201 217
46 66 11
44 66 11
12 18 45
0 0 42
0 0 42
0 0 42
0 0 42
0 0 42
0 0 42
0 0 42
0 0 42
0 0 42
0 0 43
0 0 40
0 0 43
0 0 39
0 0 43
0 0 43
0 0 40
0 0 42
0 0 41
0 0 42
0 0 42
0 0 42
0 0 42
0 0 42
0 0 42
0 0 42
0 0 42
0 0 42
0 0 42
0 0 42
0 0 42
0 0 42
0 0 42
0 0 42
0 0 42
0 0 42
0 0 42
0 0 42
0 0 42
0 0 42
0 0 42
0 0 42
0 0 42
0 0 42
0 0 42
0 0 42
0 0 42
0 0 42
0 0 42
0 0 42
0 0 42
0 0 42
0 0 42
0 0 42
0 0 42
0 0 42
0 0 42
0 0 42
0 0 42
0 0 42
0 0 42
0 0 42
0 0 42
0 0 42
0 0 42
0 0 42
0 0 42
0 0 42
0 0 42
0 0 41
0 0 46
0 0 42
0 0 44
0 0 48
0 0 50
0 0 54
0 0 63
0 0 70
0 9 74
0 25 87
0 46 104
0 52 110
0 54 112
0 53 111
88 113 126
195 202 155
207 199 156
210 171 126
198 164 117
215 202 146
206 192 142
203 183 139
205 197 150
211 209 154
212 223 167
211 229 186
207 226 180
211 222 163
211 219 162
209 219 163
211 225 169
212 228 171
216 233 176
209 228 177
213 231 185
212 230 189
211 230 194
214 232 200
214 232 202
214 231 191
215 225 170
211 207 151
216 202 152
205 184 139
213 204 153
203 191 148
196 171 137
202 177 143
208 193 152
210 207 160
209 208 160
211 209 161
213 213 163
212 212 161
211 203 154
211 196 146
213 197 153
190 167 132
177 156 127
166 151 123
191 194 153
212 228 174
211 229 176
215 231 182
212 228 179
211 229 180
213 232 187
216 233 192
212 231 198
211 230 203
210 230 194
211 229 185
210 224 189
209 204 157
207 199 153
210 204 159
209 191 141
212 184 134
216 184 132
210 179 131
211 187 141
212 198 146
209 207 151
211 226 182
214 226 171
215 202 142
210 197 147
210 209 162
213 207 159
213 212 157
210 184 136
212 180 132
203 177 134
208 180 139
194 170 137
195 174 143
192 170 136
170 153 130
157 142 121
136 131 106
0 0 50
2 6 50
59 57 73
153 141 102
183 167 137
211 199 162
205 190 153
188 164 133
195 173 140
126 113 94
0 0 43
0 0 41
0 0 42
0 0 42
194 205 221
225 238 255
225 238 255
225 238 255
225 238 255
225 238 255
225 238 255
225 238 255
225 238 255
225 238 255
225 238 255
225 238 255
225 238 255
225 238 255
225 238 255
225 238 255
225 238 255
225 238 255
225 238 255
225 238 255
225 238 255
225 238 255
225 238 255
225 238 255
225 238 255
225 238 255
225 238 255
225 238 255
225 238 255
225 238 255
225 238 255
225 238 255
225 238 255
225 238 255
225 238 255
225 238 255
225 238 255
225 238 255
225 238 255
225 238 255
225 238 255
225 238 255
225 238 255
225 238 255
225 238 255
225 238 255
225 238 255
225 238 255
225 238 255
225 238 255
225 238 255
225 238 255
225 238 255
225 238 255
225 238 255
225 238 255
225 238 255
225 238 255
225 238 255
225 238 255
225 238 255
225 238 255
225 238 255
225 238 255
225 238 255
225 238 255
225 238 255
225 238 255
225 238 255
225 238 255
225 238 255
225 238 255
225 238 255
225 238 255
225 238 255
225 238 255
225 238 255
225 238 255
225 238 255
225 238 255
225 238 255
225 238 255
225 238 255
225 238 255
225 238 255
225 238 255
225 238 255
225 238 255
225 238 255
225 238 255
225 238 255
225 238 255
225 238 255
225 238 255
225 238 255
225 238 255
225 238 255
225 238 255
225 238 255
225 238 255
225 238 255
225 238 255
225 238 255
225 238 255
225 238 255
225 238 255
225 238 255
225 238 255
225 238 255
225 238 255
225 238 255
225 238 255
225 238 255
225 238 255
225 238 255
225 238 255
225 238 255
225 238 255
225 238 255
225 238 255
225 238 255
225 238 255
225 238 255
225 238 255
225 238 255
225 238 255
225 238 255
225 238 255
225 238 255
225 238 255
225 238 255
225 238 255
225 238 255
225 238 255
225 238 255
225 238 255
225 238 255
225 238 255
225 238 255
225 238 255
225 238 255
225 238 255
225 238 255
225 238 255
225 238 255
225 238 255
225 238 255
225 238 255
225 238 255
225 238 255
225 238 255
225 238 255
225 238 255
225 238 255
225 238 255
225 238 255
225 238 255
225 238 255
225 238 255
225 238 255
225 238 255
225 238 255
225 238 255
225 238 255
225 238 255
225 238 255
225 238 255
225 238 255
225 238 255
225 238 255
225 238 255
225 238 255
225 238 255
225 238 255
225 238 255
225 238 255
225 238 255
225 238 255
225 238 255
225 238 255
225 238 255
225 238 255
225 238 255
225 238 255
225 238 255
225 238 255
225 238 255
225 238 255
225 238 255
225 238 255
225 238 255
225 238 255
225 238 255
225 238 255
225 238 255
225 238 255
225 238 255
225 238 255
225 238 255
225 238 255
225 238 255
225 238 255
225 238 255
225 238 255
225 238 255
225 238 255
225 238 255
225 238 255
225 238 255
225 238 255
225 238 255
225 238 255
225 238 255
158 167 182
45 65 13
39 64 16
6 9 43
0 0 42
0 0 42
0 0 42
0 0 42
0 0 42
0 0 42
0 0 42
0 0 42
0 0 42
0 0 42
0 0 42
0 0 42
0 0 42
0 0 42
4 7 40
0 0 43
0 0 42
0 0 41
0 0 42
0 0 42
0 0 42
0 0 42
0 0 42
0 0 42
0 0 42
0 0 42
0 0 42
0 0 42
0 0 42
0 0 42
0 0 42
0 0 42
0 0 42
0 0 42
0 0 42
0 0 42
0 0 42
0 0 42
0 0 42
0 0 42
0 0 42
0 0 42
0 0 42
0 0 42
0 0 42
0 0 42
0 0 42
0 0 42
0 0 42
0 0 42
0 0 42
0 0 42
0 0 42
0 0 42
0 0 42
0 0 42
0 0 42
0 0 42
0 0 42
0 0 42
0 0 42
0 0 42
0 0 41
0 0 41
0 0 42
0 0 42
0 0 41
0 0 40
0 0 42
0 0 42
0 0 41
0 0 39
0 0 47
0 0 50
0 0 54
0 0 61
0 0 66
0 7 69
0 18 79
0 62 117
0 42 101
0 41 102
0 43 103
32 79 114
183 194 167
206 211 175
211 190 129
209 188 140
213 195 142
211 209 158
209 211 161
213 210 158
211 186 140
213 199 148
211 207 165
213 223 175
211 224 165
212 220 162
212 226 168
214 231 178
216 231 189
210 228 188
210 229 178
209 229 177
213 231 181
213 231 183
213 230 187
215 230 186
214 231 179
208 217 160
209 205 148
212 200 148
210 202 152
214 207 155
212 197 150
202 178 141
204 178 143
207 186 145
213 206 160
213 213 166
217 215 168
217 212 165
210 207 161
213 202 157
213 190 144
210 182 142
195 166 132
179 155 130
177 153 136
175 156 123
201 211 165
209 229 180
212 231 196
214 232 194
214 231 186
211 232 193
211 230 203
212 231 208
211 230 193
214 229 178
216 226 172
209 222 174
212 210 163
211 211 174
216 216 171
214 200 148
211 206 149
209 196 144
208 184 138
193 182 136
205 180 135
210 210 151
211 230 169
210 215 154
208 200 139
209 200 151
213 214 160
216 213 159
211 205 153
210 176 127
202 160 118
211 177 127
206 175 129
192 161 123
179 159 131
182 163 131
192 168 136
158 149 120
144 136 105
38 39 76
5 9 50
12 11 56
145 133 92
180 164 128
209 193 155
212 202 163
200 178 139
184 161 124
49 46 59
0 0 41
0 0 41
0 0 42
0 0 42
162 171 186
225 238 255
225 238 255
225 238 255
225 238 255
225 238 255
225 238 255
225 238 255
225 238 255
225 238 255
225 238 255
225 238 255
225 238 255
225 238 255
225 238 255
225 238 255
225 238 255
225 238 255
225 238 255
225 238 255
225 238 255
225 238 255
225 238 255
225 238 255
225 238 255
225 238 255
225 238 255
225 238 255
225 238 255
225 238 255
225 238 255
225 238 255
225 238 255
225 238 255
225 238 255
225 238 255
225 238 255
225 238 255
225 238 255
225 238 255
225 238 255
225 238 255
225 238 255
225 238 255
225 238 255
225 238 255
225 238 255
225 238 255
225 238 255
225 238 255
225 238 255
225 238 255
225 238 255
225 238 255
225 238 255
225 238 255
225 238 255
225 238 255
225 238 255
225 238 255
225 238 255
225 238 255
225 238 255
225 238 255
225 238 255
225 238 255
225 238 255
225 238 255
225 238 255
225 238 255
225 238 255
225 238 255
225 238 255
225 238 255
225 238 255
225 238 255
225 238 255
225 238 255
225 238 255
225 238 255
225 238 255
225 238 255
225 238 255
225 238 255
225 238 255
225 238 255
225 238 255
225 238 255
225 238 255
225 238 255
225 238 255
225 238 255
225 238 255
225 238 255
225 238 255
225 238 255
225 238 255
225 238 255
225 238 255
225 238 255
225 238 255
225 238 255
225 238 255
225 238 255
225 238 255
225 238 255
225 238 255
225 238 255
225 238 255
225 238 255
225 238 255
225 238 255
225 238 255
225 238 255
225 238 255
225 238 255
225 238 255
225 238 255
225 238 255
225 238 255
225 238 255
225 238 255
225 238 255
225 238 255
225 238 255
225 238 255
225 238 255
225 238 255
225 238 255
225 238 255
225 238 255
225 238 255
225 238 255
225 238 255
225 238 255
225 238 255
225 238 255
225 238 255
225 238 255
225 238 255
225 238 255
225 238 255
225 238 255
225 238 255
225 238 255
225 238 255
225 238 255
225 238 255
225 238 255
225 238 255
225 238 255
225 238 255
225 238 255
225 238 255
225 238 255
225 238 255
225 238 255
225 238 255
225 238 255
225 238 255
225 238 255
225 238 255
225 238 255
225 238 255
225 238 255
225 238 255
225 238 255
225 238 255
225 238 255
225 238 255
225 238 255
225 238 255
225 238 255
225 238 255
225 238 255
225 238 255
225 238 255
225 238 255
225 238 255
225 238 255
225 238 255
225 238 255
225 238 255
225 238 255
225 238 255
225 238 255
225 238 255
225 238 255
225 238 255
225 238 255
225 238 255
225 238 255
225 238 255
225 238 255
225 238 255
225 238 255
225 238 255
225 238 255
225 238 255
225 238 255
225 238 255
225 238 255
225 238 255
225 238 255
225 238 255
225 238 255
225 238 255
225 238 255
225 238 255
225 238 255
225 238 255
226 238 255
225 238 255
108 114 129
45 70 27
37 60 25
0 0 41
0 0 42
0 0 42
0 0 42
0 0 42
0 0 42
0 0 42
0 0 42
0 0 42
0 0 42
0 0 42
0 0 42
0 0 42
0 0 42
0 1 42
8 15 36
0 0 43
0 0 38
0 0 41
0 0 42
0 0 41
0 0 40
0 0 41
0 0 42
0 0 42
0 0 42
0 0 42
0 0 42
0 0 42
0 0 42
0 0 42
0 0 42
0 0 42
0 0 42
0 0 42
0 0 42
0 0 42
0 0 42
0 0 42
0 0 42
0 0 42
0 0 42
0 0 42
0 0 42
0 0 42
0 0 42
0 0 42
0 0 42
0 0 42
0 0 42
0 0 42
0 0 42
0 0 42
0 0 42
0 0 42
0 0 42
0 0 42
0 0 42
0 0 42
0 0 42
0 0 42
0 0 42
0 0 42
0 0 41
0 0 41
0 0 42
0 0 42
0 0 41
0 0 41
0 0 46
0 0 42
0 0 41
0 0 45
0 0 51
0 0 53
0 0 54
0 0 55
0 0 55
0 0 57
0 0 67
0 30 84
0 24 85
0 35 96
0 31 93
2 46 102
139 172 169
211 211 162
207 198 137
206 201 145
213 204 147
212 201 147
212 200 155
206 181 136
207 171 131
204 182 136
204 200 153
213 218 170
211 215 164
210 214 163
211 219 175
213 222 189
214 230 208
212 231 210
214 231 201
209 228 191
215 232 190
214 230 184
211 226 172
213 226 168
212 222 163
212 214 154
212 209 149
211 210 151
215 211 155
207 197 146
211 191 143
206 179 139
204 176 137
208 186 145
215 202 159
210 203 161
210 201 160
214 205 163
214 197 156
211 190 148
212 179 141
205 166 136
193 156 130
182 152 127
169 145 120
199 183 147
210 218 173
213 231 194
213 231 209
214 232 210
214 231 207
213 232 212
214 232 208
216 233 202
214 230 177
214 226 164
213 225 176
214 224 181
212 215 178
213 219 180
213 220 171
212 211 156
210 221 162
213 211 160
200 172 137
192 162 128
208 182 141
210 207 152
212 226 155
215 216 149
211 208 148
212 203 149
214 219 162
215 211 157
213 204 153
210 187 143
207 174 132
210 174 125
206 169 127
195 159 123
182 160 130
169 149 124
179 161 128
174 158 123
138 133 94
105 97 98
19 30 72
0 0 43
115 110 84
126 116 83
185 160 124
205 188 152
198 174 136
128 119 99
2 0 43
0 0 42
0 0 40
0 0 42
0 0 42
115 121 135
225 238 255
226 238 255
225 238 255
225 238 255
225 238 255
225 238 255
225 238 255
225 238 255
225 238 255
225 238 255
225 238 255
225 238 255
225 238 255
225 238 255
225 238 255
225 238 255
225 238 255
225 238 255
225 238 255
225 238 255
225 238 255
225 238 255
225 238 255
225 238 255
225 238 255
225 238 255
225 238 255
225 238 255
225 238 255
225 238 255
225 238 255
225 238 255
225 238 255
225 238 255
225 238 255
225 238 255
225 238 255
225 238 255
225 238 255
225 238 255
225 238 255
225 238 255
225 238 255
225 238 255
225 238 255
225 238 255
225 238 255
225 238 255
225 238 255
225 238 255
225 238 255
225 238 255
225 238 255
225 238 255
225 238 255
225 238 255
225 238 255
225 238 255
225 238 255
225 238 255
225 238 255
225 238 255
225 238 255
225 238 255
225 238 255
225 238 255
225 238 255
225 238 255
225 238 255
225 238 255
225 238 255
225 238 255
225 238 255
225 238 255
225 238 255
225 238 255
225 238 255
225 238 255
225 238 255
225 238 255
225 238 255
225 238 255
225 238 255
225 238 255
225 238 255
225 238 255
225 238 255
225 238 255
225 238 255
225 238 255
225 238 255
225 238 255
225 238 255
225 238 255
225 238 255
225 238 255
225 238 255
225 238 255
225 238 255
225 238 255
225 238 255
225 238 255
225 238 255
225 238 255
225 238 255
225 238 255
225 238 255
225 238 255
225 238 255
225 238 255
225 238 255
225 238 255
225 238 255
225 238 255
225 238 255
225 238 255
225 238 255
225 238 255
225 238 255
225 238 255
225 238 255
225 238 255
225 238 255
225 238 255
225 238 255
225 238 255
225 238 255
225 238 255
225 238 255
225 238 255
225 238 255
225 238 255
225 238 255
225 238 255
225 238 255
225 238 255
225 238 255
225 238 255
225 238 255
225 238 255
225 238 255
225 238 255
225 238 255
225 238 255
225 238 255
225 238 255
225 238 255
225 238 255
225 238 255
225 238 255
225 238 255
225 238 255
225 238 255
225 238 255
225 238 255
225 238 255
225 238 255
225 238 255
225 238 255
225 238 255
225 238 255
225 238 255
225 238 255
225 238 255
225 238 255
226 238 255
226 238 255
226 238 255
226 238 255
226 238 255
226 238 255
226 238 255
226 238 255
226 238 255
226 238 255
226 238 255
226 238 255
226 238 255
226 238 255
226 238 255
226 238 255
226 238 255
226 238 255
226 238 255
226 238 255
226 238 255
226 238 255
226 238 255
226 238 255
226 238 255
226 238 255
226 238 255
226 238 255
226 238 255
226 238 255
226 238 255
226 238 255
226 238 255
226 238 255
226 238 255
226 238 255
226 238 255
226 238 255
226 238 255
226 238 255
226 238 255
226 238 255
226 238 255
226 238 255
226 238 255
226 238 255
226 238 255
55 58 80
48 72 28
26 42 35
0 0 41
0 0 42
0 0 42
0 0 42
0 0 42
0 0 42
0 0 42
0 0 42
0 0 42
0 0 42
0 0 42
0 0 42
0 0 42
0 0 41
0 0 41
4 4 43
0 0 41
0 0 42
0 0 42
0 0 43
0 0 42
0 0 42
0 0 42
0 0 42
0 0 42
0 0 42
0 0 42
0 0 42
0 0 42
0 0 42
0 0 42
0 0 42
0 0 42
0 0 42
0 0 42
0 0 42
0 0 42
0 0 42
0 0 42
0 0 42
0 0 42
0 0 42
0 0 42
0 0 42
0 0 42
0 0 42
0 0 42
0 0 42
0 0 42
0 0 42
0 0 42
0 0 42
0 0 42
0 0 42
0 0 42
0 0 42
0 0 42
0 0 42
0 0 42
0 0 42
0 0 42
0 0 42
0 0 42
0 0 42
0 0 42
0 0 42
0 0 42
0 0 42
0 0 39
0 0 41
0 0 49
0 0 45
0 0 48
0 0 49
0 0 49
0 0 50
0 0 51
0 0 53
0 0 52
0 0 59
0 4 65
0 20 80
0 38 97
0 33 92
0 74 119
131 164 150
214 191 144
208 183 138
214 191 139
213 196 143
212 190 141
213 186 146
201 169 131
207 167 130
207 192 150
211 209 165
216 222 174
208 227 178
213 231 181
216 223 171
214 211 155
215 212 159
216 222 178
208 224 193
209 228 203
214 231 200
213 229 189
213 224 173
211 218 162
214 212 153
212 202 147
211 204 146
212 210 147
215 210 154
209 191 145
208 184 137
206 179 136
207 180 137
213 189 145
213 198 152
211 201 156
211 206 162
213 204 161
211 194 153
213 186 143
205 170 135
183 145 121
172 133 114
189 157 132
187 164 135
205 202 161
216 226 173
212 228 191
212 231 206
213 231 216
210 228 219
214 231 221
213 231 207
212 230 187
211 229 175
216 228 180
214 230 199
209 229 206
211 228 228
211 229 227
208 224 181
214 227 163
212 217 155
209 197 148
213 192 149
206 180 139
211 183 139
211 203 143
215 221 152
214 201 140
214 189 134
211 198 144
213 214 155
216 223 163
212 205 155
212 191 142
216 183 137
206 167 123
203 160 125
186 154 119
163 148 113
141 132 98
156 147 105
149 142 100
135 138 93
120 115 82
65 62 74
0 0 44
71 64 56
112 108 70
150 134 100
174 156 123
178 160 121
73 65 65
0 0 40
0 0 40
0 0 42
0 0 42
0 0 42
39 41 60
226 238 255
226 238 255
226 238 255
226 238 255
226 238 255
226 238 255
226 238 255
226 238 255
226 238 255
226 238 255
226 238 255
226 238 255
226 238 255
226 238 255
226 238 255
226 238 255
226 238 255
226 238 255
226 238 255
226 238 255
226 238 255
226 238 255
226 238 255
226 238 255
226 238 255
226 238 255
226 238 255
226 238 255
226 238 255
226 238 255
226 238 255
226 238 255
226 238 255
226 238 255
226 238 255
226 238 255
226 238 255
226 238 255
226 238 255
226 238 255
226 238 255
226 238 255
226 238 255
226 238 255
226 238 255
226 238 255
226 238 255
226 238 255
225 238 255
225 238 255
225 238 255
225 238 255
225 238 255
225 238 255
225 238 255
225 238 255
225 238 255
225 238 255
225 238 255
225 238 255
225 238 255
225 238 255
225 238 255
225 238 255
225 238 255
225 238 255
225 238 255
225 238 255
225 238 255
225 238 255
225 238 255
225 238 255
225 238 255
225 238 255
225 238 255
225 238 255
225 238 255
225 238 255
225 238 255
225 238 255
225 238 255
225 238 255
225 238 255
225 238 255
225 238 255
225 238 255
225 238 255
225 238 255
225 238 255
225 238 255
225 238 255
225 238 255
225 238 255
225 238 255
225 238 255
225 238 255
225 238 255
225 238 255
225 238 255
225 238 255
225 238 255
225 238 255
225 238 255
225 238 255
225 238 255
225 238 255
225 238 255
225 238 255
225 238 255
225 238 255
225 238 255
225 238 255
225 238 255
225 238 255
225 238 255
225 238 255
225 238 255
225 238 255
225 238 255
225 238 255
225 238 255
225 238 255
225 238 255
225 238 255
225 238 255
225 238 255
225 238 255
225 238 255
226 238 255
225 238 255
226 238 255
226 238 255
226 238 255
226 238 255
226 238 255
226 238 255
226 238 255
226 238 255
226 238 255
226 238 255
226 238 255
226 238 255
226 238 255
226 238 255
226 238 255
226 238 255
226 238 255
226 238 255
226 238 255
226 238 255
226 238 255
226 238 255
226 238 255
226 238 255
226 238 255
226 238 255
226 238 255
226 238 255
226 238 255
226 238 255
226 238 255
226 238 255
226 238 255
226 238 255
226 238 255
226 238 255
226 238 255
226 238 255
226 238 255
226 238 255
226 238 255
226 238 255
226 238 255
226 238 255
226 238 255
226 238 255
226 238 255
226 238 255
226 238 255
226 238 255
226 238 255
226 238 255
226 238 255
226 238 255
226 238 255
226 238 255
226 238 255
226 238 255
226 238 255
226 238 255
226 238 255
226 238 255
226 238 255
226 238 255
226 238 255
226 238 255
226 238 255
226 238 255
226 238 255
226 238 255
226 238 255
226 238 255
226 238 255
226 238 255
226 238 255
226 238 255
226 238 255
226 238 255
226 238 255
226 238 255
226 238 255
209 221 238
0 11 56
57 85 32
20 33 40
0 0 42
0 0 42
0 0 42
0 0 42
0 0 41
0 0 41
0 0 42
0 0 42
0 0 42
0 0 42
0 0 42
0 0 42
0 0 42
0 0 42
0 0 36
5 6 45
0 0 42
0 0 40
0 0 45
0 0 46
0 0 41
0 0 42
0 0 42
0 0 42
0 0 42
0 0 42
0 0 42
0 0 42
0 0 42
0 0 42
0 0 42
0 0 42
0 0 42
0 0 42
0 0 42
0 0 42
0 0 42
0 0 42
0 0 42
0 0 42
0 0 42
0 0 42
0 0 42
0 0 42
0 0 42
0 0 42
0 0 42
0 0 42
0 0 42
0 0 42
0 0 42
0 0 42
0 0 42
0 0 42
0 0 42
0 0 42
0 0 42
0 0 42
0 0 42
0 0 42
0 0 42
0 0 42
0 0 42
0 0 42
0 0 42
0 0 41
0 0 42
0 0 42
20 20 51
10 10 40
0 0 46
0 0 45
0 0 45
0 0 42
0 0 42
0 0 44
0 0 51
0 0 54
0 0 56
0 0 57
0 7 67
0 11 71
0 28 86
0 50 108
35 135 148
179 176 138
199 162 125
210 165 126
209 166 123
199 165 123
189 161 119
194 166 129
187 159 120
201 167 130
207 191 150
206 176 134
208 182 138
212 201 156
212 205 158
210 206 159
207 195 151
204 177 137
212 189 148
214 206 156
210 221 174
214 221 177
209 213 164
210 208 155
214 207 155
211 204 152
212 203 151
211 200 151
213 201 143
211 202 147
209 199 154
202 176 131
206 176 132
212 184 139
209 186 141
206 186 138
210 192 146
214 199 153
211 194 149
210 185 144
207 173 131
201 168 132
185 153 128
173 140 118
192 166 137
206 190 154
210 212 166
210 225 174
215 232 191
212 230 194
212 227 197
210 229 205
213 231 196
212 229 186
210 228 186
214 231 200
215 231 209
212 231 208
213 231 215
214 231 208
210 230 204
213 230 189
210 219 157
209 204 148
212 199 151
195 177 134
200 179 137
209 185 141
211 206 150
209 198 141
210 178 131
211 177 132
211 180 140
212 192 143
208 211 156
213 195 148
213 184 137
212 172 129
208 163 122
191 153 121
149 131 96
133 127 88
114 122 73
114 117 66
104 117 65
98 113 56
107 111 69
145 139 110
88 84 77
29 27 51
109 104 69
119 114 85
142 129 96
115 105 90
6 4 42
0 0 41
0 0 40
0 0 42
0 0 43
0 0 42
0 0 42
208 219 236
226 238 255
226 238 255
226 238 255
226 238 255
226 238 255
226 238 255
226 238 255
226 238 255
226 238 255
226 238 255
226 238 255
226 238 255
226 238 255
226 238 255
226 238 255
226 238 255
226 238 255
226 238 255
226 238 255
226 238 255
226 238 255
226 238 255
226 238 255
226 238 255
226 238 255
226 238 255
226 238 255
226 238 255
226 238 255
226 238 255
226 238 255
226 238 255
226 238 255
226 238 255
226 238 255
226 238 255
226 238 255
226 238 255
226 238 255
226 238 255
226 238 255
226 238 255
226 238 255
226 238 255
226 238 255
226 238 255
226 238 255
226 238 255
226 238 255
226 238 255
226 238 255
226 238 255
226 238 255
226 238 255
226 238 255
226 238 255
226 238 255
226 238 255
226 238 255
226 238 255
226 238 255
226 238 255
226 238 255
226 238 255
226 238 255
226 238 255
226 238 255
226 238 255
226 238 255
226 238 255
226 238 255
226 238 255
226 238 255
226 238 255
226 238 255
226 238 255
226 238 255
226 238 255
226 238 255
226 238 255
226 238 255
226 238 255
225 238 255
225 238 255
225 238 255
225 238 255
225 238 255
225 238 255
225 238 255
225 238 255
225 238 255
225 238 255
225 238 255
225 238 255
225 238 255
225 238 255
225 238 255
225 238 255
225 238 255
225 238 255
225 238 255
225 238 255
225 238 255
225 238 255
225 238 255
226 238 255
226 238 255
226 238 255
226 238 255
226 238 255
226 238 255
226 238 255
226 238 255
226 238 255
226 238 255
226 238 255
226 238 255
226 238 255
226 238 255
226 238 255
226 238 255
226 238 255
226 238 255
226 238 255
226 238 255
226 238 255
226 238 255
226 238 255
226 238 255
226 238 255
226 238 255
226 238 255
226 238 255
226 238 255
226 238 255
226 238 255
226 238 255
226 238 255
226 238 255
226 238 255
226 238 255
226 238 255
226 238 255
226 238 255
226 238 255
226 238 255
226 238 255
226 238 255
226 238 255
226 238 255
226 238 255
226 238 255
226 238 255
226 238 255
226 238 255
226 238 255
226 238 255
226 238 255
226 238 255
226 238 255
226 238 255
226 238 255
226 238 255
226 238 255
226 238 255
226 238 255
226 238 255
226 238 255
226 238 255
226 238 255
226 238 255
226 238 255
226 238 255
226 238 255
226 238 255
226 238 255
226 238 255
226 238 255
226 238 255
226 238 255
226 238 255
226 238 255
226 238 255
226 238 255
226 238 255
226 238 255
226 238 255
226 238 255
226 238 255
226 238 255
226 238 255
226 238 255
226 238 255
226 238 255
226 238 255
226 238 255
226 238 255
226 238 255
226 238 255
226 238 255
226 238 255
226 238 255
226 238 255
226 238 255
226 238 255
226 238 255
226 238 255
226 238 255
226 238 255
226 238 255
182 192 208
4 15 63
52 83 29
2 4 41
0 0 42
0 0 42
0 0 42
0 0 42
0 0 42
0 0 40
0 0 43
0 0 44
0 0 42
0 0 44
0 0 42
0 0 42
0 0 42
0 0 42
0 0 42
12 15 38
0 0 43
0 0 43
0 0 49
0 0 46
0 0 42
0 0 42
0 0 42
0 0 39
0 0 41
0 0 42
0 0 42
0 0 42
0 0 42
0 0 42
0 0 42
0 0 42
0 0 42
0 0 42
0 0 42
0 0 42
0 0 42
0 0 42
0 0 42
0 0 42
0 0 42
0 0 42
0 0 42
0 0 42
0 0 42
0 0 42
0 0 42
0 0 42
0 0 42
0 0 42
0 0 42
0 0 42
0 0 42
0 0 42
0 0 42
0 0 42
0 0 42
0 0 42
0 0 42
0 0 42
0 0 42
0 0 42
0 0 42
0 0 42
0 0 42
0 0 42
0 0 42
0 0 42
10 10 47
5 5 47
0 0 48
0 0 39
2 2 46
1 2 43
0 0 44
0 0 48
0 0 55
0 0 59
0 0 62
0 8 67
0 0 59
0 3 70
0 25 82
0 49 99
79 148 139
182 153 117
176 151 112
192 156 122
191 160 119
199 166 123
183 153 113
191 160 121
178 153 116
185 159 120
182 158 117
178 154 111
181 154 114
200 170 128
195 172 131
190 170 128
190 171 128
186 166 123
206 180 139
211 191 146
209 195 150
206 193 150
209 196 151
203 192 147
206 193 142
213 203 153
211 197 151
209 183 138
211 180 132
209 177 131
207 187 144
178 153 112
187 161 117
192 164 121
199 169 128
194 167 124
202 177 133
205 182 141
207 182 139
204 178 132
200 174 132
196 167 127
207 173 131
198 166 137
212 193 154
213 212 163
214 226 171
213 230 175
213 230 184
212 227 184
210 217 171
210 229 195
214 231 197
211 229 196
211 229 202
211 230 210
212 232 210
215 232 205
216 231 206
216 232 187
211 230 202
212 227 191
212 211 154
203 194 145
188 174 128
178 168 123
189 176 133
204 183 140
203 187 139
207 181 138
215 177 134
212 179 137
172 141 104
204 174 136
210 184 142
215 184 140
209 175 134
210 167 126
195 157 118
184 153 117
125 117 82
114 112 79
101 102 59
84 94 49
69 96 30
85 103 39
94 106 53
122 121 90
142 129 89
53 49 58
92 93 68
119 115 80
114 105 81
49 45 57
0 0 43
0 0 47
0 0 45
53 50 55
0 0 40
0 0 42
0 0 42
189 199 215
226 238 255
226 238 255
226 238 255
226 238 255
226 238 255
226 238 255
226 238 255
226 238 255
226 238 255
226 238 255
226 238 255
226 238 255
226 238 255
226 238 255
226 238 255
226 238 255
226 238 255
226 238 255
226 238 255
226 238 255
226 238 255
226 238 255
226 238 255
226 238 255
226 238 255
226 238 255
226 238 255
226 238 255
226 238 255
226 238 255
226 238 255
226 238 255
226 238 255
226 238 255
226 238 255
226 238 255
226 238 255
226 238 255
226 238 255
226 238 255
226 238 255
226 238 255
226 238 255
226 238 255
226 238 255
226 238 255
226 238 255
226 238 255
226 238 255
226 238 255
226 238 255
226 238 255
226 238 255
226 238 255
226 238 255
226 238 255
226 238 255
226 238 255
226 238 255
226 238 255
226 238 255
226 238 255
226 238 255
226 238 255
226 238 255
226 238 255
226 238 255
226 238 255
226 238 255
226 238 255
226 238 255
226 238 255
226 238 255
226 238 255
226 238 255
226 238 255
226 238 255
226 238 255
226 238 255
226 238 255
226 238 255
226 238 255
226 238 255
226 238 255
226 238 255
226 238 255
226 238 255
226 238 255
226 238 255
226 238 255
226 238 255
226 238 255
226 238 255
226 238 255
226 238 255
226 238 255
226 238 255
226 238 255
226 238 255
226 238 255
226 238 255
226 238 255
226 238 255
226 238 255
226 238 255
226 238 255
226 238 255
226 238 255
226 238 255
226 238 255
226 238 255
226 238 255
226 238 255
226 238 255
226 238 255
226 238 255
226 238 255
226 238 255
226 238 255
226 238 255
226 238 255
226 238 255
226 238 255
226 238 255
226 238 255
226 238 255
226 238 255
226 238 255
226 238 255
226 238 255
226 238 255
226 238 255
226 238 255
226 238 255
226 238 255
226 238 255
226 238 255
226 238 255
226 238 255
226 238 255
226 238 255
226 238 255
226 238 255
226 238 255
226 238 255
226 238 255
226 238 255
226 238 255
226 238 255
226 238 255
226 238 255
226 238 255
226 238 255
226 238 255
226 238 255
226 238 255
226 238 255
226 238 255
226 238 255
226 238 255
226 238 255
226 238 255
226 238 255
226 238 255
226 238 255
226 238 255
226 238 255
226 238 255
226 238 255
226 238 255
226 238 255
226 238 255
226 238 255
226 238 255
226 238 255
226 238 255
226 238 255
226 238 255
226 238 255
226 238 255
226 238 255
226 238 255
226 238 255
226 238 255
226 238 255
226 238 255
226 238 255
226 238 255
226 238 255
226 238 255
226 238 255
226 238 255
226 238 255
226 238 255
226 238 255
226 238 255
226 238 255
226 238 255
226 238 255
226 238 255
226 238 255
226 238 255
226 238 255
226 238 255
226 238 255
226 238 255
226 238 255
226 238 255
226 238 255
226 238 255
163 172 188
3 16 64
37 63 29
0 0 43
0 0 42
0 0 42
0 0 41
0 0 42
0 0 43
0 1 44
0 0 42
0 0 39
0 0 42
0 0 43
0 0 42
0 0 42
0 0 42
0 0 41
0 2 43
0 6 41
0 0 43
0 0 43
0 0 50
0 0 47
0 0 44
0 0 45
0 0 43
0 0 40
0 0 42
0 0 42
0 0 42
0 0 42
0 0 42
0 0 42
0 0 42
0 0 42
0 0 42
0 0 42
0 0 42
0 0 42
0 0 42
0 0 42
0 0 42
0 0 42
0 0 42
0 0 42
0 0 42
0 0 42
0 0 42
0 0 42
0 0 42
0 0 42
0 0 42
0 0 42
0 0 42
0 0 42
0 0 42
0 0 42
0 0 42
0 0 42
0 0 42
0 0 42
0 0 42
0 0 42
0 0 42
0 0 42
0 0 42
0 0 42
0 0 42
0 0 42
0 0 42
0 0 42
0 0 36
0 0 42
0 0 48
0 0 46
15 16 58
15 16 53
0 0 47
0 0 50
0 0 54
0 0 58
0 9 61
0 8 60
0 0 62
0 19 76
0 72 119
5 98 143
91 141 144
153 141 98
146 147 104
172 151 119
175 155 113
192 163 120
193 166 127
178 154 117
161 143 104
155 141 99
152 141 100
141 131 90
151 141 98
160 145 103
163 150 108
168 154 115
170 154 116
167 149 110
189 163 126
203 172 132
199 171 127
193 169 127
193 175 129
185 171 124
201 191 140
188 179 129
188 161 119
195 163 121
196 161 117
196 163 119
197 164 121
174 149 111
163 141 100
167 139 99
194 167 127
184 161 119
190 164 121
187 165 124
195 171 127
186 164 122
189 169 130
193 172 128
205 178 133
208 179 142
212 191 147
210 202 149
211 213 157
213 225 167
213 228 175
215 226 169
214 219 165
214 228 181
213 230 189
217 233 192
212 230 193
212 231 187
209 230 188
212 229 186
216 231 184
216 231 197
212 228 201
209 218 171
214 200 152
191 181 133
173 165 117
169 168 120
159 155 108
172 162 116
200 177 133
201 170 130
200 171 131
197 164 128
194 157 123
213 186 149
204 175 138
205 173 130
196 171 130
202 168 125
187 158 116
167 148 104
117 113 73
109 103 72
96 93 56
78 84 43
58 80 19
55 81 17
86 99 42
115 117 77
130 123 98
115 103 78
83 76 69
146 132 108
49 44 53
0 0 41
0 0 43
3 0 41
3 0 44
19 17 47
0 0 44
0 0 42
0 0 42
161 170 185
226 238 255
226 238 255
226 238 255
226 238 255
226 238 255
226 238 255
226 238 255
226 238 255
226 238 255
226 238 255
226 238 255
226 238 255
226 238 255
226 238 255
226 238 255
226 238 255
226 238 255
226 238 255
226 238 255
226 238 255
226 238 255
226 238 255
226 238 255
226 238 255
226 238 255
226 238 255
226 238 255
226 238 255
226 238 255
226 238 255
226 238 255
226 238 255
226 238 255
226 238 255
226 238 255
226 238 255
226 238 255
226 238 255
226 238 255
226 238 255
226 238 255
226 238 255
226 238 255
226 238 255
226 238 255
226 238 255
226 238 255
226 238 255
226 238 255
226 238 255
226 238 255
226 238 255
226 238 255
226 238 255
226 238 255
226 238 255
226 238 255
226 238 255
226 238 255
226 238 255
226 238 255
226 238 255
226 238 255
226 238 255
226 238 255
226 238 255
226 238 255
226 238 255
226 238 255
226 238 255
226 238 255
226 238 255
226 238 255
226 238 255
226 238 255
226 238 255
226 238 255
226 238 255
226 238 255
226 238 255
226 238 255
226 238 255
226 238 255
226 238 255
226 238 255
226 238 255
226 238 255
226 238 255
226 238 255
226 238 255
226 238 255
226 238 255
226 238 255
226 238 255
226 238 255
226 238 255
226 238 255
226 238 255
226 238 255
226 238 255
226 238 255
226 238 255
226 238 255
226 238 255
226 238 255
226 238 255
226 238 255
226 238 255
226 238 255
226 238 255
226 238 255
226 238 255
226 238 255
226 238 255
226 238 255
226 238 255
226 238 255
226 238 255
226 238 255
226 238 255
226 238 255
226 238 255
226 238 255
226 238 255
226 238 255
226 238 255
226 238 255
226 238 255
226 238 255
226 238 255
226 238 255
226 238 255
226 238 255
226 238 255
226 238 255
226 238 255
226 238 255
226 238 255
226 238 255
226 238 255
226 238 255
226 238 255
226 238 255
226 238 255
226 238 255
226 238 255
226 238 255
226 238 255
226 238 255
226 238 255
226 238 255
226 238 255
226 238 255
226 238 255
226 238 255
226 238 255
226 238 255
226 238 255
226 238 255
226 238 255
226 238 255
226 238 255
226 238 255
226 238 255
226 238 255
226 238 255
226 238 255
226 238 255
226 238 255
226 238 255
226 238 255
226 238 255
226 238 255
226 238 255
226 238 255
226 238 255
226 238 255
226 238 255
226 238 255
226 238 255
226 238 255
226 238 255
226 238 255
226 238 255
226 238 255
226 238 255
226 238 255
226 238 255
226 238 255
226 238 255
226 238 255
226 238 255
226 238 255
226 238 255
226 238 255
226 238 255
226 238 255
226 238 255
226 238 255
226 238 255
226 238 255
226 238 255
226 238 255
226 238 255
226 238 255
226 238 255
226 238 255
226 238 255
226 238 255
226 238 255
146 154 171
9 21 66
44 64 37
0 0 41
0 0 42
0 0 42
0 0 43
0 0 41
27 25 49
66 62 56
9 9 49
0 0 44
0 0 44
0 0 45
0 0 43
0 0 43
0 0 41
0 0 42
0 0 46
0 0 40
0 0 45
0 0 45
0 0 45
0 0 45
0 0 47
0 0 49
0 0 48
0 0 42
0 0 42
0 0 42
0 0 42
0 0 42
0 0 42
0 0 42
0 0 42
0 0 42
0 0 42
0 0 42
0 0 42
0 0 42
0 0 42
0 0 42
0 0 42
0 0 42
0 0 42
0 0 42
0 0 42
0 0 42
0 0 42
0 0 42
0 0 42
0 0 42
0 0 42
0 0 42
0 0 42
0 0 42
0 0 42
0 0 42
0 0 42
0 0 42
0 0 42
0 0 42
0 0 42
0 0 42
0 0 42
0 0 42
0 0 42
0 0 42
0 0 42
0 0 42
0 0 42
0 0 42
0 0 42
0 0 43
1 1 43
3 3 44
12 13 47
9 9 48
0 0 51
0 0 51
0 0 51
0 0 54
0 4 61
0 4 65
0 0 68
0 19 80
0 64 112
12 87 130
143 148 134
163 143 103
136 134 96
160 150 111
172 157 113
173 157 111
173 153 113
172 153 117
164 149 110
141 137 88
137 137 91
117 122 77
115 120 74
137 137 92
153 149 104
160 155 113
156 146 107
165 152 113
163 141 103
187 164 126
188 165 126
183 165 125
173 165 115
192 185 134
186 174 126
166 152 105
171 146 109
182 158 113
190 169 125
189 167 123
175 152 112
178 155 114
177 158 114
176 154 110
207 185 143
205 184 140
204 178 129
187 167 119
192 171 121
181 159 112
165 148 108
184 165 125
181 165 119
182 167 120
196 179 132
209 191 142
215 198 146
206 193 139
206 196 145
209 198 147
210 207 159
215 215 164
213 226 177
210 228 182
215 229 181
216 223 168
212 215 166
215 216 171
206 207 158
205 212 165
212 217 169
199 195 141
188 179 137
177 173 120
152 150 96
153 154 100
132 139 83
152 155 101
175 163 118
166 152 109
183 162 119
199 163 126
208 176 135
214 185 142
191 161 126
187 163 125
186 160 121
204 164 121
194 160 116
169 150 108
117 117 73
104 102 66
79 84 40
75 83 38
50 79 13
47 80 10
83 94 38
95 103 58
121 113 83
125 108 72
112 95 77
67 62 67
10 10 42
0 0 42
0 0 39
33 27 49
89 80 73
0 0 48
0 0 47
0 0 42
0 0 42
141 149 163
226 238 255
226 238 255
226 238 255
226 238 255
226 238 255
226 238 255
226 238 255
226 238 255
226 238 255
226 238 255
226 238 255
226 238 255
226 238 255
226 238 255
226 238 255
226 238 255
226 238 255
226 238 255
226 238 255
226 238 255
226 238 255
226 238 255
226 238 255
226 238 255
226 238 255
226 238 255
226 238 255
226 238 255
226 238 255
226 238 255
226 238 255
226 238 255
226 238 255
226 238 255
226 238 255
226 238 255
226 238 255
226 238 255
226 238 255
226 238 255
226 238 255
226 238 255
226 238 255
226 238 255
226 238 255
226 238 255
226 238 255
226 238 255
226 238 255
226 238 255
226 238 255
226 238 255
226 238 255
226 238 255
226 238 255
226 238 255
226 238 255
226 238 255
226 238 255
226 238 255
226 238 255
226 238 255
226 238 255
226 238 255
226 238 255
226 238 255
226 238 255
226 238 255
226 238 255
226 238 255
226 238 255
226 238 255
226 238 255
226 238 255
226 238 255
226 238 255
226 238 255
226 238 255
226 238 255
226 238 255
226 238 255
226 238 255
226 238 255
226 238 255
226 238 255
226 238 255
226 238 255
226 238 255
226 238 255
226 238 255
226 238 255
226 238 255
226 238 255
226 238 255
226 238 255
226 238 255
226 238 255
226 238 255
226 238 255
226 238 255
226 238 255
226 238 255
226 238 255
226 238 255
226 238 255
226 238 255
226 238 255
226 238 255
226 238 255
226 238 255
226 238 255
226 238 255
226 238 255
226 238 255
226 238 255
226 238 255
226 238 255
226 238 255
226 238 255
226 238 255
226 238 255
226 238 255
226 238 255
226 238 255
226 238 255
226 238 255
226 238 255
226 238 255
226 238 255
226 238 255
226 238 255
226 238 255
226 238 255
226 238 255
226 238 255
226 238 255
226 238 255
226 238 255
226 238 255
226 238 255
226 238 255
226 238 255
226 238 255
226 238 255
226 238 255
226 238 255
226 238 255
226 238 255
226 238 255
226 238 255
226 238 255
226 238 255
226 238 255
226 238 255
226 238 255
226 238 255
226 238 255
226 238 255
226 238 255
226 238 255
226 238 255
226 238 255
226 238 255
226 238 255
226 238 255
226 238 255
226 238 255
226 238 255
226 238 255
226 238 255
226 238 255
226 238 255
226 238 255
226 238 255
226 238 255
226 238 255
226 238 255
226 238 255
226 238 255
226 238 255
226 238 255
226 238 255
226 238 255
226 238 255
226 238 255
226 238 255
226 238 255
226 238 255
226 238 255
226 238 255
226 238 255
226 238 255
226 238 255
226 238 255
226 238 255
226 238 255
226 238 255
226 238 255
226 238 255
226 238 255
226 238 255
226 238 255
226 238 255
226 238 255
226 238 255
226 238 255
226 238 255
226 238 255
226 238 255
226 238 255
108 114 136
20 35 53
40 60 34
0 0 40
0 0 40
0 0 43
1 3 45
2 4 45
68 69 58
57 54 76
49 51 55
0 6 45
0 0 43
0 0 44
0 0 44
0 0 45
0 0 43
0 0 42
0 0 43
0 0 43
0 0 44
0 0 46
0 0 45
0 0 45
0 0 47
0 0 48
0 0 49
0 0 43
0 0 42
0 0 42
0 0 42
0 0 42
0 0 42
0 0 42
0 0 42
0 0 42
0 0 42
0 0 42
0 0 42
0 0 42
0 0 42
0 0 42
0 0 42
0 0 42
0 0 42
0 0 42
0 0 42
0 0 42
0 0 42
0 0 42
0 0 42
0 0 42
0 0 42
0 0 42
0 0 42
0 0 42
0 0 42
0 0 42
0 0 42
0 0 42
0 0 42
0 0 42
0 0 42
0 0 42
0 0 42
0 0 42
0 0 42
0 0 42
0 0 42
0 0 42
0 0 42
0 0 42
0 0 44
6 9 44
9 11 40
12 17 54
2 3 49
0 0 49
0 0 51
0 0 50
0 0 51
0 0 52
0 0 50
0 8 65
0 15 79
0 20 82
0 79 127
76 100 109
177 162 124
144 140 95
123 135 84
140 135 85
134 131 74
128 132 79
143 140 93
160 149 110
158 149 109
141 140 93
121 122 76
113 118 71
117 121 76
127 127 83
142 139 93
138 135 87
135 134 89
142 140 98
144 142 101
138 134 93
153 146 108
156 155 116
135 142 93
143 139 89
169 153 113
162 148 109
156 142 102
158 148 103
163 155 106
166 156 108
174 160 117
181 160 114
182 164 115
190 167 120
208 182 136
208 182 135
203 178 129
197 176 126
205 183 129
205 183 133
169 149 107
151 134 97
161 149 109
174 165 118
201 186 137
209 190 144
206 190 138
189 172 122
185 163 121
195 171 128
201 184 142
208 196 149
210 210 160
204 215 173
202 210 165
212 201 158
208 190 140
206 189 144
194 185 130
192 189 134
194 184 140
175 164 126
161 159 104
134 138 82
132 137 76
136 141 83
127 135 76
142 144 92
157 148 103
149 145 102
141 129 86
196 162 124
200 172 128
197 168 132
177 153 118
158 145 103
172 148 112
174 145 107
185 153 115
174 148 115
137 129 90
89 90 53
73 92 39
58 79 21
45 80 7
55 80 15
65 85 21
70 82 33
112 108 71
129 112 84
122 103 71
23 20 52
0 0 39
0 0 41
27 25 48
110 94 84
134 118 99
0 0 50
0 0 48
0 0 42
0 0 42
113 119 133
226 238 255
226 238 255
226 238 255
226 238 255
226 238 255
226 238 255
226 238 255
226 238 255
226 238 255
226 238 255
226 238 255
226 238 255
226 238 255
226 238 255
226 238 255
226 238 255
226 238 255
226 238 255
226 238 255
226 238 255
226 238 255
226 238 255
226 238 255
226 238 255
226 238 255
226 238 255
226 238 255
226 238 255
226 238 255
226 238 255
226 238 255
226 238 255
226 238 255
226 238 255
226 238 255
226 238 255
226 238 255
226 238 255
226 238 255
226 238 255
226 238 255
226 238 255
226 238 255
226 238 255
226 238 255
226 238 255
226 238 255
226 238 255
226 238 255
226 238 255
226 238 255
226 238 255
226 238 255
226 238 255
226 238 255
226 238 255
226 238 255
226 238 255
226 238 255
226 238 255
226 238 255
226 238 255
226 238 255
226 238 255
226 238 255
226 238 255
226 238 255
226 238 255
226 238 255
226 238 255
226 238 255
226 238 255
226 238 255
226 238 255
226 238 255
226 238 255
226 238 255
226 238 255
226 238 255
226 238 255
226 238 255
226 238 255
226 238 255
226 238 255
226 238 255
226 238 255
226 238 255
226 238 255
226 238 255
226 238 255
226 238 255
226 238 255
226 238 255
226 238 255
226 238 255
226 238 255
226 238 255
226 238 255
226 238 255
226 238 255
226 238 255
226 238 255
226 238 255
226 238 255
226 238 255
226 238 255
226 238 255
226 238 255
226 238 255
226 238 255
226 238 255
226 238 255
226 238 255
226 238 255
226 238 255
226 238 255
226 238 255
226 238 255
226 238 255
226 238 255
226 238 255
226 238 255
226 238 255
226 238 255
226 238 255
226 238 255
226 238 255
226 238 255
226 238 255
226 238 255
226 238 255
226 238 255
226 238 255
226 238 255
226 238 255
226 238 255
226 238 255
226 238 255
226 238 255
226 238 255
226 238 255
226 238 255
226 238 255
226 238 255
226 238 255
226 238 255
226 238 255
226 238 255
226 238 255
226 238 255
226 238 255
226 238 255
226 238 255
226 238 255
226 238 255
226 238 255
226 238 255
226 238 255
226 238 255
226 238 255
226 238 255
226 238 255
226 238 255
226 238 255
226 238 255
226 238 255
226 238 255
226 238 255
226 238 255
226 238 255
226 238 255
226 238 255
226 238 255
226 238 255
226 238 255
226 238 255
226 238 255
226 238 255
226 238 255
226 238 255
226 238 255
226 238 255
226 238 255
226 238 255
226 238 255
226 238 255
226 238 255
226 238 255
226 238 255
226 238 255
226 238 255
226 238 255
226 238 255
226 238 255
226 238 255
226 238 255
226 238 255
226 238 255
226 238 255
226 238 255
226 238 255
226 238 255
226 238 255
226 238 255
226 238 255
226 238 255
226 238 255
226 238 255
226 238 255
226 238 255
78 83 112
7 14 48
32 50 32
0 0 43
0 0 44
0 0 43
29 44 40
40 60 19
59 72 53
48 55 82
78 82 61
15 19 43
0 0 44
0 0 46
0 0 46
0 0 50
0 0 45
0 0 43
0 0 42
0 0 46
0 0 42
0 0 45
0 0 44
0 0 45
0 0 46
0 0 46
0 0 45
0 0 42
0 0 42
0 0 42
0 0 42
0 0 42
0 0 42
0 0 42
0 0 42
0 0 42
0 0 42
0 0 42
0 0 42
0 0 42
0 0 42
0 0 42
0 0 42
0 0 42
0 0 42
0 0 42
0 0 42
0 0 42
0 0 42
0 0 42
0 0 42
0 0 42
0 0 42
0 0 42
0 0 42
0 0 42
0 0 42
0 0 42
0 0 42
0 0 42
0 0 42
0 0 42
0 0 42
0 0 42
0 0 42
0 0 42
0 0 42
0 0 42
0 0 42
0 0 42
0 0 42
0 0 42
0 0 46
3 5 46
4 6 39
7 10 45
1 2 49
0 0 50
0 0 50
0 0 50
0 0 51
0 0 51
0 0 60
0 12 75
0 10 60
0 14 70
0 63 104
99 121 91
149 148 87
142 140 87
119 131 71
113 128 67
110 131 68
112 129 69
118 129 75
127 132 85
117 123 78
112 121 70
106 117 66
89 100 48
107 116 68
120 124 74
125 132 78
115 125 66
118 123 71
115 118 68
117 123 79
131 134 92
147 142 104
153 154 111
118 130 82
146 144 100
159 141 101
150 138 96
152 141 97
159 150 105
162 153 105
161 150 104
156 144 99
173 152 106
182 160 113
184 159 114
200 167 124
208 175 129
193 166 124
195 172 125
206 183 133
211 186 139
176 150 110
143 131 91
186 167 129
205 185 144
211 195 147
208 196 146
209 191 141
186 169 123
166 152 110
163 149 109
190 172 131
192 171 127
192 181 136
169 172 126
111 123 79
186 179 134
192 176 134
182 176 125
173 176 118
181 177 124
169 165 119
142 139 94
136 139 87
126 135 75
123 131 69
126 134 73
123 130 70
137 140 89
141 139 88
118 122 73
109 110 66
178 154 119
174 151 114
173 154 114
171 152 116
150 142 101
154 135 99
148 129 94
125 122 81
130 126 85
114 117 72
84 92 51
69 90 33
43 83 14
43 77 2
77 97 39
57 79 16
63 80 26
95 102 57
128 116 88
107 94 72
52 44 55
0 0 45
23 20 44
129 115 94
190 164 124
161 154 134
0 0 51
0 0 47
0 0 43
0 0 42
78 82 97
226 238 255
226 238 255
226 238 255
226 238 255
226 238 255
226 238 255
226 238 255
226 238 255
226 238 255
226 238 255
226 238 255
226 238 255
226 238 255
226 238 255
226 238 255
226 238 255
226 238 255
226 238 255
226 238 255
226 238 255
226 238 255
226 238 255
226 238 255
226 238 255
226 238 255
226 238 255
226 238 255
226 238 255
226 238 255
226 238 255
226 238 255
226 238 255
226 238 255
226 238 255
226 238 255
226 238 255
226 238 255
226 238 255
226 238 255
226 238 255
226 238 255
226 238 255
226 238 255
226 238 255
226 238 255
226 238 255
226 238 255
226 238 255
226 238 255
226 238 255
226 238 255
226 238 255
226 238 255
226 238 255
226 238 255
226 238 255
226 238 255
226 238 255
226 238 255
226 238 255
226 238 255
226 238 255
226 238 255
226 238 255
226 238 255
226 238 255
226 238 255
226 238 255
226 238 255
226 238 255
226 238 255
226 238 255
226 238 255
226 238 255
226 238 255
226 238 255
226 238 255
226 238 255
226 238 255
226 238 255
226 238 255
226 238 255
226 238 255
226 238 255
226 238 255
226 238 255
226 238 255
226 238 255
226 238 255
226 238 255
226 238 255
226 238 255
226 238 255
226 238 255
226 238 255
226 238 255
226 238 255
226 238 255
226 238 255
226 238 255
226 238 255
226 238 255
226 238 255
226 238 255
226 238 255
226 238 255
226 238 255
226 238 255
226 238 255
226 238 255
226 238 255
226 238 255
226 238 255
226 238 255
226 238 255
226 238 255
226 238 255
226 238 255
226 238 255
226 238 255
226 238 255
226 238 255
226 238 255
226 238 255
226 238 255
226 238 255
226 238 255
226 238 255
226 238 255
226 238 255
226 238 255
226 238 255
226 238 255
226 238 255
226 238 255
226 238 255
226 238 255
226 238 255
226 238 255
226 238 255
226 238 255
226 238 255
226 238 255
226 238 255
226 238 255
226 238 255
226 238 255
226 238 255
226 238 255
226 238 255
226 238 255
226 238 255
226 238 255
226 238 255
226 238 255
226 238 255
226 238 255
226 238 255
226 238 255
226 238 255
226 238 255
226 238 255
226 238 255
226 238 255
226 238 255
226 238 255
226 238 255
226 238 255
226 238 255
226 238 255
226 238 255
226 238 255
226 238 255
226 238 255
226 238 255
226 238 255
226 238 255
226 238 255
226 238 255
226 238 255
226 238 255
226 238 255
226 238 255
226 238 255
226 238 255
226 238 255
226 238 255
226 238 255
226 238 255
226 238 255
226 238 255
226 238 255
226 238 255
226 238 255
226 238 255
226 238 255
226 238 255
226 238 255
226 238 255
226 238 255
226 238 255
226 238 255
226 238 255
226 238 255
226 238 255
226 238 255
226 238 255
226 238 255
226 238 255
219 231 248
22 24 67
0 0 46
29 47 32
6 12 40
0 0 39
0 0 44
46 67 26
46 65 17
74 101 59
81 86 51
69 77 29
39 51 35
0 0 45
0 0 43
0 0 49
4 6 57
0 0 50
0 0 47
0 0 44
0 0 42
0 0 46
0 0 43
0 0 43
0 0 46
0 0 47
0 0 46
0 0 45
0 0 42
0 0 42
0 0 42
0 0 43
0 0 42
0 0 42
0 0 42
0 0 42
0 0 42
0 0 42
0 0 42
0 0 42
0 0 42
0 0 42
0 0 42
0 0 42
0 0 42
0 0 42
0 0 42
0 0 42
0 0 42
0 0 42
0 0 42
0 0 42
0 0 42
0 0 42
0 0 42
0 0 42
0 0 42
0 0 42
0 0 42
0 0 42
0 0 42
0 0 42
0 0 42
0 0 42
0 0 42
0 0 42
0 0 42
0 0 42
0 0 42
0 0 42
0 0 42
0 0 42
0 0 42
0 0 42
0 0 42
0 0 42
0 0 44
0 0 47
0 0 48
0 0 48
0 0 48
0 0 47
0 0 49
0 0 53
0 3 57
0 2 57
0 0 47
0 10 65
50 102 120
104 119 63
118 127 65
116 126 66
114 128 66
105 123 66
97 118 52
91 111 51
89 110 55
87 109 54
79 105 49
73 99 39
67 92 33
76 96 42
88 104 49
88 111 48
87 110 42
108 120 62
114 122 70
112 116 68
127 125 82
152 142 101
149 144 96
125 128 81
131 130 90
151 139 99
169 161 118
156 144 104
155 143 101
155 140 97
161 146 102
162 150 106
168 154 109
178 156 110
187 160 118
193 163 121
196 166 125
186 160 116
185 161 121
193 168 121
192 178 125
170 153 110
163 153 101
183 169 121
201 183 140
206 190 143
206 192 140
197 181 129
197 170 126
177 161 121
174 161 118
191 166 122
190 167 126
176 159 116
182 180 129
107 118 64
104 118 62
121 128 77
167 169 118
163 160 107
155 151 106
135 140 91
126 133 79
116 128 66
116 132 66
115 126 64
113 122 66
116 126 67
114 116 64
101 111 50
95 112 54
122 119 77
166 147 114
159 140 104
149 138 99
158 147 109
153 139 99
147 134 96
122 117 77
76 95 43
86 100 48
96 103 53
92 95 52
65 84 30
46 83 14
40 70 0
55 81 21
59 79 20
64 78 26
75 84 35
119 115 75
138 118 85
157 138 115
53 48 57
151 131 109
184 159 115
215 183 142
160 146 125
0 2 46
0 0 44
0 0 43
0 0 42
0 0 42
224 236 253
226 238 255
226 238 255
226 238 255
226 238 255
226 238 255
226 238 255
226 238 255
226 238 255
226 238 255
226 238 255
226 238 255
226 238 255
226 238 255
226 238 255
226 238 255
226 238 255
226 238 255
226 238 255
226 238 255
226 238 255
226 238 255
226 238 255
226 238 255
226 238 255
226 238 255
226 238 255
226 238 255
226 238 255
226 238 255
226 238 255
226 238 255
226 238 255
226 238 255
226 238 255
226 238 255
226 238 255
226 238 255
226 238 255
226 238 255
226 238 255
226 238 255
226 238 255
226 238 255
226 238 255
226 238 255
226 238 255
226 238 255
226 238 255
226 238 255
226 238 255
226 238 255
226 238 255
226 238 255
226 238 255
226 238 255
226 238 255
226 238 255
226 238 255
226 238 255
226 238 255
226 238 255
226 238 255
226 238 255
226 238 255
226 238 255
226 238 255
226 238 255
226 238 255
226 238 255
226 238 255
226 238 255
226 238 255
226 238 255
226 238 255
226 238 255
226 238 255
226 238 255
226 238 255
226 238 255
226 238 255
226 238 255
226 238 255
226 238 255
226 238 255
226 238 255
226 238 255
226 238 255
226 238 255
226 238 255
226 238 255
226 238 255
226 238 255
226 238 255
226 238 255
226 238 255
226 238 255
226 238 255
226 238 255
226 238 255
226 238 255
226 238 255
226 238 255
226 238 255
226 238 255
226 238 255
226 238 255
226 238 255
226 238 255
226 238 255
226 238 255
226 238 255
226 238 255
226 238 255
226 238 255
226 238 255
226 238 255
226 238 255
226 238 255
226 238 255
226 238 255
226 238 255
226 238 255
226 238 255
226 238 255
226 238 255
226 238 255
226 238 255
226 238 255
226 238 255
226 238 255
226 238 255
226 238 255
226 238 255
226 238 255
226 238 255
226 238 255
226 238 255
226 238 255
226 238 255
226 238 255
226 238 255
226 238 255
226 238 255
226 238 255
226 238 255
226 238 255
226 238 255
226 238 255
226 238 255
226 238 255
226 238 255
226 238 255
226 238 255
226 238 255
226 238 255
226 238 255
226 238 255
226 238 255
226 238 255
226 238 255
226 238 255
226 238 255
226 238 255
226 238 255
226 238 255
226 238 255
226 238 255
226 238 255
226 238 255
226 238 255
226 238 255
226 238 255
226 238 255
226 238 255
226 238 255
226 238 255
226 238 255
226 238 255
226 238 255
226 238 255
226 238 255
226 238 255
226 238 255
226 238 255
226 238 255
226 238 255
226 238 255
226 238 255
226 238 255
226 238 255
226 238 255
226 238 255
226 238 255
226 238 255
226 238 255
226 238 255
226 238 255
226 238 255
226 238 255
226 238 255
226 238 255
226 238 255
226 238 255
226 238 255
226 238 255
226 238 255
226 238 255
226 238 255
214 226 243
0 0 50
3 7 43
40 63 25
36 59 39
22 36 38
18 25 41
53 76 16
53 73 17
53 94 87
73 80 45
74 84 33
38 55 29
30 44 33
9 14 45
4 7 55
14 31 68
9 16 61
0 3 62
0 0 49
0 0 40
0 0 44
0 0 44
0 0 46
0 0 48
0 0 49
0 0 50
0 0 46
0 0 45
0 0 43
0 0 42
0 0 45
0 0 42
0 0 42
0 0 42
0 0 42
0 0 42
0 0 42
0 0 42
0 0 42
0 0 42
0 0 42
0 0 42
0 0 42
0 0 42
0 0 42
0 0 42
0 0 42
0 0 42
0 0 42
0 0 42
0 0 42
0 0 42
0 0 42
0 0 42
0 0 42
0 0 42
0 0 42
0 0 42
0 0 42
0 0 42
0 0 42
0 0 42
0 0 42
0 0 42
0 0 42
0 0 42
0 0 42
0 0 42
0 0 42
0 0 42
0 0 42
0 0 42
0 0 42
0 0 42
0 0 43
0 0 46
0 0 51
0 0 47
0 0 48
0 0 48
0 0 46
0 0 47
0 0 46
0 0 48
0 0 48
0 0 49
0 0 55
14 87 120
59 100 72
86 107 45
82 101 36
83 107 46
90 112 46
84 113 44
75 104 42
82 108 49
83 109 46
71 100 40
59 89 28
62 88 31
63 87 33
65 88 33
73 99 35
82 106 41
104 118 61
110 120 67
112 116 66
132 132 85
142 143 95
141 142 90
134 133 86
125 122 76
130 128 86
132 127 86
125 121 81
123 118 76
135 128 85
148 141 98
145 136 91
141 137 86
151 140 92
160 138 90
168 145 100
179 152 108
189 158 111
179 159 119
181 166 117
154 147 89
164 149 101
164 158 104
152 147 93
164 157 106
169 158 105
179 164 108
180 161 117
186 166 129
175 167 126
157 155 100
164 157 105
159 154 108
149 148 98
151 155 98
126 142 78
83 103 35
103 119 59
121 135 78
116 130 74
117 132 80
110 120 69
117 125 70
101 111 53
97 113 59
89 104 44
94 111 54
87 107 44
98 110 55
101 116 55
74 98 36
134 126 84
152 137 102
147 135 94
143 133 95
146 135 95
153 137 96
113 115 69
79 91 41
63 90 28
68 92 33
81 100 44
73 94 40
58 85 29
46 77 13
40 67 4
51 72 10
59 73 17
68 79 29
65 82 28
101 104 61
152 132 102
165 152 121
158 143 120
184 156 125
206 173 128
211 172 133
177 147 123
0 0 45
0 0 40
0 0 42
0 0 42
0 0 42
216 227 244
226 238 255
226 238 255
226 238 255
226 238 255
226 238 255
226 238 255
226 238 255
226 238 255
226 238 255
226 238 255
226 238 255
226 238 255
226 238 255
226 238 255
226 238 255
226 238 255
226 238 255
226 238 255
226 238 255
226 238 255
226 238 255
226 238 255
226 238 255
226 238 255
226 238 255
226 238 255
226 238 255
226 238 255
226 238 255
226 238 255
226 238 255
226 238 255
226 238 255
226 238 255
226 238 255
226 238 255
226 238 255
226 238 255
226 238 255
226 238 255
226 238 255
226 238 255
226 238 255
226 238 255
226 238 255
226 238 255
226 238 255
226 238 255
226 238 255
226 238 255
226 238 255
226 238 255
226 238 255
226 238 255
226 238 255
226 238 255
226 238 255
226 238 255
226 238 255
226 238 255
226 238 255
226 238 255
226 238 255
226 238 255
226 238 255
226 238 255
226 238 255
226 238 255
226 238 255
226 238 255
226 238 255
226 238 255
226 238 255
226 238 255
226 238 255
226 238 255
226 238 255
226 238 255
226 238 255
226 238 255
226 238 255
226 238 255
226 238 255
226 238 255
226 238 255
226 238 255
226 238 255
226 238 255
226 238 255
226 238 255
226 238 255
226 238 255
226 238 255
226 238 255
226 238 255
226 238 255
226 238 255
226 238 255
226 238 255
226 238 255
226 238 255
226 238 255
226 238 255
226 238 255
226 238 255
226 238 255
226 238 255
226 238 255
226 238 255
226 238 255
226 238 255
226 238 255
226 238 255
226 238 255
226 238 255
226 238 255
226 238 255
226 238 255
226 238 255
226 238 255
226 238 255
226 238 255
226 238 255
226 238 255
226 238 255
226 238 255
226 238 255
226 238 255
226 238 255
226 238 255
226 238 255
226 238 255
226 238 255
226 238 255
226 238 255
226 238 255
226 238 255
226 238 255
226 238 255
226 238 255
226 238 255
226 238 255
226 238 255
226 238 255
226 238 255
226 238 255
226 238 255
226 238 255
226 238 255
226 238 255
226 238 255
226 238 255
226 238 255
226 238 255
226 238 255
226 238 255
226 238 255
226 238 255
226 238 255
226 238 255
226 238 255
226 238 255
226 238 255
226 238 255
226 238 255
226 238 255
226 238 255
226 238 255
226 238 255
226 238 255
226 238 255
226 238 255
226 238 255
226 238 255
226 238 255
226 238 255
226 238 255
226 238 255
226 238 255
226 238 255
226 238 255
226 238 255
226 238 255
226 238 255
226 238 255
226 238 255
226 238 255
226 238 255
226 238 255
226 238 255
226 238 255
226 238 255
226 238 255
226 238 255
226 238 255
226 238 255
226 238 255
226 238 255
226 238 255
226 238 255
226 238 255
226 238 255
226 238 255
226 238 255
226 238 255
226 238 255
226 238 255
226 238 255
201 212 228
0 0 47
0 0 44
37 60 31
33 54 53
32 53 46
58 78 48
55 79 20
39 60 11
26 82 96
63 78 31
58 80 26
57 80 21
50 75 14
33 54 30
25 37 42
39 58 37
22 70 60
30 38 62
9 24 43
0 0 43
0 0 44
0 0 45
0 0 47
0 0 48
0 0 51
0 0 53
0 0 50
0 0 47
0 0 45
0 0 44
0 0 44
0 0 42
0 0 42
0 0 42
0 0 42
0 0 42
0 0 42
0 0 42
0 0 42
0 0 42
0 0 42
0 0 42
0 0 42
0 0 42
0 0 42
0 0 42
0 0 42
0 0 42
0 0 42
0 0 42
0 0 42
0 0 42
0 0 42
0 0 42
0 0 42
0 0 42
0 0 42
0 0 42
0 0 42
0 0 42
0 0 42
0 0 42
0 0 42
0 0 42
0 0 42
0 0 42
0 0 42
0 0 42
0 0 42
0 0 42
0 0 42
0 0 42
0 0 42
0 0 40
0 0 44
0 0 48
0 0 51
0 0 49
0 0 48
0 0 48
0 0 47
0 0 47
0 0 48
0 0 45
0 0 45
0 0 51
0 13 64
23 103 127
54 98 53
53 88 27
51 88 20
66 93 22
77 103 41
84 105 48
80 102 48
80 104 47
74 98 37
67 95 33
51 79 20
51 76 19
63 87 29
71 95 35
70 94 35
68 94 33
79 103 43
86 104 49
97 109 56
102 108 57
106 112 61
107 111 58
104 108 59
111 116 69
95 102 54
95 105 55
98 102 56
108 110 61
124 123 76
133 130 83
137 134 88
129 131 80
124 125 75
130 125 75
144 133 85
154 143 94
170 151 100
166 149 104
159 147 98
144 137 80
142 138 81
141 139 81
132 135 76
129 133 72
135 132 72
143 133 76
150 143 85
164 158 104
147 149 95
134 140 82
142 149 92
140 150 94
119 132 73
132 145 86
118 137 70
97 119 47
108 130 61
102 123 56
107 126 62
106 123 65
111 122 68
98 111 57
89 105 51
74 92 37
68 87 26
71 93 34
65 94 27
75 100 39
84 102 43
100 110 57
120 123 75
136 129 88
132 128 83
143 136 95
137 129 87
142 132 92
95 107 55
75 95 37
60 89 24
56 89 23
55 90 22
59 90 26
53 89 20
46 78 11
37 66 0
48 71 7
60 77 18
69 81 29
67 82 27
96 103 56
153 135 102
141 130 98
193 160 127
199 148 115
208 170 130
210 176 127
170 143 112
0 0 44
0 0 43
0 0 42
0 0 41
0 0 42
198 209 225
226 238 255
226 238 255
226 238 255
226 238 255
226 238 255
226 238 255
226 238 255
226 238 255
226 238 255
226 238 255
226 238 255
226 238 255
226 238 255
226 238 255
226 238 255
226 238 255
226 238 255
226 238 255
226 238 255
226 238 255
226 238 255
226 238 255
226 238 255
226 238 255
226 238 255
226 238 255
226 238 255
226 238 255
226 238 255
226 238 255
226 238 255
226 238 255
226 238 255
226 238 255
226 238 255
226 238 255
226 238 255
226 238 255
226 238 255
226 238 255
226 238 255
226 238 255
226 238 255
226 238 255
226 238 255
226 238 255
226 238 255
226 238 255
226 238 255
226 238 255
226 238 255
226 238 255
226 238 255
226 238 255
226 238 255
226 238 255
226 238 255
226 238 255
226 238 255
226 238 255
226 238 255
226 238 255
226 238 255
226 238 255
226 238 255
226 238 255
226 238 255
226 238 255
226 238 255
226 238 255
226 238 255
226 238 255
226 238 255
226 238 255
226 238 255
226 238 255
226 238 255
226 238 255
226 238 255
226 238 255
226 238 255
226 238 255
226 238 255
226 238 255
226 238 255
226 238 255
226 238 255
226 238 255
226 238 255
226 238 255
226 238 255
226 238 255
226 238 255
226 238 255
226 238 255
226 238 255
226 238 255
226 238 255
226 238 255
226 238 255
226 238 255
226 238 255
226 238 255
226 238 255
226 238 255
226 238 255
226 238 255
226 238 255
226 238 255
226 238 255
226 238 255
226 238 255
226 238 255
226 238 255
226 238 255
226 238 255
226 238 255
226 238 255
226 238 255
226 238 255
226 238 255
226 238 255
226 238 255
226 238 255
226 238 255
226 238 255
226 238 255
226 238 255
226 238 255
226 238 255
226 238 255
226 238 255
226 238 255
226 238 255
226 238 255
226 238 255
226 238 255
226 238 255
226 238 255
226 238 255
226 238 255
226 238 255
226 238 255
226 238 255
226 238 255
226 238 255
226 238 255
226 238 255
226 238 255
226 238 255
226 238 255
226 238 255
226 238 255
226 238 255
226 238 255
226 238 255
226 238 255
226 238 255
226 238 255
226 238 255
226 238 255
226 238 255
226 238 255
226 238 255
226 238 255
226 238 255
226 238 255
226 238 255
226 238 255
226 238 255
226 238 255
226 238 255
226 238 255
226 238 255
226 238 255
226 238 255
226 238 255
226 238 255
226 238 255
226 238 255
226 238 255
226 238 255
226 238 255
226 238 255
226 238 255
226 238 255
226 238 255
226 238 255
226 238 255
226 238 255
226 238 255
226 238 255
226 238 255
226 238 255
226 238 255
226 238 255
226 238 255
226 238 255
226 238 255
226 238 255
226 238 255
226 238 255
226 238 255
226 238 255
226 238 255
226 238 255
226 238 255
226 238 255
184 194 209
0 0 45
0 0 46
25 42 42
23 36 50
37 75 49
61 97 40
46 74 12
34 61 7
51 90 51
52 70 14
48 77 9
53 79 9
55 82 21
50 80 13
50 72 20
54 78 15
27 71 56
29 63 75
9 19 53
0 0 42
0 0 43
0 0 45
0 0 46
0 0 48
0 0 52
0 0 56
0 0 54
0 0 49
0 0 46
0 0 44
0 0 45
0 0 44
0 0 42
0 0 42
0 0 42
0 0 42
0 0 42
0 0 42
0 0 42
0 0 42
0 0 42
0 0 42
0 0 42
0 0 42
0 0 42
0 0 42
0 0 42
0 0 42
0 0 42
0 0 42
0 0 42
0 0 42
0 0 42
0 0 42
0 0 42
0 0 42
0 0 42
0 0 42
0 0 42
0 0 42
0 0 42
0 0 42
0 0 42
0 0 42
0 0 42
0 0 42
0 0 42
0 0 42
0 0 42
0 0 42
0 0 42
0 0 42
0 0 42
0 0 41
0 0 46
0 0 48
0 0 49
0 0 50
0 0 49
0 0 47
0 0 45
0 0 46
0 0 44
0 0 45
0 0 47
0 0 50
0 27 78
18 109 140
58 82 46
62 81 29
63 84 32
68 92 36
81 103 52
81 99 48
71 94 38
67 93 30
66 94 27
60 92 26
50 80 19
49 76 11
55 83 15
60 87 23
59 86 23
61 86 26
72 95 34
74 94 36
80 98 42
77 93 38
88 104 51
97 105 51
89 96 46
83 92 44
81 95 46
75 92 38
102 109 56
115 118 63
127 128 74
128 126 75
139 136 86
111 113 63
103 113 62
103 114 61
106 115 61
99 107 50
115 123 65
125 119 67
137 123 74
137 124 73
126 132 74
139 138 81
134 137 80
117 123 61
121 124 62
113 109 48
119 116 51
131 128 61
136 134 72
144 142 86
150 153 103
122 130 67
109 123 57
115 127 69
108 123 62
91 115 41
75 102 31
84 112 44
88 110 45
80 105 43
93 109 52
67 91 32
60 89 25
60 90 20
68 94 30
61 89 26
50 86 15
54 88 18
73 95 31
90 100 44
104 112 60
115 121 67
110 121 62
105 118 61
100 106 56
122 123 75
93 105 50
66 89 29
63 91 27
61 90 27
57 87 22
59 86 23
54 86 20
51 81 15
43 70 6
50 73 6
56 75 14
67 83 28
68 79 31
84 96 49
86 89 52
120 110 75
181 142 111
187 131 101
198 166 126
211 192 137
181 148 121
0 0 46
0 0 42
0 0 42
0 0 42
0 0 42
181 191 206
226 238 255
226 238 255
226 238 255
226 238 255
226 238 255
226 238 255
226 238 255
226 238 255
226 238 255
226 238 255
226 238 255
226 238 255
226 238 255
226 238 255
226 238 255
226 238 255
226 238 255
226 238 255
226 238 255
226 238 255
226 238 255
226 238 255
226 238 255
226 238 255
226 238 255
226 238 255
226 238 255
226 238 255
226 238 255
226 238 255
226 238 255
226 238 255
226 238 255
226 238 255
226 238 255
226 238 255
226 238 255
226 238 255
226 238 255
226 238 255
226 238 255
226 238 255
226 238 255
226 238 255
226 238 255
226 238 255
226 238 255
226 238 255
226 238 255
226 238 255
226 238 255
226 238 255
226 238 255
226 238 255
226 238 255
226 238 255
226 238 255
226 238 255
226 238 255
226 238 255
226 238 255
226 238 255
226 238 255
226 238 255
226 238 255
226 238 255
226 238 255
226 238 255
226 238 255
226 238 255
226 238 255
226 238 255
226 238 255
226 238 255
226 238 255
226 238 255
226 238 255
226 238 255
226 238 255
226 238 255
226 238 255
226 238 255
226 238 255
226 238 255
226 238 255
226 238 255
226 238 255
226 238 255
226 238 255
226 238 255
226 238 255
226 238 255
226 238 255
226 238 255
226 238 255
226 238 255
226 238 255
226 238 255
226 238 255
226 238 255
226 238 255
226 238 255
226 238 255
226 238 255
226 238 255
226 238 255
226 238 255
226 238 255
226 238 255
226 238 255
226 238 255
226 238 255
226 238 255
226 238 255
226 238 255
226 238 255
226 238 255
226 238 255
226 238 255
226 238 255
226 238 255
226 238 255
226 238 255
226 238 255
226 238 255
226 238 255
226 238 255
226 238 255
226 238 255
226 238 255
226 238 255
226 238 255
226 238 255
226 238 255
226 238 255
226 238 255
226 238 255
226 238 255
226 238 255
226 238 255
226 238 255
226 238 255
226 238 255
226 238 255
226 238 255
226 238 255
226 238 255
226 238 255
226 238 255
226 238 255
226 238 255
226 238 255
226 238 255
226 238 255
226 238 255
226 238 255
226 238 255
226 238 255
226 238 255
226 238 255
226 238 255
226 238 255
226 238 255
226 238 255
226 238 255
226 238 255
226 238 255
226 238 255
226 238 255
226 238 255
226 238 255
226 238 255
226 238 255
226 238 255
226 238 255
226 238 255
226 238 255
226 238 255
226 238 255
226 238 255
226 238 255
226 238 255
226 238 255
226 238 255
226 238 255
226 238 255
226 238 255
226 238 255
226 238 255
226 238 255
226 238 255
226 238 255
226 238 255
226 238 255
226 238 255
226 238 255
226 238 255
226 238 255
226 238 255
226 238 255
226 238 255
226 238 255
226 238 255
226 238 255
226 238 255
226 238 255
226 238 255
226 238 255
184 194 209
0 0 45
0 0 47
20 31 47
11 17 53
44 80 36
54 84 21
42 66 8
43 63 10
56 68 22
49 76 18
47 76 9
53 79 12
66 88 19
58 83 18
77 90 32
80 90 29
42 63 10
32 70 55
10 50 78
0 0 43
0 0 45
0 0 45
0 0 46
0 0 49
0 0 51
0 0 56
0 0 53
0 0 51
0 0 48
0 0 46
0 0 45
0 0 45
0 0 42
0 0 42
0 0 42
0 0 42
0 0 42
0 0 42
0 0 42
0 0 42
0 0 42
0 0 42
0 0 42
0 0 42
0 0 42
0 0 42
0 0 42
0 0 42
0 0 42
0 0 42
0 0 42
0 0 42
0 0 42
0 0 42
0 0 42
0 0 42
0 0 42
0 0 42
0 0 42
0 0 42
0 0 42
0 0 42
0 0 42
0 0 42
0 0 42
0 0 42
0 0 42
0 0 42
0 0 42
0 0 42
0 0 42
0 0 42
0 0 43
0 0 44
0 0 46
0 0 47
0 0 46
0 0 44
0 0 44
0 0 44
0 0 45
0 0 45
0 0 45
0 0 45
0 0 47
0 0 48
0 12 63
7 72 121
31 75 80
57 78 33
59 82 34
67 80 36
75 87 39
74 91 42
68 92 34
56 86 18
52 82 16
49 80 11
45 76 8
49 79 12
50 80 5
53 80 9
56 81 15
62 82 22
69 85 28
65 83 25
68 87 28
69 88 33
73 92 39
82 97 43
81 93 43
80 91 43
74 89 39
76 93 40
98 108 54
98 106 51
108 115 57
115 120 64
106 111 58
101 107 55
91 108 51
78 98 41
96 111 56
82 98 44
79 99 43
108 113 57
118 117 62
132 122 73
107 111 60
127 126 78
127 128 78
118 123 69
105 115 53
102 113 48
100 106 39
106 111 45
116 117 54
127 126 69
129 129 74
103 118 49
84 107 35
77 98 35
74 96 31
91 117 46
84 107 37
60 89 19
72 101 34
76 102 39
72 97 34
65 93 30
53 89 19
50 87 17
57 90 22
51 84 17
48 84 13
56 88 19
69 93 28
70 91 30
71 88 33
87 104 45
72 88 30
63 87 30
58 83 25
80 100 39
69 89 31
53 80 17
57 84 19
59 86 22
57 86 20
62 90 22
54 86 18
47 76 12
46 71 12
47 69 6
55 72 9
59 74 18
65 79 33
68 80 34
74 79 37
106 98 59
168 122 97
175 112 86
166 125 96
183 147 112
145 116 96
0 0 52
0 0 42
0 0 42
0 0 42
0 0 42
174 183 198
226 238 255
226 238 255
226 238 255
226 238 255
226 238 255
226 238 255
226 238 255
226 238 255
226 238 255
226 238 255
226 238 255
226 238 255
226 238 255
226 238 255
226 238 255
226 238 255
226 238 255
226 238 255
226 238 255
226 238 255
226 238 255
226 238 255
226 238 255
226 238 255
226 238 255
226 238 255
226 238 255
226 238 255
226 238 255
226 238 255
226 238 255
226 238 255
226 238 255
226 238 255
226 238 255
226 238 255
226 238 255
226 238 255
226 238 255
226 238 255
226 238 255
226 238 255
226 238 255
226 238 255
226 238 255
226 238 255
226 238 255
226 238 255
226 238 255
226 238 255
226 238 255
226 238 255
226 238 255
226 238 255
226 238 255
226 238 255
226 238 255
226 238 255
226 238 255
226 238 255
226 238 255
226 238 255
226 238 255
226 238 255
226 238 255
226 238 255
226 238 255
226 238 255
226 238 255
226 238 255
226 238 255
226 238 255
226 238 255
226 238 255
226 238 255
226 238 255
226 238 255
226 238 255
226 238 255
226 238 255
226 238 255
226 238 255
226 238 255
226 238 255
226 238 255
226 238 255
226 238 255
226 238 255
226 238 255
226 238 255
226 238 255
226 238 255
226 238 255
226 238 255
226 238 255
226 238 255
226 238 255
226 238 255
226 238 255
226 238 255
226 238 255
226 238 255
226 238 255
226 238 255
226 238 255
226 238 255
226 238 255
226 238 255
226 238 255
226 238 255
226 238 255
226 238 255
226 238 255
226 238 255
226 238 255
226 238 255
226 238 255
226 238 255
226 238 255
226 238 255
226 238 255
226 238 255
226 238 255
226 238 255
226 238 255
226 238 255
226 238 255
226 238 255
226 238 255
226 238 255
226 238 255
226 238 255
226 238 255
226 238 255
226 238 255
226 238 255
226 238 255
226 238 255
226 238 255
226 238 255
226 238 255
226 238 255
226 238 255
226 238 255
226 238 255
226 238 255
226 238 255
226 238 255
226 238 255
226 238 255
226 238 255
226 238 255
226 238 255
226 238 255
226 238 255
226 238 255
226 238 255
226 238 255
226 238 255
226 238 255
226 238 255
226 238 255
226 238 255
226 238 255
226 238 255
226 238 255
226 238 255
226 238 255
226 238 255
226 238 255
226 238 255
226 238 255
226 238 255
226 238 255
226 238 255
226 238 255
226 238 255
226 238 255
226 238 255
226 238 255
226 238 255
226 238 255
226 238 255
226 238 255
226 238 255
226 238 255
226 238 255
226 238 255
226 238 255
226 238 255
226 238 255
226 238 255
226 238 255
226 238 255
226 238 255
226 238 255
226 238 255
226 238 255
226 238 255
226 238 255
226 238 255
226 238 255
226 238 255
226 238 255
226 238 255
226 238 255
226 238 255
226 238 255
178 188 203
0 0 45
0 0 46
0 0 50
0 0 54
54 81 46
44 66 15
35 59 7
50 68 17
49 74 15
52 78 11
48 81 0
53 78 9
77 88 31
73 85 27
97 97 43
77 77 28
65 78 23
37 64 13
13 88 113
0 0 51
0 0 45
0 0 45
0 0 46
0 0 51
0 0 54
0 0 56
0 0 53
0 0 51
0 0 50
0 0 47
0 0 45
0 0 45
0 0 42
0 0 42
0 0 42
0 0 42
0 0 42
0 0 42
0 0 42
0 0 42
0 0 42
0 0 42
0 0 42
0 0 42
0 0 42
0 0 42
0 0 42
0 0 42
0 0 42
0 0 42
0 0 42
0 0 42
0 0 42
0 0 42
0 0 42
0 0 42
0 0 42
0 0 42
0 0 42
0 0 42
0 0 42
0 0 42
0 0 42
0 0 42
0 0 42
0 0 42
0 0 42
0 0 42
0 0 42
0 0 42
0 0 42
0 0 42
0 0 43
0 0 47
0 0 46
0 0 43
0 0 43
0 0 42
0 0 42
0 0 42
0 0 43
0 0 43
0 0 42
0 0 46
0 0 45
0 0 51
0 10 68
0 52 112
3 50 102
19 55 85
32 68 60
52 70 19
59 73 30
68 79 34
57 80 19
49 77 6
51 78 17
51 77 16
47 74 5
51 78 12
54 78 15
60 81 23
69 86 31
69 84 28
63 82 28
66 85 29
71 87 30
79 91 38
78 87 37
67 85 31
66 80 30
83 93 47
84 94 46
84 98 46
85 102 51
83 99 46
84 100 43
92 107 51
95 112 56
95 109 54
80 101 43
75 98 41
81 95 42
78 92 38
82 100 44
79 92 33
86 101 41
117 121 72
109 114 66
119 122 74
109 114 63
113 117 66
109 111 60
107 112 56
84 100 37
72 91 27
74 94 33
86 100 41
104 109 56
100 113 49
71 95 27
78 102 36
83 102 35
92 113 46
88 109 41
67 92 24
66 93 27
71 97 33
65 90 32
64 89 33
51 84 21
48 81 18
59 89 25
45 75 8
50 84 14
53 83 17
55 81 16
54 81 14
51 79 13
51 82 14
58 88 23
61 88 30
56 77 24
49 77 12
51 78 16
47 77 10
54 79 18
55 81 17
55 88 16
58 90 16
48 84 8
43 73 6
44 70 4
45 71 0
54 76 13
60 71 19
70 80 36
81 81 42
91 91 53
125 109 71
159 115 88
164 99 77
159 103 79
167 125 93
142 115 102
0 0 54
0 0 42
0 0 42
0 0 42
0 0 42
160 168 183
226 238 255
226 238 255
226 238 255
226 238 255
226 238 255
226 238 255
226 238 255
226 238 255
226 238 255
226 238 255
226 238 255
226 238 255
226 238 255
226 238 255
226 238 255
226 238 255
226 238 255
226 238 255
226 238 255
226 238 255
226 238 255
226 238 255
226 238 255
226 238 255
226 238 255
226 238 255
226 238 255
226 238 255
226 238 255
226 238 255
226 238 255
226 238 255
226 238 255
226 238 255
226 238 255
226 238 255
226 238 255
226 238 255
226 238 255
226 238 255
226 238 255
226 238 255
226 238 255
226 238 255
226 238 255
226 238 255
226 238 255
226 238 255
226 238 255
226 238 255
226 238 255
226 238 255
226 238 255
226 238 255
226 238 255
226 238 255
226 238 255
226 238 255
226 238 255
226 238 255
226 238 255
226 238 255
226 238 255
226 238 255
226 238 255
226 238 255
226 238 255
226 238 255
226 238 255
226 238 255
226 238 255
226 238 255
226 238 255
226 238 255
226 238 255
226 238 255
226 238 255
226 238 255
226 238 255
226 238 255
226 238 255
226 238 255
226 238 255
226 238 255
226 238 255
226 238 255
226 238 255
226 238 255
226 238 255
226 238 255
226 238 255
226 238 255
226 238 255
226 238 255
226 238 255
226 238 255
226 238 255
226 238 255
226 238 255
226 238 255
226 238 255
226 238 255
226 238 255
226 238 255
226 238 255
226 238 255
226 238 255
226 238 255
226 238 255
226 238 255
226 238 255
226 238 255
226 238 255
226 238 255
226 238 255
226 238 255
226 238 255
226 238 255
226 238 255
226 238 255
226 238 255
226 238 255
226 238 255
226 238 255
226 238 255
226 238 255
226 238 255
226 238 255
226 238 255
226 238 255
226 238 255
226 238 255
226 238 255
226 238 255
226 238 255
226 238 255
226 238 255
226 238 255
226 238 255
226 238 255
226 238 255
226 238 255
226 238 255
226 238 255
226 238 255
226 238 255
226 238 255
226 238 255
226 238 255
226 238 255
226 238 255
226 238 255
226 238 255
226 238 255
226 238 255
226 238 255
226 238 255
226 238 255
226 238 255
226 238 255
226 238 255
226 238 255
226 238 255
226 238 255
226 238 255
226 238 255
226 238 255
226 238 255
226 238 255
226 238 255
226 238 255
226 238 255
226 238 255
226 238 255
226 238 255
226 238 255
226 238 255
226 238 255
226 238 255
226 238 255
226 238 255
226 238 255
226 238 255
226 238 255
226 238 255
226 238 255
226 238 255
226 238 255
226 238 255
226 238 255
226 238 255
226 238 255
226 238 255
226 238 255
226 238 255
226 238 255
226 238 255
226 238 255
226 238 255
226 238 255
226 238 255
226 238 255
226 238 255
226 238 255
226 238 255
226 238 255
226 238 255
226 238 255
141 149 163
0 0 45
0 0 46
0 0 52
0 0 48
49 70 46
37 57 2
36 59 4
61 75 28
41 72 0
45 69 0
44 73 0
49 80 11
67 77 22
88 90 35
87 89 33
72 80 33
43 61 12
32 57 12
22 60 57
5 26 66
0 0 45
0 0 45
0 0 45
0 0 52
0 0 58
0 0 56
0 0 51
0 0 50
0 0 48
0 0 46
0 0 46
0 0 44
0 0 42
0 0 42
0 0 42
0 0 42
0 0 42
0 0 42
0 0 42
0 0 42
0 0 42
0 0 42
0 0 42
0 0 42
0 0 42
0 0 42
0 0 42
0 0 42
0 0 42
0 0 42
0 0 42
0 0 42
0 0 42
0 0 42
0 0 42
0 0 42
0 0 42
0 0 42
0 0 42
0 0 42
0 0 42
0 0 42
0 0 42
0 0 42
0 0 42
0 0 42
0 0 42
0 0 41
0 0 42
0 0 42
0 0 43
0 0 45
0 0 45
0 0 45
0 0 43
0 0 42
0 0 42
0 0 45
0 0 44
0 0 42
0 0 42
0 0 42
0 0 42
0 0 43
0 0 44
0 0 44
0 4 54
0 48 90
2 93 122
8 54 97
17 64 86
47 70 41
71 77 38
61 79 33
56 80 16
54 77 22
59 74 23
45 71 15
48 71 18
55 79 18
56 78 17
59 78 25
64 82 30
59 77 19
56 78 17
69 89 32
74 89 36
78 86 38
84 88 45
79 85 41
81 87 43
88 95 51
88 96 47
87 98 48
96 106 56
85 99 50
80 99 46
87 105 50
91 102 47
104 111 55
99 109 56
98 112 62
75 90 37
70 88 31
75 93 35
72 88 31
80 96 42
96 110 60
104 114 61
111 120 65
104 114 59
99 106 51
102 106 51
100 110 52
82 99 33
66 85 22
70 87 28
87 101 46
95 102 57
106 115 60
91 109 46
80 101 33
92 111 47
87 105 43
86 108 39
88 108 43
62 84 20
55 81 16
59 84 26
65 89 36
56 82 24
53 83 21
56 84 20
52 81 13
46 76 6
49 77 6
46 71 5
43 74 8
41 74 7
45 78 8
45 79 7
58 85 23
59 78 24
55 80 22
53 79 19
51 79 19
51 73 17
46 70 11
46 77 10
50 80 0
46 82 1
44 79 3
42 69 0
42 68 3
48 72 6
67 81 25
71 84 33
76 79 38
83 83 45
141 118 88
152 118 92
142 97 76
163 108 85
186 130 101
121 102 96
0 1 50
0 0 43
0 0 42
0 0 42
0 0 42
160 168 183
226 238 255
226 238 255
226 238 255
226 238 255
226 238 255
226 238 255
226 238 255
226 238 255
226 238 255
226 238 255
226 238 255
226 238 255
226 238 255
226 238 255
226 238 255
226 238 255
226 238 255
226 238 255
226 238 255
226 238 255
226 238 255
226 238 255
226 238 255
226 238 255
226 238 255
226 238 255
226 238 255
226 238 255
226 238 255
226 238 255
226 238 255
226 238 255
226 238 255
226 238 255
226 238 255
226 238 255
226 238 255
226 238 255
226 238 255
226 238 255
226 238 255
226 238 255
226 238 255
226 238 255
226 238 255
226 238 255
226 238 255
226 238 255
226 238 255
226 238 255
226 238 255
226 238 255
226 238 255
226 238 255
226 238 255
226 238 255
226 238 255
226 238 255
226 238 255
226 238 255
226 238 255
226 238 255
226 238 255
226 238 255
226 238 255
226 238 255
226 238 255
226 238 255
226 238 255
226 238 255
226 238 255
226 238 255
226 238 255
226 238 255
226 238 255
226 238 255
226 238 255
226 238 255
226 238 255
226 238 255
226 238 255
226 238 255
226 238 255
226 238 255
226 238 255
226 238 255
226 238 255
226 238 255
226 238 255
226 238 255
226 238 255
226 238 255
226 238 255
226 238 255
226 238 255
226 238 255
226 238 255
226 238 255
226 238 255
226 238 255
226 238 255
226 238 255
226 238 255
226 238 255
226 238 255
226 238 255
226 238 255
226 238 255
226 238 255
226 238 255
226 238 255
226 238 255
226 238 255
226 238 255
226 238 255
226 238 255
226 238 255
226 238 255
226 238 255
226 238 255
226 238 255
226 238 255
226 238 255
226 238 255
226 238 255
226 238 255
226 238 255
226 238 255
226 238 255
226 238 255
226 238 255
226 238 255
226 238 255
226 238 255
226 238 255
226 238 255
226 238 255
226 238 255
226 238 255
226 238 255
226 238 255
226 238 255
226 238 255
226 238 255
226 238 255
226 238 255
226 238 255
226 238 255
226 238 255
226 238 255
226 238 255
226 238 255
226 238 255
226 238 255
226 238 255
226 238 255
226 238 255
226 238 255
226 238 255
226 238 255
226 238 255
226 238 255
226 238 255
226 238 255
226 238 255
226 238 255
226 238 255
226 238 255
226 238 255
226 238 255
226 238 255
226 238 255
226 238 255
226 238 255
226 238 255
226 238 255
226 238 255
226 238 255
226 238 255
226 238 255
226 238 255
226 238 255
226 238 255
226 238 255
226 238 255
226 238 255
226 238 255
226 238 255
226 238 255
226 238 255
226 238 255
226 238 255
226 238 255
226 238 255
226 238 255
226 238 255
226 238 255
226 238 255
226 238 255
226 238 255
226 238 255
226 238 255
226 238 255
226 238 255
226 238 255
226 238 255
226 238 255
226 238 255
157 165 180
0 0 45
0 0 46
0 0 52
0 0 49
53 76 49
39 58 6
41 62 6
69 79 33
43 69 3
47 67 0
61 70 16
60 72 18
52 69 14
63 73 22
67 77 23
66 70 29
52 70 13
24 52 0
30 53 6
18 57 69
0 28 67
0 0 43
0 0 41
0 0 51
0 0 58
0 0 58
0 0 50
0 0 45
0 0 46
0 0 44
0 0 45
0 0 44
0 0 42
0 0 42
0 0 42
0 0 42
0 0 42
0 0 42
0 0 42
0 0 42
0 0 42
0 0 42
0 0 42
0 0 42
0 0 42
0 0 42
0 0 42
0 0 42
0 0 42
0 0 42
0 0 42
0 0 42
0 0 42
0 0 42
0 0 42
0 0 42
0 0 42
0 0 42
0 0 42
0 0 42
0 0 42
0 0 42
0 0 42
0 0 42
0 0 42
0 0 42
0 0 42
0 0 42
0 0 42
0 0 42
0 0 42
0 0 43
0 0 45
0 0 43
0 0 42
0 0 42
0 0 42
0 0 45
0 0 45
0 0 43
0 0 43
0 0 43
0 0 44
0 0 44
0 0 45
0 0 42
0 0 46
0 8 61
0 39 92
0 38 94
0 46 107
21 65 96
63 82 45
65 80 24
61 75 25
53 81 19
54 74 23
48 72 16
49 71 17
53 75 14
53 73 12
64 82 32
61 77 28
56 73 18
54 77 18
58 78 20
63 79 24
81 90 42
89 95 52
85 92 45
85 93 46
87 95 48
83 94 45
87 99 47
90 103 52
82 96 45
79 96 45
86 102 50
94 104 50
92 102 49
94 105 51
104 116 60
80 95 41
79 98 45
72 92 39
81 96 43
75 91 38
92 105 57
102 113 63
99 111 58
94 109 54
105 121 61
88 102 37
79 96 32
78 96 30
79 96 34
72 88 32
82 95 35
94 106 51
93 103 51
90 104 47
82 101 35
76 94 31
78 96 37
77 100 30
77 94 32
67 85 27
51 71 15
56 79 19
62 82 28
58 82 24
52 80 16
47 73 5
46 74 7
44 72 0
42 69 0
40 66 9
35 62 0
41 68 0
40 67 0
38 65 0
41 72 8
44 75 12
54 80 18
57 79 18
46 71 12
49 69 14
48 66 13
47 75 12
47 77 11
46 82 0
43 78 0
38 66 0
47 72 11
48 75 11
66 80 28
65 81 29
61 72 27
92 90 54
142 119 83
138 114 79
133 101 74
175 120 93
199 144 114
110 98 94
0 0 45
0 0 43
0 0 42
0 0 42
0 0 42
148 156 170
226 238 255
226 238 255
226 238 255
226 238 255
226 238 255
226 238 255
226 238 255
226 238 255
226 238 255
226 238 255
226 238 255
226 238 255
226 238 255
226 238 255
226 238 255
226 238 255
226 238 255
226 238 255
226 238 255
226 238 255
226 238 255
226 238 255
226 238 255
226 238 255
226 238 255
226 238 255
226 238 255
226 238 255
226 238 255
226 238 255
226 238 255
226 238 255
226 238 255
226 238 255
226 238 255
226 238 255
226 238 255
226 238 255
226 238 255
226 238 255
226 238 255
226 238 255
226 238 255
226 238 255
226 238 255
226 238 255
226 238 255
226 238 255
226 238 255
226 238 255
226 238 255
226 238 255
226 238 255
226 238 255
226 238 255
226 238 255
226 238 255
226 238 255
226 238 255
226 238 255
226 238 255
226 238 255
226 238 255
226 238 255
226 238 255
226 238 255
226 238 255
226 238 255
226 238 255
226 238 255
226 238 255
226 238 255
226 238 255
226 238 255
226 238 255
226 238 255
226 238 255
226 238 255
226 238 255
226 238 255
226 238 255
226 238 255
226 238 255
226 238 255
226 238 255
226 238 255
226 238 255
226 238 255
226 238 255
226 238 255
226 238 255
226 238 255
226 238 255
226 238 255
226 238 255
226 238 255
226 238 255
226 238 255
226 238 255
226 238 255
226 238 255
226 238 255
226 238 255
226 238 255
226 238 255
226 238 255
226 238 255
226 238 255
226 238 255
226 238 255
226 238 255
226 238 255
226 238 255
226 238 255
226 238 255
226 238 255
226 238 255
226 238 255
226 238 255
226 238 255
226 238 255
226 238 255
226 238 255
226 238 255
226 238 255
226 238 255
226 238 255
226 238 255
226 238 255
226 238 255
226 238 255
226 238 255
226 238 255
226 238 255
226 238 255
226 238 255
226 238 255
226 238 255
226 238 255
226 238 255
226 238 255
226 238 255
226 238 255
226 238 255
226 238 255
226 238 255
226 238 255
226 238 255
226 238 255
226 238 255
226 238 255
226 238 255
226 238 255
226 238 255
226 238 255
226 238 255
226 238 255
226 238 255
226 238 255
226 238 255
226 238 255
226 238 255
226 238 255
226 238 255
226 238 255
226 238 255
226 238 255
226 238 255
226 238 255
226 238 255
226 238 255
226 238 255
226 238 255
226 238 255
226 238 255
226 238 255
226 238 255
226 238 255
226 238 255
226 238 255
226 238 255
226 238 255
226 238 255
226 238 255
226 238 255
226 238 255
226 238 255
226 238 255
226 238 255
226 238 255
226 238 255
226 238 255
226 238 255
226 238 255
226 238 255
226 238 255
226 238 255
226 238 255
226 238 255
226 238 255
226 238 255
226 238 255
226 238 255
226 238 255
226 238 255
226 238 255
226 238 255
226 238 255
158 167 182
0 0 44
0 0 45
0 0 50
0 0 52
56 87 53
41 61 8
44 63 13
67 79 31
48 66 8
57 66 16
75 81 31
65 72 25
42 63 9
35 59 0
54 70 18
63 71 27
57 72 21
29 57 0
28 51 0
28 58 38
14 67 93
0 0 47
0 0 49
0 0 51
0 0 64
0 0 64
0 0 45
0 0 44
0 0 44
0 0 43
0 0 45
0 0 44
0 0 42
0 0 42
0 0 42
0 0 42
0 0 42
0 0 42
0 0 42
0 0 42
0 0 42
0 0 42
0 0 42
0 0 42
0 0 42
0 0 42
0 0 42
0 0 42
0 0 42
0 0 42
0 0 42
0 0 42
0 0 42
0 0 42
0 0 42
0 0 42
0 0 42
0 0 42
0 0 42
0 0 42
0 0 42
0 0 42
0 0 42
0 0 42
0 0 42
0 0 42
0 0 42
0 0 42
0 0 42
0 0 42
0 0 42
0 0 42
0 0 42
0 0 42
0 0 42
0 0 42
0 0 42
0 0 45
0 0 45
0 0 45
0 0 45
0 0 45
0 0 45
0 0 45
0 0 45
0 0 44
0 0 43
0 0 41
0 14 58
0 42 97
0 62 117
4 81 123
31 62 83
56 78 52
69 80 29
55 80 26
49 73 21
54 77 21
58 83 27
49 72 6
46 67 2
52 73 23
55 76 26
49 69 15
47 71 7
55 77 16
62 80 23
76 88 38
77 84 39
75 85 32
76 88 37
82 96 43
77 93 41
77 92 39
81 97 45
69 86 33
65 81 29
79 94 43
89 100 47
99 111 54
98 111 51
105 115 56
97 109 52
79 95 40
74 93 40
79 96 42
74 89 35
82 96 48
91 107 57
85 102 46
98 116 62
96 115 55
82 104 38
65 87 19
74 92 28
88 103 45
88 102 45
86 100 36
89 104 37
90 105 49
87 102 44
79 99 37
66 91 26
67 90 25
68 93 27
64 86 26
64 84 29
72 90 37
65 82 26
64 81 31
60 79 27
54 82 17
52 78 14
47 72 13
37 62 0
33 60 0
31 56 3
36 60 0
40 67 0
38 66 0
35 61 0
37 67 0
37 70 0
39 73 0
47 76 13
47 73 6
45 70 6
45 63 6
44 72 7
38 69 3
44 78 2
44 80 0
38 67 0
50 80 13
51 81 9
63 79 23
56 78 18
56 74 23
93 86 50
168 141 103
168 136 99
151 111 84
166 112 84
199 150 113
93 80 94
0 0 46
0 0 45
0 0 42
0 0 42
0 0 42
130 137 151
226 238 255
226 238 255
226 238 255
226 238 255
226 238 255
226 238 255
226 238 255
226 238 255
226 238 255
226 238 255
226 238 255
226 238 255
226 238 255
226 238 255
226 238 255
226 238 255
226 238 255
226 238 255
226 238 255
226 238 255
226 238 255
226 238 255
226 238 255
226 238 255
226 238 255
226 238 255
226 238 255
226 238 255
226 238 255
226 238 255
226 238 255
226 238 255
226 238 255
226 238 255
226 238 255
226 238 255
226 238 255
226 238 255
226 238 255
226 238 255
226 238 255
226 238 255
226 238 255
226 238 255
226 238 255
226 238 255
226 238 255
226 238 255
226 238 255
226 238 255
226 238 255
226 238 255
226 238 255
226 238 255
226 238 255
226 238 255
226 238 255
226 238 255
226 238 255
226 238 255
226 238 255
226 238 255
226 238 255
226 238 255
226 238 255
226 238 255
226 238 255
226 238 255
226 238 255
226 238 255
226 238 255
226 238 255
226 238 255
226 238 255
226 238 255
226 238 255
226 238 255
226 238 255
226 238 255
226 238 255
226 238 255
226 238 255
226 238 255
226 238 255
226 238 255
226 238 255
226 238 255
226 238 255
226 238 255
226 238 255
226 238 255
226 238 255
226 238 255
226 238 255
226 238 255
226 238 255
226 238 255
226 238 255
226 238 255
226 238 255
226 238 255
226 238 255
226 238 255
226 238 255
226 238 255
226 238 255
226 238 255
226 238 255
226 238 255
226 238 255
226 238 255
226 238 255
226 238 255
226 238 255
226 238 255
226 238 255
226 238 255
226 238 255
226 238 255
226 238 255
226 238 255
226 238 255
226 238 255
226 238 255
226 238 255
226 238 255
226 238 255
226 238 255
226 238 255
226 238 255
226 238 255
226 238 255
226 238 255
226 238 255
226 238 255
226 238 255
226 238 255
226 238 255
226 238 255
226 238 255
226 238 255
226 238 255
226 238 255
226 238 255
226 238 255
226 238 255
226 238 255
226 238 255
226 238 255
226 238 255
226 238 255
226 238 255
226 238 255
226 238 255
226 238 255
226 238 255
226 238 255
226 238 255
226 238 255
226 238 255
226 238 255
226 238 255
226 238 255
226 238 255
226 238 255
226 238 255
226 238 255
226 238 255
226 238 255
226 238 255
226 238 255
226 238 255
226 238 255
226 238 255
226 238 255
226 238 255
226 238 255
226 238 255
226 238 255
226 238 255
226 238 255
226 238 255
226 238 255
226 238 255
226 238 255
226 238 255
226 238 255
226 238 255
226 238 255
226 238 255
226 238 255
226 238 255
226 238 255
226 238 255
226 238 255
226 238 255
226 238 255
226 238 255
226 238 255
226 238 255
226 238 255
226 238 255
226 238 255
226 238 255
226 238 255
226 238 255
226 238 255
226 238 255
132 139 154
0 0 46
0 0 47
0 0 48
1 7 53
55 83 44
45 63 11
63 79 34
58 78 23
52 69 15
59 74 22
67 76 25
46 64 17
36 57 0
41 62 6
45 66 7
37 55 9
31 56 4
28 52 0
29 52 0
30 54 8
22 78 92
0 20 58
0 0 43
0 0 50
0 6 62
0 9 72
0 7 53
0 0 46
0 0 44
0 0 44
0 0 44
0 0 44
0 0 42
0 0 40
0 0 42
0 0 42
0 0 42
0 0 42
0 0 42
0 0 42
0 0 42
0 0 42
0 0 42
0 0 42
0 0 42
0 0 42
0 0 42
0 0 42
0 0 42
0 0 42
0 0 42
0 0 42
0 0 42
0 0 42
0 0 42
0 0 42
0 0 42
0 0 42
0 0 42
0 0 42
0 0 42
0 0 42
0 0 42
0 0 42
0 0 42
0 0 42
0 0 42
0 0 42
0 0 42
0 0 42
0 0 42
0 0 42
0 0 42
0 0 42
0 0 42
0 0 42
0 0 42
0 0 44
0 0 45
0 0 45
0 0 45
0 0 45
0 0 44
0 0 45
0 0 45
0 0 45
0 0 43
0 0 42
0 0 46
0 0 56
0 15 74
0 26 84
0 21 84
21 46 74
53 80 48
61 80 24
55 76 21
47 73 14
47 77 14
49 79 10
51 81 16
46 74 16
42 69 5
40 68 0
46 71 0
54 79 15
55 78 18
64 80 24
70 82 34
77 92 37
68 85 29
69 89 33
66 86 29
64 82 26
69 89 33
61 80 21
63 80 25
84 101 47
83 98 41
96 114 52
100 117 51
89 103 42
83 96 36
76 95 34
84 106 49
72 92 35
75 93 40
76 93 42
83 104 51
73 95 36
91 110 52
83 99 42
87 110 52
70 92 30
83 99 38
83 97 39
102 114 58
93 104 46
89 101 42
82 99 42
79 97 40
65 86 27
54 84 18
55 83 13
57 86 18
57 82 23
58 82 24
65 83 29
58 76 21
59 78 23
53 71 20
46 71 14
43 72 2
38 68 5
28 56 0
24 49 0
30 55 0
36 60 0
39 67 0
36 66 0
37 64 0
36 63 0
32 64 0
35 68 0
40 71 3
40 71 0
44 70 6
44 66 5
46 75 8
48 79 16
46 77 9
47 84 9
38 70 0
46 79 10
47 77 0
68 85 23
49 73 11
55 73 19
93 89 48
132 111 73
171 137 100
159 126 87
161 114 86
183 139 107
45 42 71
0 0 44
0 0 42
0 0 42
0 0 42
0 0 42
141 149 163
226 238 255
226 238 255
226 238 255
226 238 255
226 238 255
226 238 255
226 238 255
226 238 255
226 238 255
226 238 255
226 238 255
226 238 255
226 238 255
226 238 255
226 238 255
226 238 255
226 238 255
226 238 255
226 238 255
226 238 255
226 238 255
226 238 255
226 238 255
226 238 255
226 238 255
226 238 255
226 238 255
226 238 255
226 238 255
226 238 255
226 238 255
226 238 255
226 238 255
226 238 255
226 238 255
226 238 255
226 238 255
226 238 255
226 238 255
226 238 255
226 238 255
226 238 255
226 238 255
226 238 255
226 238 255
226 238 255
226 238 255
226 238 255
226 238 255
226 238 255
226 238 255
226 238 255
226 238 255
226 238 255
226 238 255
226 238 255
226 238 255
226 238 255
226 238 255
226 238 255
226 238 255
226 238 255
226 238 255
226 238 255
226 238 255
226 238 255
226 238 255
226 238 255
226 238 255
226 238 255
226 238 255
226 238 255
226 238 255
226 238 255
226 238 255
226 238 255
226 238 255
226 238 255
226 238 255
226 238 255
226 238 255
226 238 255
226 238 255
226 238 255
226 238 255
226 238 255
226 238 255
226 238 255
226 238 255
226 238 255
226 238 255
226 238 255
226 238 255
226 238 255
226 238 255
226 238 255
226 238 255
226 238 255
226 238 255
226 238 255
226 238 255
226 238 255
226 238 255
226 238 255
226 238 255
226 238 255
226 238 255
226 238 255
226 238 255
226 238 255
226 238 255
226 238 255
226 238 255
226 238 255
226 238 255
226 238 255
226 238 255
226 238 255
226 238 255
226 238 255
226 238 255
226 238 255
226 238 255
226 238 255
226 238 255
226 238 255
226 238 255
226 238 255
226 238 255
226 238 255
226 238 255
226 238 255
226 238 255
226 238 255
226 238 255
226 238 255
226 238 255
226 238 255
226 238 255
226 238 255
226 238 255
226 238 255
226 238 255
226 238 255
226 238 255
226 238 255
226 238 255
226 238 255
226 238 255
226 238 255
226 238 255
226 238 255
226 238 255
226 238 255
226 238 255
226 238 255
226 238 255
226 238 255
226 238 255
226 238 255
226 238 255
226 238 255
226 238 255
226 238 255
226 238 255
226 238 255
226 238 255
226 238 255
226 238 255
226 238 255
226 238 255
226 238 255
226 238 255
226 238 255
226 238 255
226 238 255
226 239 255
226 238 255
226 238 255
226 239 255
226 239 255
226 239 255
226 239 255
226 239 255
226 239 255
226 239 255
226 239 255
226 239 255
226 239 255
226 239 255
226 239 255
226 239 255
226 239 255
226 239 255
226 239 255
226 239 255
226 239 255
226 239 255
226 239 255
226 239 255
226 239 255
226 239 255
226 239 255
226 239 255
226 239 255
226 239 255
226 239 255
227 239 255
136 143 157
0 0 49
0 0 50
0 0 46
4 18 58
55 81 40
56 73 21
65 82 32
55 74 16
62 75 21
68 77 27
67 73 24
32 50 7
31 54 0
40 61 8
39 60 0
32 52 0
23 48 0
29 50 0
30 50 0
33 51 5
34 72 58
12 73 106
0 0 51
0 8 63
0 9 70
0 17 80
0 8 65
0 0 53
0 0 44
0 0 44
0 0 45
0 0 44
0 0 42
0 0 42
0 0 42
0 0 42
0 0 42
0 0 42
0 0 42
0 0 42
0 0 42
0 0 42
0 0 42
0 0 42
0 0 42
0 0 42
0 0 42
0 0 42
0 0 42
0 0 42
0 0 42
0 0 42
0 0 42
0 0 42
0 0 42
0 0 42
0 0 42
0 0 42
0 0 42
0 0 42
0 0 42
0 0 42
0 0 42
0 0 42
0 0 42
0 0 42
0 0 43
0 0 43
0 0 42
0 0 42
0 0 42
0 0 40
0 0 40
0 0 42
0 0 42
0 0 42
0 0 42
0 0 42
0 0 44
0 0 45
0 0 45
0 0 45
0 0 43
0 0 45
0 0 45
0 0 45
0 0 42
0 0 42
0 0 43
0 0 47
0 0 45
0 5 45
0 3 46
4 26 84
38 73 69
58 80 16
60 86 28
57 82 24
57 85 22
56 84 19
51 80 17
48 78 17
42 70 9
47 76 7
52 75 7
50 75 7
53 77 8
57 78 19
63 80 26
61 82 25
57 80 18
58 84 22
57 83 20
58 80 18
61 85 18
60 83 20
61 81 23
72 91 32
74 94 32
93 115 49
86 106 41
75 96 37
69 91 35
67 91 33
79 101 39
78 101 41
80 101 43
85 106 52
70 94 40
55 80 16
63 84 23
74 93 36
75 95 40
74 93 33
89 105 43
87 108 48
97 111 56
100 107 54
94 104 49
66 89 27
56 85 18
51 82 12
44 77 2
42 73 0
41 74 0
45 74 13
56 82 16
57 82 21
46 71 13
43 66 5
40 62 2
38 61 0
39 68 0
33 63 0
28 57 0
27 51 0
35 62 0
40 65 0
35 63 0
35 64 0
37 65 0
35 61 0
33 63 0
34 66 0
37 70 0
38 71 0
43 73 10
47 74 5
44 74 0
47 77 11
48 76 18
50 80 13
48 75 6
46 74 3
51 79 16
62 78 18
54 79 22
69 80 29
99 92 53
127 101 71
173 136 102
185 149 109
152 114 82
166 134 105
12 11 54
0 0 42
0 0 42
0 0 42
0 0 42
0 0 42
120 126 140
226 239 255
226 239 255
226 239 255
226 239 255
226 239 255
226 239 255
226 239 255
226 239 255
226 239 255
226 239 255
226 239 255
226 239 255
226 239 255
226 239 255
226 239 255
226 239 255
226 239 255
226 239 255
226 239 255
226 239 255
226 239 255
226 239 255
226 239 255
226 239 255
226 239 255
226 239 255
226 239 255
226 239 255
226 239 255
226 239 255
226 238 255
226 238 255
226 238 255
226 238 255
226 238 255
226 238 255
226 238 255
226 238 255
226 238 255
226 238 255
226 238 255
226 238 255
226 238 255
226 238 255
226 238 255
226 238 255
226 238 255
226 238 255
226 238 255
226 238 255
226 238 255
226 238 255
226 238 255
226 238 255
226 238 255
226 238 255
226 238 255
226 238 255
226 238 255
226 238 255
226 238 255
226 238 255
226 238 255
226 238 255
226 238 255
226 238 255
226 238 255
226 238 255
226 238 255
226 238 255
226 238 255
226 238 255
226 238 255
226 238 255
226 238 255
226 238 255
226 238 255
226 238 255
226 238 255
226 238 255
226 238 255
226 238 255
226 238 255
226 238 255
226 238 255
226 238 255
226 238 255
226 238 255
226 238 255
226 238 255
226 238 255
226 238 255
226 238 255
226 238 255
226 238 255
226 238 255
226 238 255
226 238 255
226 238 255
226 238 255
226 238 255
226 238 255
226 238 255
226 238 255
226 238 255
226 238 255
226 238 255
226 238 255
226 238 255
226 238 255
226 238 255
226 238 255
226 238 255
226 238 255
226 238 255
226 238 255
226 238 255
226 238 255
226 238 255
226 238 255
226 238 255
226 238 255
226 238 255
226 238 255
226 238 255
226 238 255
226 238 255
226 238 255
226 238 255
226 238 255
226 238 255
226 238 255
226 238 255
226 238 255
226 238 255
226 238 255
226 238 255
226 238 255
226 238 255
226 238 255
226 238 255
226 238 255
226 238 255
226 238 255
226 238 255
226 238 255
226 238 255
226 239 255
226 239 255
226 239 255
226 239 255
226 239 255
226 239 255
226 239 255
226 239 255
226 239 255
226 239 255
226 239 255
226 239 255
226 239 255
226 239 255
226 239 255
226 239 255
226 239 255
226 239 255
226 239 255
226 239 255
226 239 255
227 239 255
226 239 255
227 239 255
227 239 255
227 239 255
227 239 255
227 239 255
227 239 255
227 239 255
227 239 255
227 239 255
227 239 255
227 239 255
227 239 255
227 239 255
227 239 255
227 239 255
227 239 255
227 239 255
227 239 255
227 239 255
227 239 255
227 239 255
227 239 255
227 239 255
227 239 255
227 239 255
227 239 255
227 239 255
227 239 255
227 239 255
227 239 255
227 239 255
227 239 255
227 239 255
227 239 255
227 239 255
227 239 255
227 239 255
227 239 255
124 130 145
0 0 52
0 0 53
0 0 47
3 15 60
56 77 36
62 76 25
60 79 22
61 75 16
69 81 28
67 78 27
51 67 16
30 51 0
24 47 0
35 57 0
34 55 0
33 51 0
39 49 0
35 51 0
26 50 0
32 54 8
38 61 13
32 88 78
7 43 93
0 57 105
0 57 111
0 40 97
0 23 80
0 0 60
0 0 48
0 0 45
0 0 45
0 0 45
0 0 43
0 0 42
0 0 42
0 0 42
0 0 42
0 0 42
0 0 42
0 0 42
0 0 42
0 0 42
0 0 42
0 0 42
0 0 42
0 0 42
0 0 42
0 0 42
0 0 42
0 0 42
0 0 42
0 0 42
0 0 42
0 0 42
0 0 42
0 0 42
0 0 42
0 0 42
0 0 42
0 0 42
0 0 42
0 0 42
0 0 42
0 0 42
0 0 42
0 0 40
0 0 41
0 0 42
0 0 42
0 0 42
0 0 41
0 0 40
0 0 41
0 0 42
0 0 43
0 0 44
0 0 44
0 0 43
0 0 44
0 0 45
0 0 45
0 0 45
0 0 43
0 0 43
0 0 44
0 0 43
0 0 42
0 0 43
0 0 40
0 0 38
0 0 47
0 0 44
0 0 48
0 12 68
20 54 67
47 75 13
56 87 25
60 86 21
53 78 20
56 81 23
60 85 31
43 68 11
45 70 8
51 78 11
51 78 12
50 76 3
49 76 0
57 82 15
64 88 27
58 82 20
59 84 20
57 83 18
56 81 18
56 80 19
55 82 17
54 78 13
53 75 13
63 88 24
73 98 32
80 106 41
76 101 35
66 89 36
66 88 35
75 96 47
76 99 37
80 105 49
82 105 57
78 101 56
61 86 35
51 77 15
51 78 17
70 96 37
75 98 39
76 96 36
86 106 47
85 102 46
90 106 50
82 98 38
65 85 27
48 76 8
43 72 0
42 72 0
39 69 0
40 67 0
39 68 0
38 64 2
46 72 10
49 74 13
42 67 10
39 64 0
37 61 0
34 60 0
37 66 0
31 60 0
29 57 0
31 58 0
34 61 0
38 63 0
35 64 0
36 65 0
34 62 0
32 60 0
33 62 0
31 64 0
33 68 0
35 69 0
42 73 0
46 77 0
44 72 0
42 70 8
52 77 20
56 79 22
64 78 30
66 80 28
65 76 26
69 79 26
73 86 38
84 87 40
101 89 49
152 116 89
161 123 95
141 113 80
149 116 81
144 127 91
9 10 48
0 0 42
0 0 42
0 0 42
0 0 42
0 0 42
145 153 167
227 239 255
227 239 255
227 239 255
227 239 255
227 239 255
227 239 255
227 239 255
227 239 255
227 239 255
227 239 255
227 239 255
227 239 255
227 239 255
227 239 255
227 239 255
227 239 255
227 239 255
227 239 255
227 239 255
227 239 255
227 239 255
227 239 255
227 239 255
227 239 255
227 239 255
227 239 255
227 239 255
227 239 255
227 239 255
227 239 255
227 239 255
227 239 255
227 239 255
227 239 255
227 239 255
227 239 255
227 239 255
227 239 255
226 239 255
226 239 255
226 239 255
226 239 255
226 239 255
226 239 255
226 239 255
226 239 255
226 239 255
226 239 255
226 239 255
226 239 255
226 239 255
226 239 255
226 239 255
226 239 255
226 239 255
226 239 255
226 239 255
226 239 255
226 239 255
226 238 255
226 238 255
226 238 255
226 238 255
226 238 255
226 238 255
226 238 255
226 238 255
226 238 255
226 238 255
226 238 255
226 238 255
226 238 255
226 238 255
226 238 255
226 238 255
226 238 255
226 238 255
226 238 255
226 238 255
226 238 255
226 238 255
226 238 255
226 238 255
226 238 255
226 238 255
226 238 255
226 238 255
226 238 255
226 238 255
226 238 255
226 238 255
226 238 255
226 238 255
226 238 255
226 238 255
226 238 255
226 238 255
226 238 255
226 238 255
226 238 255
226 238 255
226 238 255
226 238 255
226 238 255
226 238 255
226 238 255
226 238 255
226 238 255
226 238 255
226 238 255
226 238 255
226 238 255
226 238 255
226 238 255
226 238 255
226 238 255
226 238 255
226 238 255
226 238 255
226 238 255
226 239 255
226 239 255
226 239 255
226 239 255
226 239 255
226 239 255
226 239 255
226 239 255
226 239 255
226 239 255
226 239 255
226 239 255
226 239 255
226 239 255
226 239 255
226 239 255
226 239 255
226 239 255
226 239 255
226 239 255
226 239 255
227 239 255
227 239 255
227 239 255
227 239 255
227 239 255
227 239 255
227 239 255
227 239 255
227 239 255
227 239 255
227 239 255
227 239 255
227 239 255
227 239 255
227 239 255
227 239 255
227 239 255
227 239 255
227 239 255
227 239 255
227 239 255
227 239 255
227 239 255
227 239 255
227 239 255
227 239 255
227 239 255
227 239 255
227 239 255
227 239 255
227 239 255
227 239 255
227 239 255
227 239 255
227 239 255
227 239 255
227 239 255
227 239 255
227 239 255
227 239 255
227 239 255
227 239 255
227 239 255
227 239 255
227 239 255
227 239 255
227 239 255
227 239 255
227 239 255
227 239 255
227 239 255
227 239 255
227 239 255
227 239 255
227 239 255
227 239 255
227 239 255
227 239 255
227 239 255
227 239 255
227 239 255
227 239 255
227 239 255
227 239 255
227 239 255
227 239 255
227 239 255
140 147 162
0 0 52
0 0 55
0 0 52
16 33 59
56 75 30
62 76 26
58 77 19
58 73 14
51 71 14
46 63 11
35 54 3
29 48 0
30 49 0
37 55 0
31 51 0
28 47 0
45 54 6
48 56 9
35 53 5
32 52 2
36 55 3
30 56 4
26 61 25
26 62 45
23 65 58
19 71 99
0 46 104
0 7 66
0 0 53
0 0 46
0 0 45
0 0 45
0 0 45
0 0 44
0 0 42
0 0 42
0 0 42
0 0 42
0 0 42
0 0 42
0 0 42
0 0 42
0 0 42
0 0 42
0 0 42
0 0 42
0 0 42
0 0 42
0 0 42
0 0 42
0 0 42
0 0 42
0 0 42
0 0 42
0 0 42
0 0 42
0 0 42
0 0 42
0 0 42
0 0 42
0 0 42
0 0 42
0 0 42
0 0 42
0 0 42
0 0 42
0 0 41
0 0 42
0 0 42
0 0 42
0 0 42
0 0 41
0 0 42
0 0 42
0 0 44
0 0 45
0 0 45
0 0 45
0 0 45
0 0 45
0 0 44
0 0 44
0 0 42
0 0 42
0 0 42
0 0 42
0 0 42
0 0 42
0 0 42
0 0 42
0 0 43
0 0 45
0 0 45
0 0 57
0 14 75
35 64 34
47 77 8
50 76 26
47 75 20
45 69 22
40 62 16
44 65 17
52 76 18
48 74 13
51 80 18
50 79 3
50 79 3
61 88 21
63 88 26
67 92 31
70 96 30
65 91 26
59 86 27
56 85 25
53 84 16
57 87 20
51 78 10
56 87 17
57 87 15
62 87 32
56 81 28
62 85 33
66 88 30
70 90 36
73 94 31
77 104 42
85 112 56
67 92 43
58 84 26
55 80 25
62 84 27
72 95 37
67 90 30
65 89 31
76 98 44
96 110 59
93 107 50
62 90 25
40 74 7
42 69 2
41 68 0
42 68 0
40 66 0
40 64 0
38 62 0
41 63 0
41 65 0
39 64 0
36 62 0
40 67 0
38 65 0
35 61 0
34 62 0
34 61 0
32 58 0
35 62 0
35 62 0
36 62 0
36 65 0
34 65 0
34 63 0
30 61 0
27 58 0
27 60 0
31 66 0
32 63 0
36 67 0
41 72 0
45 74 6
44 74 2
59 82 22
62 78 25
83 83 45
107 99 61
93 92 48
78 84 33
90 81 40
75 77 35
97 85 47
166 122 95
142 103 77
125 98 68
137 110 69
95 88 69
0 0 43
0 0 43
0 0 42
0 0 42
0 0 42
0 0 42
150 158 172
227 239 255
227 239 255
227 239 255
227 239 255
227 239 255
227 239 255
227 239 255
227 239 255
227 239 255
227 239 255
227 239 255
227 239 255
227 239 255
227 239 255
227 239 255
227 239 255
227 239 255
227 239 255
227 239 255
227 239 255
227 239 255
227 239 255
227 239 255
227 239 255
227 239 255
227 239 255
227 239 255
227 239 255
227 239 255
227 239 255
227 239 255
227 239 255
227 239 255
227 239 255
227 239 255
227 239 255
227 239 255
227 239 255
227 239 255
227 239 255
227 239 255
227 239 255
227 239 255
227 239 255
227 239 255
227 239 255
227 239 255
227 239 255
227 239 255
227 239 255
227 239 255
227 239 255
227 239 255
227 239 255
227 239 255
227 239 255
227 239 255
227 239 255
227 239 255
227 239 255
227 239 255
227 239 255
227 239 255
227 239 255
227 239 255
227 239 255
227 239 255
227 239 255
227 239 255
226 239 255
226 239 255
226 239 255
226 239 255
226 239 255
226 239 255
226 239 255
226 239 255
226 239 255
226 239 255
226 239 255
226 239 255
226 239 255
226 239 255
226 239 255
226 239 255
226 239 255
226 239 255
226 238 255
226 238 255
226 238 255
226 238 255
226 238 255
226 238 255
226 238 255
226 238 255
226 238 255
226 238 255
226 238 255
226 238 255
226 238 255
226 238 255
226 238 255
226 238 255
226 238 255
226 239 255
226 239 255
226 239 255
226 239 255
226 239 255
226 239 255
226 239 255
226 239 255
226 239 255
226 239 255
226 239 255
227 239 255
227 239 255
227 239 255
227 239 255
227 239 255
227 239 255
227 239 255
227 239 255
227 239 255
227 239 255
227 239 255
227 239 255
227 239 255
227 239 255
227 239 255
227 239 255
227 239 255
227 239 255
227 239 255
227 239 255
227 239 255
227 239 255
227 239 255
227 239 255
227 239 255
227 239 255
227 239 255
227 239 255
227 239 255
227 239 255
227 239 255
227 239 255
227 239 255
227 239 255
227 239 255
227 239 255
227 239 255
227 239 255
227 239 255
227 239 255
227 239 255
227 239 255
227 239 255
227 239 255
227 239 255
227 239 255
227 239 255
227 239 255
227 239 255
227 239 255
227 239 255
227 239 255
227 239 255
227 239 255
227 239 255
227 239 255
227 239 255
227 239 255
227 239 255
227 239 255
227 239 255
227 239 255
227 239 255
227 239 255
227 239 255
227 239 255
227 239 255
227 239 255
227 239 255
227 239 255
227 239 255
227 239 255
227 239 255
227 239 255
227 239 255
227 239 255
227 239 255
227 239 255
227 239 255
227 239 255
227 239 255
227 239 255
227 239 255
227 239 255
227 239 255
227 239 255
227 239 255
227 239 255
227 239 255
227 239 255
227 239 255
227 239 255
227 239 255
147 154 170
0 0 54
0 0 57
0 0 54
42 68 54
55 68 23
56 71 24
55 73 15
47 66 10
38 59 0
36 57 0
35 52 0
30 48 0
29 48 0
33 51 0
32 51 0
25 45 0
33 50 0
71 72 24
57 67 20
36 58 0
31 52 0
24 47 0
24 47 0
25 44 0
23 42 0
27 50 18
22 64 68
4 42 95
0 6 62
0 0 55
0 0 46
0 0 45
0 0 46
0 0 46
0 0 42
0 0 42
0 0 42
0 0 42
0 0 42
0 0 42
0 0 42
0 0 42
0 0 42
0 0 42
0 0 42
0 0 42
0 0 42
0 0 42
0 0 42
0 0 42
0 0 42
0 0 42
0 0 42
0 0 42
0 0 42
0 0 42
0 0 42
0 0 42
0 0 42
0 0 42
0 0 42
0 0 42
0 0 42
0 0 42
0 0 42
0 0 42
0 0 42
0 0 42
0 0 42
0 0 42
0 0 42
0 0 42
0 0 42
0 0 42
0 0 44
0 0 45
0 0 45
0 0 45
0 0 45
0 0 44
0 0 42
0 0 42
0 0 42
0 0 42
0 0 42
0 0 42
0 0 42
0 0 42
0 0 42
0 0 42
0 0 42
0 0 44
0 0 44
0 0 43
0 3 60
16 31 51
43 66 40
44 71 17
40 63 11
35 56 2
49 69 23
56 78 25
47 68 21
43 64 11
44 68 15
46 72 10
52 79 13
60 88 24
60 87 20
61 91 25
64 93 29
60 89 26
53 81 22
54 84 21
58 93 22
65 97 26
56 85 19
49 82 8
48 78 0
52 78 21
51 79 22
59 83 31
64 86 32
80 101 42
93 116 49
85 115 49
77 106 46
64 93 34
58 84 33
60 88 27
66 94 34
67 95 32
70 94 29
67 89 28
83 107 48
97 121 56
73 95 28
39 70 6
36 68 7
46 71 11
41 68 4
40 64 0
43 67 0
40 64 0
36 59 0
39 61 0
43 65 0
39 62 0
32 57 0
37 64 0
38 64 0
37 63 0
38 63 0
32 59 0
35 62 0
40 68 0
36 64 0
34 60 0
34 61 0
30 59 0
35 63 0
32 65 0
28 58 0
28 57 0
29 60 0
29 62 0
31 61 0
38 68 0
42 72 4
49 80 6
54 78 16
74 85 37
98 88 58
122 105 73
121 108 72
96 89 45
98 85 47
94 80 46
128 93 67
165 113 90
126 95 67
98 85 43
136 117 64
55 52 59
0 0 42
0 0 43
0 0 42
0 0 42
0 0 42
0 0 42
155 163 178
227 239 255
227 239 255
227 239 255
227 239 255
227 239 255
227 239 255
227 239 255
227 239 255
227 239 255
227 239 255
227 239 255
227 239 255
227 239 255
227 239 255
227 239 255
227 239 255
227 239 255
227 239 255
227 239 255
227 239 255
227 239 255
227 239 255
227 239 255
227 239 255
227 239 255
227 239 255
227 239 255
227 239 255
227 239 255
227 239 255
227 239 255
227 239 255
227 239 255
227 239 255
227 239 255
227 239 255
227 239 255
227 239 255
227 239 255
227 239 255
227 239 255
227 239 255
227 239 255
227 239 255
227 239 255
227 239 255
227 239 255
227 239 255
227 239 255
227 239 255
227 239 255
227 239 255
227 239 255
227 239 255
227 239 255
227 239 255
227 239 255
227 239 255
227 239 255
227 239 255
227 239 255
227 239 255
227 239 255
227 239 255
227 239 255
227 239 255
227 239 255
227 239 255
227 239 255
227 239 255
227 239 255
227 239 255
227 239 255
227 239 255
227 239 255
227 239 255
227 239 255
227 239 255
227 239 255
227 239 255
227 239 255
227 239 255
227 239 255
227 239 255
227 239 255
227 239 255
227 239 255
227 239 255
227 239 255
227 239 255
227 239 255
227 239 255
227 239 255
226 239 255
226 239 255
226 239 255
226 239 255
226 239 255
226 239 255
226 239 255
226 239 255
226 239 255
226 239 255
226 239 255
227 239 255
227 239 255
227 239 255
227 239 255
227 239 255
227 239 255
227 239 255
227 239 255
227 239 255
227 239 255
227 239 255
227 239 255
227 239 255
227 239 255
227 239 255
227 239 255
227 239 255
227 239 255
227 239 255
227 239 255
227 239 255
227 239 255
227 239 255
227 239 255
227 239 255
227 239 255
227 239 255
227 239 255
227 239 255
227 239 255
227 239 255
227 239 255
227 239 255
227 239 255
227 239 255
227 239 255
227 239 255
227 239 255
227 239 255
227 239 255
227 239 255
227 239 255
227 239 255
227 239 255
227 239 255
227 239 255
227 239 255
227 239 255
227 239 255
227 239 255
227 239 255
227 239 255
227 239 255
227 239 255
227 239 255
227 239 255
227 239 255
227 239 255
227 239 255
227 239 255
227 239 255
227 239 255
227 239 255
227 239 255
227 239 255
227 239 255
227 239 255
227 239 255
227 239 255
227 239 255
227 239 255
227 239 255
227 239 255
227 239 255
227 239 255
227 239 255
227 239 255
227 239 255
227 239 255
227 239 255
227 239 255
227 239 255
227 239 255
227 239 255
227 239 255
227 239 255
227 239 255
227 239 255
227 239 255
227 239 255
227 239 255
227 239 255
227 239 255
227 239 255
227 239 255
227 239 255
227 239 255
227 239 255
227 239 255
227 239 255
227 239 255
227 239 255
227 239 255
227 239 255
145 153 168
0 0 55
0 0 57
0 6 62
54 81 58
60 71 27
50 69 20
41 62 5
39 61 6
38 56 0
35 55 0
35 54 0
29 49 0
30 50 0
32 52 0
30 51 0
30 53 0
43 60 11
68 75 20
57 71 20
40 64 0
30 53 0
25 47 0
24 47 0
23 42 0
21 42 0
27 50 0
28 49 0
25 88 94
5 63 108
0 3 60
0 0 51
0 0 43
0 0 44
0 0 45
0 0 42
0 0 42
0 0 42
0 0 42
0 0 42
0 0 42
0 0 42
0 0 42
0 0 42
0 0 42
0 0 42
0 0 42
0 0 42
0 0 42
0 0 42
0 0 42
0 0 42
0 0 42
0 0 42
0 0 42
0 0 42
0 0 42
0 0 42
0 0 42
0 0 42
0 0 42
0 0 42
0 0 42
0 0 42
0 0 42
0 0 42
0 0 42
0 0 44
0 0 43
0 0 42
0 0 42
0 0 42
0 0 42
0 0 42
0 0 42
0 0 44
0 0 45
0 0 45
0 0 45
0 0 45
0 0 45
0 0 44
0 0 44
0 0 42
0 0 42
0 0 42
0 0 42
0 0 42
0 0 42
0 0 42
0 0 42
0 0 42
0 0 42
0 0 43
0 0 47
0 0 43
0 0 37
10 15 47
27 44 34
45 67 21
46 72 15
53 80 15
56 80 25
51 76 24
42 64 12
46 68 19
50 73 21
54 80 20
58 86 20
60 90 19
59 91 25
63 95 31
68 99 40
63 93 36
54 84 18
48 78 6
50 76 10
61 85 26
53 81 17
51 77 16
46 67 17
60 85 26
72 97 34
77 101 42
85 108 48
87 108 54
71 96 46
50 72 43
56 80 50
62 90 43
59 87 34
61 94 33
73 103 41
89 116 52
89 114 49
112 140 70
80 112 42
44 72 5
39 66 0
44 68 5
41 69 5
39 66 3
41 65 1
47 70 9
44 69 0
46 71 0
43 65 0
46 67 0
34 55 0
34 57 0
35 60 0
33 60 0
35 61 0
38 66 0
36 63 0
38 65 0
40 70 0
37 65 0
32 57 0
29 53 0
30 54 0
34 59 0
32 64 0
30 60 0
25 53 0
27 56 0
29 61 0
32 65 0
33 65 0
39 70 5
44 76 3
50 75 14
68 80 35
123 106 79
114 103 69
121 104 72
118 99 63
92 86 45
102 82 48
117 83 61
132 94 72
107 85 51
104 91 46
117 111 58
18 15 46
0 0 42
0 0 42
0 0 42
0 0 42
0 0 42
0 0 42
126 133 146
227 239 255
227 239 255
227 239 255
227 239 255
227 239 255
227 239 255
227 239 255
227 239 255
227 239 255
227 239 255
227 239 255
227 239 255
227 239 255
227 239 255
227 239 255
227 239 255
227 239 255
227 239 255
227 239 255
227 239 255
227 239 255
227 239 255
227 239 255
227 239 255
227 239 255
227 239 255
227 239 255
227 239 255
227 239 255
227 239 255
227 239 255
227 239 255
227 239 255
227 239 255
227 239 255
227 239 255
227 239 255
227 239 255
227 239 255
227 239 255
227 239 255
227 239 255
227 239 255
227 239 255
227 239 255
227 239 255
227 239 255
227 239 255
227 239 255
227 239 255
227 239 255
227 239 255
227 239 255
227 239 255
227 239 255
227 239 255
227 239 255
227 239 255
227 239 255
227 239 255
227 239 255
227 239 255
227 239 255
227 239 255
227 239 255
227 239 255
227 239 255
227 239 255
227 239 255
227 239 255
227 239 255
227 239 255
227 239 255
227 239 255
227 239 255
227 239 255
227 239 255
227 239 255
227 239 255
227 239 255
227 239 255
227 239 255
227 239 255
227 239 255
227 239 255
227 239 255
227 239 255
227 239 255
227 239 255
227 239 255
227 239 255
227 239 255
227 239 255
227 239 255
227 239 255
227 239 255
227 239 255
227 239 255
227 239 255
227 239 255
227 239 255
227 239 255
227 239 255
227 239 255
227 239 255
227 239 255
227 239 255
227 239 255
227 239 255
227 239 255
227 239 255
227 239 255
227 239 255
227 239 255
227 239 255
227 239 255
227 239 255
227 239 255
227 239 255
227 239 255
227 239 255
227 239 255
227 239 255
227 239 255
227 239 255
227 239 255
227 239 255
227 239 255
227 239 255
227 239 255
227 239 255
227 239 255
227 239 255
227 239 255
227 239 255
227 239 255
227 239 255
227 239 255
227 239 255
227 239 255
227 239 255
227 239 255
227 239 255
227 239 255
227 239 255
227 239 255
227 239 255
227 239 255
227 239 255
227 239 255
227 239 255
227 239 255
227 239 255
227 239 255
227 239 255
227 239 255
227 239 255
227 239 255
227 239 255
227 239 255
227 239 255
227 239 255
227 239 255
227 239 255
227 239 255
227 239 255
227 239 255
227 239 255
227 239 255
227 239 255
227 239 255
227 239 255
227 239 255
227 239 255
227 239 255
227 239 255
227 239 255
227 239 255
227 239 255
227 239 255
227 239 255
227 239 255
227 239 255
227 239 255
227 239 255
227 239 255
227 239 255
227 239 255
227 239 255
227 239 255
227 239 255
227 239 255
227 239 255
227 239 255
227 239 255
227 239 255
227 239 255
227 239 255
227 239 255
227 239 255
227 239 255
227 239 255
227 239 255
227 239 255
227 239 255
227 239 255
227 239 255
227 239 255
149 156 172
0 0 55
0 1 57
21 42 74
59 83 45
60 74 30
48 69 13
40 61 0
33 55 0
35 54 0
33 52 0
32 53 0
30 51 0
24 44 0
30 50 0
32 52 0
33 57 0
53 67 14
83 85 34
68 76 29
44 63 1
35 58 0
24 47 0
26 47 0
29 48 0
28 51 0
29 52 0
27 48 8
31 59 33
18 106 117
0 24 81
0 0 51
0 0 44
0 0 43
0 0 45
0 0 43
0 0 42
0 0 42
0 0 42
0 0 42
0 0 42
0 0 42
0 0 42
0 0 42
0 0 42
0 0 42
0 0 42
0 0 42
0 0 42
0 0 42
0 0 42
0 0 42
0 0 42
0 0 41
0 0 42
0 0 42
0 0 42
0 0 42
0 0 42
0 0 42
0 0 42
0 0 42
0 0 42
0 0 42
0 0 42
0 0 42
0 0 42
0 0 44
0 0 45
0 0 43
0 0 42
0 0 42
0 0 42
0 0 42
0 0 42
0 0 44
0 0 45
0 0 45
0 0 45
0 0 45
0 0 45
0 0 45
0 0 45
0 0 45
0 0 42
0 0 42
0 0 42
0 0 42
0 0 41
0 0 42
0 0 42
0 0 42
0 0 42
0 0 42
0 0 39
0 0 46
0 0 40
0 0 45
3 5 43
15 25 38
47 70 39
52 81 24
54 83 20
50 75 30
51 75 29
55 79 29
51 75 23
53 77 20
52 79 16
56 86 20
60 90 26
68 100 35
68 99 36
65 94 36
60 88 28
52 78 11
47 70 5
54 77 18
51 78 10
48 74 13
54 75 17
76 101 28
73 94 46
54 68 51
40 51 42
24 30 50
13 17 51
7 10 48
3 5 49
39 57 53
54 79 37
69 97 41
71 97 44
81 106 49
90 119 53
78 110 43
47 76 18
46 75 17
46 68 13
43 63 0
40 71 0
42 72 9
44 68 11
44 66 13
55 79 21
51 76 14
41 67 0
43 71 0
36 63 0
36 60 0
33 60 0
32 58 0
35 62 0
38 69 0
37 66 0
38 65 0
39 69 0
35 63 0
32 56 0
30 52 0
29 51 0
28 52 0
27 55 0
30 61 0
24 54 0
25 53 0
29 61 0
35 68 0
34 65 0
36 65 0
42 74 0
42 68 8
55 74 22
105 92 59
138 123 93
117 106 75
127 105 74
104 88 49
114 88 57
131 91 71
111 84 53
101 85 45
95 89 36
67 66 54
0 0 42
0 0 42
0 0 42
0 0 42
0 0 42
0 0 42
0 0 42
162 170 185
227 239 255
227 239 255
227 239 255
227 239 255
227 239 255
227 239 255
227 239 255
227 239 255
227 239 255
227 239 255
227 239 255
227 239 255
227 239 255
227 239 255
227 239 255
227 239 255
227 239 255
227 239 255
227 239 255
227 239 255
227 239 255
227 239 255
227 239 255
227 239 255
227 239 255
227 239 255
227 239 255
227 239 255
227 239 255
227 239 255
227 239 255
227 239 255
227 239 255
227 239 255
227 239 255
227 239 255
227 239 255
227 239 255
227 239 255
227 239 255
227 239 255
227 239 255
227 239 255
227 239 255
227 239 255
227 239 255
227 239 255
227 239 255
227 239 255
227 239 255
227 239 255
227 239 255
227 239 255
227 239 255
227 239 255
227 239 255
227 239 255
227 239 255
227 239 255
227 239 255
227 239 255
227 239 255
227 239 255
227 239 255
227 239 255
227 239 255
227 239 255
227 239 255
227 239 255
227 239 255
227 239 255
227 239 255
227 239 255
227 239 255
227 239 255
227 239 255
227 239 255
227 239 255
227 239 255
227 239 255
227 239 255
227 239 255
227 239 255
227 239 255
227 239 255
227 239 255
227 239 255
227 239 255
227 239 255
227 239 255
227 239 255
227 239 255
227 239 255
227 239 255
227 239 255
227 239 255
227 239 255
227 239 255
227 239 255
227 239 255
227 239 255
227 239 255
227 239 255
227 239 255
227 239 255
227 239 255
227 239 255
227 239 255
227 239 255
227 239 255
227 239 255
227 239 255
227 239 255
227 239 255
227 239 255
227 239 255
227 239 255
227 239 255
227 239 255
227 239 255
227 239 255
227 239 255
227 239 255
227 239 255
227 239 255
227 239 255
227 239 255
227 239 255
227 239 255
227 239 255
227 239 255
227 239 255
227 239 255
227 239 255
227 239 255
227 239 255
227 239 255
227 239 255
227 239 255
227 239 255
227 239 255
227 239 255
227 239 255
227 239 255
227 239 255
227 239 255
227 239 255
227 239 255
227 239 255
227 239 255
227 239 255
227 239 255
227 239 255
227 239 255
227 239 255
227 239 255
227 239 255
227 239 255
227 239 255
227 239 255
227 239 255
227 239 255
227 239 255
227 239 255
227 239 255
227 239 255
227 239 255
227 239 255
227 239 255
227 239 255
227 239 255
227 239 255
227 239 255
227 239 255
227 239 255
227 239 255
227 239 255
227 239 255
227 239 255
227 239 255
227 239 255
227 239 255
227 239 255
227 239 255
227 239 255
227 239 255
227 239 255
227 239 255
227 239 255
227 239 255
227 239 255
227 239 255
227 239 255
227 239 255
227 239 255
227 239 255
227 239 255
227 239 255
227 239 255
227 239 255
227 239 255
227 239 255
227 239 255
227 239 255
227 239 255
227 239 255
227 239 255
227 239 255
159 167 182
0 0 54
0 2 61
62 82 93
62 78 38
54 70 26
43 64 7
35 54 0
36 56 0
33 53 0
28 48 0
35 56 0
29 50 0
27 47 0
27 47 0
35 53 0
34 55 0
48 70 12
81 85 37
57 68 21
41 60 8
37 57 0
26 47 0
28 48 0
29 49 0
30 52 0
28 49 0
29 49 0
33 52 3
28 69 45
2 49 83
0 1 58
0 0 51
0 0 45
0 0 44
0 0 45
0 0 44
0 0 42
0 0 42
0 0 42
0 0 42
0 0 42
0 0 42
0 0 42
0 0 42
0 0 42
0 0 42
0 0 42
0 0 42
0 0 42
0 0 42
0 0 42
0 0 40
0 0 41
0 0 42
0 0 42
0 0 42
0 0 42
0 0 42
0 0 42
0 0 42
0 0 42
0 0 42
0 0 42
0 0 42
0 0 42
0 0 42
0 0 44
0 0 45
0 0 45
0 0 43
0 0 43
0 0 43
0 0 43
0 0 43
0 0 44
0 0 45
0 0 45
0 0 45
0 0 45
0 0 45
0 0 43
0 0 43
0 0 44
0 0 43
0 0 42
0 0 42
0 0 42
0 0 41
0 0 40
0 0 42
0 0 42
0 0 42
0 0 41
0 0 41
0 0 38
0 0 43
0 0 39
0 0 42
0 0 44
10 16 40
36 52 40
56 80 37
50 73 19
52 74 32
51 75 28
50 72 26
53 76 28
51 77 23
57 86 27
63 92 30
62 91 26
63 93 28
59 85 28
59 83 24
55 80 17
47 72 3
51 76 7
57 87 15
56 83 21
58 77 44
47 54 48
19 22 42
0 0 50
0 0 40
0 0 42
0 0 43
0 0 42
0 0 47
14 21 59
53 80 48
70 98 37
65 93 35
77 105 50
77 103 42
50 78 16
51 74 16
45 66 16
46 69 14
44 66 12
42 70 9
45 74 7
42 67 10
44 67 10
48 71 12
50 75 8
42 70 0
39 67 0
35 60 0
36 60 0
34 60 0
35 62 0
39 67 0
43 75 0
38 66 0
44 71 0
41 68 0
36 62 0
35 58 0
32 54 0
29 52 0
27 49 0
29 54 0
28 57 0
24 53 0
25 53 0
28 58 0
33 64 0
39 68 0
47 73 7
42 71 0
41 69 0
50 72 15
88 87 46
178 150 125
110 104 76
147 119 91
100 87 54
135 98 73
123 89 61
101 88 46
89 84 30
65 76 30
15 14 47
0 0 43
0 0 42
0 0 42
0 0 42
0 0 42
0 0 42
0 0 42
162 170 185
227 239 255
227 239 255
227 239 255
227 239 255
227 239 255
227 239 255
227 239 255
227 239 255
227 239 255
227 239 255
227 239 255
227 239 255
227 239 255
227 239 255
227 239 255
227 239 255
227 239 255
227 239 255
227 239 255
227 239 255
227 239 255
227 239 255
227 239 255
227 239 255
227 239 255
227 239 255
227 239 255
227 239 255
227 239 255
227 239 255
227 239 255
227 239 255
227 239 255
227 239 255
227 239 255
227 239 255
227 239 255
227 239 255
227 239 255
227 239 255
227 239 255
227 239 255
227 239 255
227 239 255
227 239 255
227 239 255
227 239 255
227 239 255
227 239 255
227 239 255
227 239 255
227 239 255
227 239 255
227 239 255
227 239 255
227 239 255
227 239 255
227 239 255
227 239 255
227 239 255
227 239 255
227 239 255
227 239 255
227 239 255
227 239 255
227 239 255
227 239 255
227 239 255
227 239 255
227 239 255
227 239 255
227 239 255
227 239 255
227 239 255
227 239 255
227 239 255
227 239 255
227 239 255
227 239 255
227 239 255
227 239 255
227 239 255
227 239 255
227 239 255
227 239 255
227 239 255
227 239 255
227 239 255
227 239 255
227 239 255
227 239 255
227 239 255
227 239 255
227 239 255
227 239 255
227 239 255
227 239 255
227 239 255
227 239 255
227 239 255
227 239 255
227 239 255
227 239 255
227 239 255
227 239 255
227 239 255
227 239 255
227 239 255
227 239 255
227 239 255
227 239 255
227 239 255
227 239 255
227 239 255
227 239 255
227 239 255
227 239 255
227 239 255
227 239 255
227 239 255
227 239 255
227 239 255
227 239 255
227 239 255
227 239 255
227 239 255
227 239 255
227 239 255
227 239 255
227 239 255
227 239 255
227 239 255
227 239 255
227 239 255
227 239 255
227 239 255
227 239 255
227 239 255
227 239 255
227 239 255
227 239 255
227 239 255
227 239 255
227 239 255
227 239 255
227 239 255
227 239 255
227 239 255
227 239 255
227 239 255
227 239 255
227 239 255
227 239 255
227 239 255
227 239 255
227 239 255
227 239 255
227 239 255
227 239 255
227 239 255
227 239 255
227 239 255
227 239 255
227 239 255
227 239 255
227 239 255
227 239 255
227 239 255
227 239 255
227 239 255
227 239 255
227 239 255
227 239 255
227 239 255
227 239 255
227 239 255
227 239 255
227 239 255
227 239 255
227 239 255
227 239 255
227 239 255
227 239 255
227 239 255
227 239 255
227 239 255
227 239 255
227 239 255
227 239 255
227 239 255
227 239 255
227 239 255
227 239 255
227 239 255
227 239 255
227 239 255
227 239 255
227 239 255
227 239 255
227 239 255
227 239 255
227 239 255
227 239 255
227 239 255
227 239 255
227 239 255
227 239 255
227 239 255
180 189 205
0 0 52
0 0 62
62 82 76
72 86 49
40 57 13
37 57 6
32 51 0
35 55 0
29 51 0
29 50 0
33 54 0
29 49 0
27 46 0
32 50 0
32 52 0
33 54 0
40 63 5
49 66 10
65 75 23
46 61 11
36 55 0
29 48 0
27 46 0
28 47 0
33 53 0
30 50 0
28 49 1
34 49 3
40 57 24
16 72 106
0 37 89
0 15 66
0 0 46
0 0 41
0 0 45
0 0 43
0 0 42
0 0 42
0 0 42
0 0 42
0 0 42
0 0 42
0 0 42
0 0 42
0 0 42
0 0 42
0 0 42
0 0 42
0 0 42
0 0 42
0 0 42
0 0 42
0 0 42
0 0 42
0 0 42
0 0 42
0 0 42
0 0 42
0 0 42
0 0 42
0 0 42
0 0 42
0 0 42
0 0 42
0 0 42
0 0 42
0 0 44
0 0 45
0 0 45
0 0 45
0 0 45
0 0 45
0 0 45
0 0 45
0 0 45
0 0 45
0 0 45
0 0 45
0 0 45
0 0 45
0 0 45
0 0 45
0 0 45
0 0 45
0 0 45
0 0 45
0 0 45
0 0 43
0 0 42
0 0 42
0 0 42
0 0 41
0 0 39
0 0 43
0 0 42
0 0 42
0 0 41
0 0 43
0 0 40
0 0 40
5 8 46
32 46 43
48 68 34
46 68 25
48 72 25
47 70 22
49 72 23
57 83 30
63 90 34
56 79 34
55 77 28
52 72 32
51 70 37
53 74 36
50 71 35
53 78 20
52 75 24
45 64 34
34 48 38
12 16 48
0 0 42
0 0 42
0 0 42
0 0 42
0 0 43
0 0 45
0 0 42
0 0 41
0 0 53
21 36 51
72 90 32
71 96 32
84 111 45
78 106 51
47 83 47
48 80 45
50 67 19
42 67 7
38 68 3
55 81 17
46 73 11
42 65 7
46 68 7
48 71 7
49 75 12
44 72 0
40 67 0
33 55 0
27 46 0
30 54 0
32 58 0
35 61 0
43 73 0
36 62 0
41 67 0
31 53 0
35 56 0
36 57 0
28 49 0
30 50 0
28 48 0
26 47 0
27 49 0
26 49 0
19 47 0
25 53 0
31 61 0
40 66 4
55 77 15
44 74 0
47 69 10
45 69 10
80 82 40
151 132 100
119 103 76
142 117 89
134 107 78
151 110 81
125 101 65
91 87 38
73 77 27
44 55 43
0 0 44
0 0 40
0 0 42
0 0 42
0 0 42
0 0 42
0 0 42
0 0 42
176 185 200
227 239 255
227 239 255
227 239 255
227 239 255
227 239 255
227 239 255
227 239 255
227 239 255
227 239 255
227 239 255
227 239 255
227 239 255
227 239 255
227 239 255
227 239 255
227 239 255
227 239 255
227 239 255
227 239 255
227 239 255
227 239 255
227 239 255
227 239 255
227 239 255
227 239 255
227 239 255
227 239 255
227 239 255
227 239 255
227 239 255
227 239 255
227 239 255
227 239 255
227 239 255
227 239 255
227 239 255
227 239 255
227 239 255
227 239 255
227 239 255
227 239 255
227 239 255
227 239 255
227 239 255
227 239 255
227 239 255
227 239 255
227 239 255
227 239 255
227 239 255
227 239 255
227 239 255
227 239 255
227 239 255
227 239 255
227 239 255
227 239 255
227 239 255
227 239 255
227 239 255
227 239 255
227 239 255
227 239 255
227 239 255
227 239 255
227 239 255
227 239 255
227 239 255
227 239 255
227 239 255
227 239 255
227 239 255
227 239 255
227 239 255
227 239 255
227 239 255
227 239 255
227 239 255
227 239 255
227 239 255
227 239 255
227 239 255
227 239 255
227 239 255
227 239 255
227 239 255
227 239 255
227 239 255
227 239 255
227 239 255
227 239 255
227 239 255
227 239 255
227 239 255
227 239 255
227 239 255
227 239 255
227 239 255
227 239 255
227 239 255
227 239 255
227 239 255
227 239 255
227 239 255
227 239 255
227 239 255
227 239 255
227 239 255
227 239 255
227 239 255
227 239 255
227 239 255
227 239 255
227 239 255
227 239 255
227 239 255
227 239 255
227 239 255
227 239 255
227 239 255
227 239 255
227 239 255
227 239 255
227 239 255
227 239 255
227 239 255
227 239 255
227 239 255
227 239 255
227 239 255
227 239 255
227 239 255
227 239 255
227 239 255
227 239 255
227 239 255
227 239 255
227 239 255
227 239 255
227 239 255
227 239 255
227 239 255
227 239 255
227 239 255
227 239 255
227 239 255
227 239 255
227 239 255
227 239 255
227 239 255
227 239 255
227 239 255
227 239 255
227 239 255
227 239 255
227 239 255
227 239 255
227 239 255
227 239 255
227 239 255
227 239 255
227 239 255
227 239 255
227 239 255
227 239 255
227 239 255
227 239 255
227 239 255
227 239 255
227 239 255
227 239 255
227 239 255
227 239 255
227 239 255
227 239 255
227 239 255
227 239 255
227 239 255
227 239 255
227 239 255
227 239 255
227 239 255
227 239 255
227 239 255
227 239 255
227 239 255
227 239 255
227 239 255
227 239 255
227 239 255
227 239 255
227 239 255
227 239 255
227 239 255
227 239 255
227 239 255
227 239 255
227 239 255
227 239 255
227 239 255
227 239 255
227 239 255
227 239 255
227 239 255
227 239 255
227 239 255
227 239 255
227 239 255
179 188 203
0 0 50
0 0 61
59 78 83
61 76 44
36 56 2
33 53 0
29 48 0
31 50 0
27 49 0
27 48 0
26 48 0
26 46 0
29 48 0
32 50 0
29 54 0
30 53 0
34 55 0
34 56 0
46 61 7
41 60 0
34 52 0
29 47 0
30 45 0
30 48 0
32 52 0
30 51 0
31 52 1
35 54 5
30 53 12
16 105 127
7 97 142
4 51 98
0 2 51
0 0 42
0 0 42
0 0 42
0 0 42
0 0 42
0 0 42
0 0 42
0 0 42
0 0 42
0 0 42
0 0 42
0 0 42
0 0 42
0 0 42
0 0 42
0 0 42
0 0 42
0 0 42
0 0 42
0 0 42
0 0 42
0 0 42
0 0 42
0 0 43
0 0 42
0 0 42
0 0 42
0 0 42
0 0 42
0 0 42
0 0 42
0 0 42
0 0 42
0 0 44
0 0 45
0 0 45
0 0 45
0 0 45
0 0 45
0 0 45
0 0 45
0 0 45
0 0 45
0 0 45
0 0 45
0 0 45
0 0 45
0 0 45
0 0 45
0 0 45
0 0 45
0 0 45
0 0 45
0 0 45
0 0 43
0 0 42
0 0 42
0 0 42
0 0 42
0 0 41
0 0 42
0 0 42
0 0 42
0 0 42
0 0 42
0 0 42
0 0 43
0 0 39
4 6 41
15 22 43
35 52 25
52 73 24
51 73 23
53 75 27
45 64 35
28 39 39
15 21 41
11 16 43
2 8 46
5 10 47
10 14 45
16 23 38
23 35 37
20 29 43
10 14 42
0 3 42
0 0 42
0 0 42
0 0 42
0 0 42
0 0 42
0 0 42
0 0 45
0 0 40
0 0 42
0 0 47
0 9 49
36 57 49
45 70 63
37 57 63
15 34 57
3 31 77
22 43 79
46 78 35
45 81 33
54 75 28
46 71 19
47 70 13
45 67 14
45 66 13
55 77 22
41 63 0
44 67 0
41 64 0
33 53 0
28 45 0
24 43 0
27 47 0
30 51 0
42 66 0
39 64 0
42 66 0
31 52 0
32 51 0
33 54 0
29 49 0
28 48 0
27 47 0
22 43 0
26 44 0
24 42 0
20 44 0
19 44 0
20 44 0
35 58 3
50 71 20
39 68 8
50 74 13
51 71 13
62 75 25
93 94 56
113 98 72
129 112 80
158 130 99
161 128 95
133 110 70
94 92 38
63 74 23
13 13 42
0 0 39
0 0 41
0 0 42
0 0 42
0 0 42
0 0 42
0 0 42
0 0 42
174 183 198
227 239 255
227 239 255
227 239 255
227 239 255
227 239 255
227 239 255
227 239 255
227 239 255
227 239 255
227 239 255
227 239 255
227 239 255
227 239 255
227 239 255
227 239 255
227 239 255
227 239 255
227 239 255
227 239 255
227 239 255
227 239 255
227 239 255
227 239 255
227 239 255
227 239 255
227 239 255
227 239 255
227 239 255
227 239 255
227 239 255
227 239 255
227 239 255
227 239 255
227 239 255
227 239 255
227 239 255
227 239 255
227 239 255
227 239 255
227 239 255
227 239 255
227 239 255
227 239 255
227 239 255
227 239 255
227 239 255
227 239 255
227 239 255
227 239 255
227 239 255
227 239 255
227 239 255
227 239 255
227 239 255
227 239 255
227 239 255
227 239 255
227 239 255
227 239 255
227 239 255
227 239 255
227 239 255
227 239 255
227 239 255
227 239 255
227 239 255
227 239 255
227 239 255
227 239 255
227 239 255
227 239 255
227 239 255
227 239 255
227 239 255
227 239 255
227 239 255
227 239 255
227 239 255
227 239 255
227 239 255
227 239 255
227 239 255
227 239 255
227 239 255
227 239 255
227 239 255
227 239 255
227 239 255
227 239 255
227 239 255
227 239 255
227 239 255
227 239 255
227 239 255
227 239 255
227 239 255
227 239 255
227 239 255
227 239 255
227 239 255
227 239 255
227 239 255
227 239 255
227 239 255
227 239 255
227 239 255
227 239 255
227 239 255
227 239 255
227 239 255
227 239 255
227 239 255
227 239 255
227 239 255
227 239 255
227 239 255
227 239 255
227 239 255
227 239 255
227 239 255
227 239 255
227 239 255
227 239 255
227 239 255
227 239 255
227 239 255
227 239 255
227 239 255
227 239 255
227 239 255
227 239 255
227 239 255
227 239 255
227 239 255
227 239 255
227 239 255
227 239 255
227 239 255
227 239 255
227 239 255
227 239 255
227 239 255
227 239 255
227 239 255
227 239 255
227 239 255
227 239 255
227 239 255
227 239 255
227 239 255
227 239 255
227 239 255
227 239 255
227 239 255
227 239 255
227 239 255
227 239 255
227 239 255
227 239 255
227 239 255
227 239 255
227 239 255
227 239 255
227 239 255
227 239 255
227 239 255
227 239 255
227 239 255
227 239 255
227 239 255
227 239 255
227 239 255
227 239 255
227 239 255
227 239 255
227 239 255
227 239 255
227 239 255
227 239 255
227 239 255
227 239 255
227 239 255
227 239 255
227 239 255
227 239 255
227 239 255
227 239 255
227 239 255
227 239 255
227 239 255
227 239 255
227 239 255
227 239 255
227 239 255
227 239 255
227 239 255
227 239 255
227 239 255
227 239 255
227 239 255
227 239 255
227 239 255
227 239 255
227 239 255
227 239 255
227 239 255
227 239 255
227 239 255
188 198 214
0 0 48
0 1 62
69 82 78
70 83 51
34 54 0
33 53 0
31 50 0
26 45 0
24 45 0
19 40 0
20 42 0
20 40 0
27 46 0
23 42 0
26 50 0
27 49 0
33 50 0
29 50 0
28 50 0
32 51 0
31 50 0
29 47 0
39 55 0
37 55 0
31 51 0
28 50 0
31 54 0
30 51 6
31 50 5
23 92 93
20 154 166
9 99 128
0 22 80
0 0 45
0 0 42
0 0 41
0 0 41
0 0 42
0 0 42
0 0 42
0 0 42
0 0 42
0 0 42
0 0 42
0 0 42
0 0 42
0 0 42
0 0 42
0 0 42
0 0 42
0 0 42
0 0 42
0 0 42
0 0 42
0 0 43
0 0 44
0 0 45
0 0 44
0 0 42
0 0 42
0 0 42
0 0 42
0 0 42
0 0 42
0 0 42
0 0 42
0 0 44
0 0 45
0 0 45
0 0 45
0 0 45
0 0 45
0 0 45
0 0 45
0 0 45
0 0 45
0 0 45
0 0 45
0 0 45
0 0 45
0 0 45
0 0 45
0 0 45
0 0 45
0 0 45
0 0 45
0 0 45
0 0 43
0 0 42
0 0 42
0 0 42
0 0 42
0 0 42
0 0 42
0 0 42
0 0 42
0 0 42
0 0 42
0 0 43
0 0 43
0 0 49
0 0 42
0 0 38
8 13 44
19 25 43
33 43 43
14 19 39
5 7 50
0 0 42
0 0 38
0 0 40
0 0 43
0 0 41
0 0 38
0 0 37
0 0 43
0 0 49
0 0 41
0 0 40
0 0 42
0 0 42
0 0 42
0 0 42
0 0 42
0 0 42
0 0 39
0 0 46
0 0 46
0 0 43
0 0 42
0 0 58
0 0 57
0 0 47
0 0 51
2 2 49
16 21 47
17 41 72
43 79 50
69 88 42
44 65 14
46 67 14
48 70 18
46 67 16
48 69 16
45 63 3
46 64 1
44 62 0
34 52 0
26 44 0
24 41 0
27 45 0
28 47 0
37 59 0
37 60 0
37 58 0
31 50 0
36 57 0
37 58 0
31 51 0
27 48 0
25 46 0
20 41 0
23 41 0
24 43 0
18 39 0
16 34 0
21 38 0
34 55 5
26 44 21
40 63 11
38 53 6
51 67 17
52 69 13
66 73 31
85 81 48
130 104 75
154 126 98
163 132 99
124 102 63
97 95 45
46 54 39
0 0 45
0 0 42
0 0 42
0 0 42
0 0 42
0 0 42
0 0 42
0 0 42
0 0 42
197 207 222
227 239 255
227 239 255
227 239 255
227 239 255
227 239 255
227 239 255
227 239 255
227 239 255
227 239 255
227 239 255
227 239 255
227 239 255
227 239 255
227 239 255
227 239 255
227 239 255
227 239 255
227 239 255
227 239 255
227 239 255
227 239 255
227 239 255
227 239 255
227 239 255
227 239 255
227 239 255
227 239 255
227 239 255
227 239 255
227 239 255
227 239 255
227 239 255
227 239 255
227 239 255
227 239 255
227 239 255
227 239 255
227 239 255
227 239 255
227 239 255
227 239 255
227 239 255
227 239 255
227 239 255
227 239 255
227 239 255
227 239 255
227 239 255
227 239 255
227 239 255
227 239 255
227 239 255
227 239 255
227 239 255
227 239 255
227 239 255
227 239 255
227 239 255
227 239 255
227 239 255
227 239 255
227 239 255
227 239 255
227 239 255
227 239 255
227 239 255
227 239 255
227 239 255
227 239 255
227 239 255
227 239 255
227 239 255
227 239 255
227 239 255
227 239 255
227 239 255
227 239 255
227 239 255
227 239 255
227 239 255
227 239 255
227 239 255
227 239 255
227 239 255
227 239 255
227 239 255
227 239 255
227 239 255
227 239 255
227 239 255
227 239 255
227 239 255
227 239 255
227 239 255
227 239 255
227 239 255
227 239 255
227 239 255
227 239 255
227 239 255
227 239 255
227 239 255
227 239 255
227 239 255
227 239 255
227 239 255
227 239 255
227 239 255
227 239 255
227 239 255
227 239 255
227 239 255
227 239 255
227 239 255
227 239 255
227 239 255
227 239 255
227 239 255
227 239 255
227 239 255
227 239 255
227 239 255
227 239 255
227 239 255
227 239 255
227 239 255
227 239 255
227 239 255
227 239 255
227 239 255
227 239 255
227 239 255
227 239 255
227 239 255
227 239 255
227 239 255
227 239 255
227 239 255
227 239 255
227 239 255
227 239 255
227 239 255
227 239 255
227 239 255
227 239 255
227 239 255
227 239 255
227 239 255
227 239 255
227 239 255
227 239 255
227 239 255
227 239 255
227 239 255
227 239 255
227 239 255
227 239 255
227 239 255
227 239 255
227 239 255
227 239 255
227 239 255
227 239 255
227 239 255
227 239 255
227 239 255
227 239 255
227 239 255
227 239 255
227 239 255
227 239 255
227 239 255
227 239 255
227 239 255
227 239 255
227 239 255
227 239 255
227 239 255
227 239 255
227 239 255
227 239 255
227 239 255
227 239 255
227 239 255
227 239 255
227 239 255
227 239 255
227 239 255
227 239 255
227 239 255
227 239 255
227 239 255
227 239 255
227 239 255
227 239 255
227 239 255
227 239 255
227 239 255
227 239 255
227 239 255
227 239 255
227 239 255
227 239 255
227 239 255
227 239 255
227 239 255
227 239 255
227 239 255
193 203 218
0 0 48
0 9 67
78 94 101
75 86 68
33 53 0
33 53 0
31 50 0
25 44 0
22 43 0
18 42 0
23 47 0
20 44 0
19 40 0
18 42 0
22 40 0
24 42 0
31 48 0
29 49 0
29 50 0
29 48 0
31 50 0
29 48 0
37 54 0
36 54 0
30 50 0
30 49 0
32 51 0
30 50 0
30 49 0
35 63 34
21 132 139
20 153 165
3 67 113
0 2 55
0 0 44
0 0 41
0 0 40
0 0 42
0 0 42
0 0 42
0 0 42
0 0 42
0 0 42
0 0 42
0 0 42
0 0 42
0 0 42
0 0 42
0 0 42
0 0 42
0 0 42
0 0 42
0 0 42
0 0 42
0 0 44
0 0 45
0 0 45
0 0 45
0 0 43
0 0 42
0 0 42
0 0 42
0 0 42
0 0 42
0 0 42
0 0 42
0 0 44
0 0 45
0 0 45
0 0 45
0 0 45
0 0 45
0 0 45
0 0 45
0 0 45
0 0 45
0 0 45
0 0 45
0 0 45
0 0 45
0 0 45
0 0 45
0 0 45
0 0 45
0 0 45
0 0 45
0 0 45
0 0 43
0 0 42
0 0 42
0 0 42
0 0 42
0 0 42
0 0 42
0 0 42
0 0 42
0 0 42
0 0 42
0 0 39
0 0 37
0 0 47
0 0 47
0 0 38
0 0 44
0 0 44
0 0 40
0 0 43
0 0 42
0 0 40
0 0 42
0 0 42
0 0 42
0 0 43
0 0 42
0 0 41
0 0 44
0 0 43
0 0 35
0 0 45
0 0 44
0 0 42
0 0 42
0 0 42
0 0 42
0 0 42
0 0 37
0 0 47
0 0 42
0 0 43
0 0 39
0 0 44
0 0 41
0 0 47
0 0 42
0 0 43
15 25 43
0 5 47
37 56 55
52 75 22
43 68 8
46 66 9
52 74 22
53 74 22
50 71 14
48 65 11
42 57 2
34 52 0
24 42 0
24 40 0
29 49 0
30 51 0
32 53 0
32 54 0
30 52 0
32 53 0
31 52 0
37 58 0
38 58 0
32 52 0
28 48 0
26 45 0
20 41 0
19 38 0
23 42 0
17 39 0
22 41 0
27 48 0
39 64 6
31 53 14
40 62 3
37 62 3
51 69 20
49 69 11
58 72 26
89 83 49
109 93 61
119 101 70
147 117 81
109 93 50
71 79 27
26 31 47
0 0 42
0 0 42
0 0 42
0 0 42
0 0 42
0 0 42
0 0 42
0 0 42
0 0 42
195 205 221
227 239 255
227 239 255
227 239 255
227 239 255
227 239 255
227 239 255
227 239 255
227 239 255
227 239 255
227 239 255
227 239 255
227 239 255
227 239 255
227 239 255
227 239 255
227 239 255
227 239 255
227 239 255
227 239 255
227 239 255
227 239 255
227 239 255
227 239 255
227 239 255
227 239 255
227 239 255
227 239 255
227 239 255
227 239 255
227 239 255
227 239 255
227 239 255
227 239 255
227 239 255
227 239 255
227 239 255
227 239 255
227 239 255
227 239 255
227 239 255
227 239 255
227 239 255
227 239 255
227 239 255
227 239 255
227 239 255
227 239 255
227 239 255
227 239 255
227 239 255
227 239 255
227 239 255
227 239 255
227 239 255
227 239 255
227 239 255
227 239 255
227 239 255
227 239 255
227 239 255
227 239 255
227 239 255
227 239 255
227 239 255
227 239 255
227 239 255
227 239 255
227 239 255
227 239 255
227 239 255
227 239 255
227 239 255
227 239 255
227 239 255
227 239 255
227 239 255
227 239 255
227 239 255
227 239 255
227 239 255
227 239 255
227 239 255
227 239 255
227 239 255
227 239 255
227 239 255
227 239 255
227 239 255
227 239 255
227 239 255
227 239 255
227 239 255
227 239 255
227 239 255
227 239 255
227 239 255
227 239 255
227 239 255
227 239 255
227 239 255
227 239 255
227 239 255
227 239 255
227 239 255
227 239 255
227 239 255
227 239 255
227 239 255
227 239 255
227 239 255
227 239 255
227 239 255
227 239 255
227 239 255
227 239 255
227 239 255
227 239 255
227 239 255
227 239 255
227 239 255
227 239 255
227 239 255
227 239 255
227 239 255
227 239 255
227 239 255
227 239 255
227 239 255
227 239 255
227 239 255
227 239 255
227 239 255
227 239 255
227 239 255
227 239 255
227 239 255
227 239 255
227 239 255
227 239 255
227 239 255
227 239 255
227 239 255
227 239 255
227 239 255
227 239 255
227 239 255
227 239 255
227 239 255
227 239 255
227 239 255
227 239 255
227 239 255
227 239 255
227 239 255
227 239 255
227 239 255
227 239 255
227 239 255
227 239 255
227 239 255
227 239 255
227 239 255
227 239 255
227 239 255
227 239 255
227 239 255
227 239 255
227 239 255
227 239 255
227 239 255
227 239 255
227 239 255
227 239 255
227 239 255
227 239 255
227 239 255
227 239 255
227 239 255
227 239 255
227 239 255
227 239 255
227 239 255
227 239 255
227 239 255
227 239 255
227 239 255
227 239 255
227 239 255
227 239 255
227 239 255
227 239 255
227 239 255
227 239 255
227 239 255
227 239 255
227 239 255
227 239 255
227 239 255
227 239 255
227 239 255
227 239 255
227 239 255
227 239 255
227 239 255
227 239 255
227 239 255
227 239 255
227 239 255
213 224 240
0 0 48
0 11 69
62 83 97
83 92 77
29 50 0
30 52 0
28 48 0
28 49 0
23 45 0
24 47 0
20 43 0
20 43 0
18 40 0
21 42 0
24 40 0
26 43 0
26 45 0
24 45 0
27 47 0
26 45 0
27 45 0
25 45 0
27 45 0
30 49 0
30 49 0
28 46 0
28 46 0
31 49 0
30 53 0
35 52 0
19 84 81
9 134 155
8 102 134
0 20 72
0 0 49
0 0 42
0 0 40
0 0 42
0 0 42
0 0 42
0 0 42
0 0 42
0 0 42
0 0 42
0 0 42
0 0 42
0 0 42
0 0 42
0 0 42
0 0 42
0 0 42
0 0 42
0 0 42
0 0 42
0 0 43
0 0 43
0 0 43
0 0 43
0 0 43
0 0 42
0 0 42
0 0 42
0 0 42
0 0 42
0 0 42
0 0 42
0 0 44
0 0 45
0 0 45
0 0 45
0 0 45
0 0 45
0 0 45
0 0 45
0 0 45
0 0 45
0 0 45
0 0 45
0 0 45
0 0 45
0 0 45
0 0 45
0 0 42
0 0 42
0 0 42
0 0 42
0 0 42
0 0 42
0 0 42
0 0 42
0 0 42
0 0 42
0 0 44
0 0 42
0 0 42
0 0 42
0 0 42
0 0 42
0 0 44
0 0 44
0 0 39
0 0 32
0 0 40
0 0 44
0 0 39
0 0 38
0 0 38
0 0 43
0 0 45
0 0 41
0 0 40
0 0 41
0 0 43
0 0 42
0 0 40
0 0 43
0 0 41
0 0 39
0 0 47
0 0 39
0 0 42
0 0 42
0 0 42
0 0 42
0 0 42
0 0 42
0 0 42
0 0 36
0 0 48
0 0 47
0 0 45
0 0 46
0 0 40
0 0 42
0 0 45
0 0 46
0 0 47
36 51 36
47 69 15
53 71 18
45 67 8
45 64 8
48 66 8
50 70 13
42 59 3
34 53 0
29 50 0
24 43 0
23 40 0
26 46 0
26 46 0
26 47 0
27 46 0
26 48 0
30 52 0
33 55 0
36 55 0
33 52 0
30 49 0
30 48 0
30 47 0
21 42 0
16 36 0
21 39 0
21 42 0
19 42 0
26 48 4
37 63 10
33 56 7
41 59 0
38 77 40
44 98 65
47 65 7
49 63 14
63 73 28
69 70 30
109 92 60
144 112 81
94 90 39
45 58 32
3 4 42
0 0 43
0 0 42
0 0 42
0 0 42
0 0 42
0 0 42
0 0 42
0 0 41
0 0 42
218 229 245
227 239 255
227 239 255
227 239 255
227 239 255
227 239 255
227 239 255
227 239 255
227 239 255
227 239 255
227 239 255
227 239 255
227 239 255
227 239 255
227 239 255
227 239 255
227 239 255
227 239 255
227 239 255
227 239 255
227 239 255
227 239 255
227 239 255
227 239 255
227 239 255
227 239 255
227 239 255
227 239 255
227 239 255
227 239 255
227 239 255
227 239 255
227 239 255
227 239 255
227 239 255
227 239 255
227 239 255
227 239 255
227 239 255
227 239 255
227 239 255
227 239 255
227 239 255
227 239 255
227 239 255
227 239 255
227 239 255
227 239 255
227 239 255
227 239 255
227 239 255
227 239 255
227 239 255
227 239 255
227 239 255
227 239 255
227 239 255
227 239 255
227 239 255
227 239 255
227 239 255
227 239 255
227 239 255
227 239 255
227 239 255
227 239 255
227 239 255
227 239 255
227 239 255
227 239 255
227 239 255
227 239 255
227 239 255
227 239 255
227 239 255
227 239 255
227 239 255
227 239 255
227 239 255
227 239 255
227 239 255
227 239 255
227 239 255
227 239 255
227 239 255
227 239 255
227 239 255
227 239 255
227 239 255
227 239 255
227 239 255
227 239 255
227 239 255
227 239 255
227 239 255
227 239 255
227 239 255
227 239 255
227 239 255
227 239 255
227 239 255
227 239 255
227 239 255
227 239 255
227 239 255
227 239 255
227 239 255
227 239 255
227 239 255
227 239 255
227 239 255
227 239 255
227 239 255
227 239 255
227 239 255
227 239 255
227 239 255
227 239 255
227 239 255
227 239 255
227 239 255
227 239 255
227 239 255
227 239 255
227 239 255
227 239 255
227 239 255
227 239 255
227 239 255
227 239 255
227 239 255
227 239 255
227 239 255
227 239 255
227 239 255
227 239 255
227 239 255
227 239 255
227 239 255
227 239 255
227 239 255
227 239 255
227 239 255
227 239 255
227 239 255
227 239 255
227 239 255
227 239 255
227 239 255
227 239 255
227 239 255
227 239 255
227 239 255
227 239 255
227 239 255
227 239 255
227 239 255
227 239 255
227 239 255
227 239 255
227 239 255
227 239 255
227 239 255
227 239 255
227 239 255
227 239 255
227 239 255
227 239 255
227 239 255
227 239 255
227 239 255
227 239 255
227 239 255
227 239 255
227 239 255
227 239 255
227 239 255
227 239 255
227 239 255
227 239 255
227 239 255
227 239 255
227 239 255
227 239 255
227 239 255
227 239 255
227 239 255
227 239 255
227 239 255
227 239 255
227 239 255
227 239 255
227 239 255
227 239 255
227 239 255
227 239 255
227 239 255
227 239 255
227 239 255
227 239 255
227 239 255
227 239 255
227 239 255
227 239 255
227 239 255
227 239 255
227 239 255
227 239 255
227 239 255
224 235 252
0 0 48
0 4 67
45 72 109
62 75 45
28 50 0
30 52 0
30 50 0
27 48 0
27 49 0
23 46 0
19 42 0
16 39 0
19 42 0
22 43 0
24 43 0
27 46 0
28 49 0
27 48 0
26 47 0
24 42 0
24 43 0
26 44 0
24 42 0
25 46 0
26 47 0
27 46 0
23 45 0
21 47 0
38 51 0
41 59 17
17 83 98
6 100 137
11 118 142
0 36 93
0 8 60
0 0 47
0 0 41
0 0 41
0 0 42
0 0 42
0 0 42
0 0 42
0 0 42
0 0 42
0 0 42
0 0 42
0 0 42
0 0 42
0 0 42
0 0 42
0 0 42
0 0 42
0 0 42
0 0 42
0 0 42
0 0 42
0 0 42
0 0 42
0 0 42
0 0 42
0 0 42
0 0 42
0 0 42
0 0 42
0 0 42
0 0 42
0 0 42
0 0 42
0 0 42
0 0 42
0 0 42
0 0 42
0 0 43
0 0 42
0 0 43
0 0 43
0 0 43
0 0 43
0 0 43
0 0 43
0 0 43
0 0 43
0 0 42
0 0 42
0 0 42
0 0 42
0 0 42
0 0 42
0 0 42
0 0 42
0 0 42
0 0 43
0 0 43
0 0 42
0 0 42
0 0 42
0 0 42
0 0 42
0 0 42
0 0 41
0 0 41
0 0 44
0 0 43
0 0 38
0 0 40
0 0 45
0 0 43
0 0 40
0 0 41
0 0 41
0 0 41
0 0 41
0 0 41
0 0 42
0 0 42
0 0 42
0 0 42
0 0 42
0 0 43
0 0 41
0 0 42
0 0 42
0 0 42
0 0 42
0 0 42
0 0 42
0 0 42
0 0 42
0 0 42
0 0 44
0 0 40
0 0 44
0 0 44
0 0 42
0 0 43
0 0 42
0 0 47
31 46 23
51 70 16
47 65 5
45 65 0
42 60 0
45 62 5
48 68 10
46 67 10
32 52 0
28 47 0
24 42 0
27 44 0
26 47 0
27 48 0
26 47 0
30 50 0
24 45 0
29 50 0
32 54 0
35 55 0
32 50 0
30 48 0
32 50 0
33 52 0
27 47 0
19 39 0
18 38 0
14 37 0
18 38 0
37 59 8
43 66 11
42 66 11
44 88 54
27 122 130
39 168 160
47 105 67
46 61 9
55 65 18
71 73 32
100 84 48
132 107 66
76 81 31
31 48 33
0 0 45
0 0 43
0 0 42
0 0 42
0 0 42
0 0 42
0 0 41
0 0 42
0 0 42
22 23 49
226 238 254
227 239 255
227 239 255
227 239 255
227 239 255
227 239 255
227 239 255
227 239 255
227 239 255
227 239 255
227 239 255
227 239 255
227 239 255
227 239 255
227 239 255
227 239 255
227 239 255
227 239 255
227 239 255
227 239 255
227 239 255
227 239 255
227 239 255
227 239 255
227 239 255
227 239 255
227 239 255
227 239 255
227 239 255
227 239 255
227 239 255
227 239 255
227 239 255
227 239 255
227 239 255
227 239 255
227 239 255
227 239 255
227 239 255
227 239 255
227 239 255
227 239 255
227 239 255
227 239 255
227 239 255
227 239 255
227 239 255
227 239 255
227 239 255
227 239 255
227 239 255
227 239 255
227 239 255
227 239 255
227 239 255
227 239 255
227 239 255
227 239 255
227 239 255
227 239 255
227 239 255
227 239 255
227 239 255
227 239 255
227 239 255
227 239 255
227 239 255
227 239 255
227 239 255
227 239 255
227 239 255
227 239 255
227 239 255
227 239 255
227 239 255
227 239 255
227 239 255
227 239 255
227 239 255
227 239 255
227 239 255
227 239 255
227 239 255
227 239 255
227 239 255
227 239 255
227 239 255
227 239 255
227 239 255
227 239 255
227 239 255
227 239 255
227 239 255
227 239 255
227 239 255
227 239 255
227 239 255
227 239 255
227 239 255
227 239 255
227 239 255
227 239 255
227 239 255
227 239 255
227 239 255
227 239 255
227 239 255
227 239 255
227 239 255
227 239 255
227 239 255
227 239 255
227 239 255
227 239 255
227 239 255
227 239 255
227 239 255
227 239 255
227 239 255
227 239 255
227 239 255
227 239 255
227 239 255
227 239 255
227 239 255
227 239 255
227 239 255
227 239 255
227 239 255
227 239 255
227 239 255
227 239 255
227 239 255
227 239 255
227 239 255
227 239 255
227 239 255
227 239 255
227 239 255
227 239 255
227 239 255
227 239 255
227 239 255
227 239 255
227 239 255
227 239 255
227 239 255
227 239 255
227 239 255
227 239 255
227 239 255
227 239 255
227 239 255
227 239 255
227 239 255
227 239 255
227 239 255
227 239 255
227 239 255
227 239 255
227 239 255
227 239 255
227 239 255
227 239 255
227 239 255
227 239 255
227 239 255
227 239 255
227 239 255
227 239 255
227 239 255
227 239 255
227 239 255
227 239 255
227 239 255
227 239 255
227 239 255
227 239 255
227 239 255
227 239 255
227 239 255
227 239 255
227 239 255
227 239 255
227 239 255
227 239 255
227 239 255
227 239 255
227 239 255
227 239 255
227 239 255
227 239 255
227 239 255
227 239 255
227 239 255
227 239 255
227 239 255
227 239 255
227 239 255
227 239 255
227 239 255
227 239 255
227 239 255
227 239 255
227 239 255
227 239 255
227 239 255
227 239 255
227 239 255
227 239 255
96 101 116
0 2 64
40 58 90
48 62 18
27 48 0
27 47 0
29 51 0
27 47 0
27 49 0
24 47 0
22 45 0
16 39 0
20 42 0
22 42 0
25 46 0
23 41 0
25 45 0
26 47 0
25 46 0
23 42 0
24 43 0
23 44 0
23 42 0
25 45 0
27 50 0
28 49 0
27 45 0
27 44 0
37 52 0
31 69 45
19 79 84
6 92 132
14 142 155
6 94 134
0 16 71
0 0 53
0 0 44
0 0 43
0 0 42
0 0 42
0 0 42
0 0 42
0 0 42
0 0 42
0 0 42
0 0 42
0 0 42
0 0 42
0 0 42
0 0 42
0 0 42
0 0 42
0 0 42
0 0 42
0 0 42
0 0 42
0 0 42
0 0 42
0 0 42
0 0 42
0 0 42
0 0 42
0 0 42
0 0 42
0 0 42
0 0 42
0 0 42
0 0 42
0 0 42
0 0 42
0 0 42
0 0 42
0 0 42
0 0 42
0 0 42
0 0 42
0 0 42
0 0 42
0 0 42
0 0 42
0 0 42
0 0 42
0 0 42
0 0 42
0 0 42
0 0 42
0 0 42
0 0 42
0 0 42
0 0 42
0 0 42
0 0 42
0 0 42
0 0 42
0 0 42
0 0 42
0 0 42
0 0 42
0 0 42
0 0 42
0 0 42
0 0 42
0 0 42
0 0 42
0 0 42
0 0 42
0 0 42
0 0 42
0 0 42
0 0 42
0 0 42
0 0 42
0 0 42
0 0 42
0 0 42
0 0 42
0 0 42
0 0 42
0 0 42
0 0 42
0 0 42
0 0 42
0 0 42
0 0 42
0 0 42
0 0 42
0 0 42
0 0 42
0 0 44
0 0 45
0 0 44
0 0 44
0 0 44
0 0 46
0 0 43
0 0 46
10 17 48
36 56 12
47 64 13
46 62 13
44 65 7
48 65 8
50 68 9
41 60 3
43 64 7
29 49 0
24 43 0
20 40 0
26 45 0
27 50 0
28 49 0
27 47 0
28 47 0
27 47 0
31 52 0
30 52 0
29 50 0
29 49 0
29 49 0
31 50 0
36 53 0
30 51 0
23 43 0
20 41 0
12 33 0
14 33 0
28 47 17
41 61 10
52 73 15
39 105 102
3 85 120
35 166 154
48 78 32
62 72 24
72 74 27
85 84 40
92 81 46
122 101 63
52 67 17
7 18 42
0 0 39
0 0 39
0 0 42
0 0 42
0 0 42
0 0 42
0 0 42
0 0 42
0 0 42
72 75 90
227 239 255
227 239 255
227 239 255
227 239 255
227 239 255
227 239 255
227 239 255
227 239 255
227 239 255
227 239 255
227 239 255
227 239 255
227 239 255
227 239 255
227 239 255
227 239 255
227 239 255
227 239 255
227 239 255
227 239 255
227 239 255
227 239 255
227 239 255
227 239 255
227 239 255
227 239 255
227 239 255
227 239 255
227 239 255
227 239 255
227 239 255
227 239 255
227 239 255
227 239 255
227 239 255
227 239 255
227 239 255
227 239 255
227 239 255
227 239 255
227 239 255
227 239 255
227 239 255
227 239 255
227 239 255
227 239 255
227 239 255
227 239 255
227 239 255
227 239 255
227 239 255
227 239 255
227 239 255
227 239 255
227 239 255
227 239 255
227 239 255
227 239 255
227 239 255
227 239 255
227 239 255
227 239 255
227 239 255
227 239 255
227 239 255
227 239 255
227 239 255
227 239 255
227 239 255
227 239 255
227 239 255
227 239 255
227 239 255
227 239 255
227 239 255
227 239 255
227 239 255
227 239 255
227 239 255
227 239 255
227 239 255
227 239 255
227 239 255
227 239 255
227 239 255
227 239 255
227 239 255
227 239 255
227 239 255
227 239 255
227 239 255
227 239 255
227 239 255
227 239 255
227 239 255
227 239 255
227 239 255
227 239 255
227 239 255
227 239 255
227 239 255
227 239 255
227 239 255
227 239 255
227 239 255
227 239 255
227 239 255
227 239 255
227 239 255
227 239 255
227 239 255
227 239 255
227 239 255
227 239 255
227 239 255
227 239 255
227 239 255
227 239 255
227 239 255
227 239 255
227 239 255
227 239 255
227 239 255
227 239 255
227 239 255
227 239 255
227 239 255
227 239 255
227 239 255
227 239 255
227 239 255
227 239 255
227 239 255
227 239 255
227 239 255
227 239 255
227 239 255
227 239 255
227 239 255
227 239 255
227 239 255
227 239 255
227 239 255
227 239 255
227 239 255
227 239 255
227 239 255
227 239 255
227 239 255
227 239 255
227 239 255
227 239 255
227 239 255
227 239 255
227 239 255
227 239 255
227 239 255
227 239 255
227 239 255
227 239 255
227 239 255
227 239 255
227 239 255
227 239 255
227 239 255
227 239 255
227 239 255
227 239 255
227 239 255
227 239 255
227 239 255
227 239 255
227 239 255
227 239 255
227 239 255
227 239 255
227 239 255
227 239 255
227 239 255
227 239 255
227 239 255
227 239 255
227 239 255
227 239 255
227 239 255
227 239 255
227 239 255
227 239 255
227 239 255
227 239 255
227 239 255
227 239 255
227 239 255
227 239 255
227 239 255
227 239 255
227 239 255
227 239 255
227 239 255
227 239 255
227 239 255
227 239 255
227 239 255
227 239 255
227 239 255
227 239 255
227 239 255
227 239 255
227 239 255
227 239 255
101 107 121
0 0 58
45 59 76
43 60 10
27 50 0
25 46 0
26 47 0
24 46 0
24 47 0
26 46 0
21 44 0
20 43 0
24 47 0
21 42 0
20 42 0
22 44 0
23 42 0
26 47 0
16 35 0
22 43 0
26 46 0
21 41 0
26 44 0
25 44 0
30 48 0
33 51 0
28 47 0
35 54 0
32 62 14
27 60 29
29 76 48
27 87 79
18 107 119
15 136 158
0 38 96
0 5 62
0 0 48
0 0 44
0 0 42
0 0 42
0 0 42
0 0 42
0 0 42
0 0 42
0 0 42
0 0 42
0 0 42
0 0 42
0 0 42
0 0 42
0 0 42
0 0 42
0 0 42
0 0 42
0 0 42
0 0 42
0 0 42
0 0 42
0 0 42
0 0 42
0 0 42
0 0 42
0 0 42
0 0 42
0 0 42
0 0 42
0 0 42
0 0 42
0 0 42
0 0 42
0 0 42
0 0 42
0 0 42
0 0 42
0 0 42
0 0 42
0 0 42
0 0 42
0 0 42
0 0 42
0 0 42
0 0 42
0 0 42
0 0 42
0 0 42
0 0 42
0 0 42
0 0 42
0 0 42
0 0 42
0 0 42
0 0 42
0 0 42
0 0 42
0 0 42
0 0 42
0 0 42
0 0 42
0 0 42
0 0 42
0 0 42
0 0 42
0 0 42
0 0 42
0 0 42
0 0 42
0 0 42
0 0 42
0 0 42
0 0 42
0 0 42
0 0 42
0 0 42
0 0 42
0 0 42
0 0 42
0 0 42
0 0 42
0 0 42
0 0 42
0 0 42
0 0 42
0 0 42
0 0 42
0 0 42
0 0 42
0 0 42
0 0 43
0 0 45
0 0 45
0 0 46
0 0 41
0 0 41
0 0 47
0 0 44
0 0 43
15 24 56
42 65 22
47 62 10
41 58 9
38 56 5
44 59 5
54 70 14
42 59 0
37 54 0
28 46 0
24 43 0
23 44 0
26 48 0
27 50 0
24 46 0
24 43 0
28 47 0
26 43 0
27 47 0
30 52 0
27 48 0
26 47 0
25 47 0
29 49 0
30 49 0
29 49 0
24 44 0
22 43 0
13 36 0
20 38 0
38 55 10
53 69 9
58 71 18
26 93 114
2 70 121
36 136 131
60 75 26
77 79 31
93 84 39
88 81 39
98 82 47
109 96 51
35 51 37
0 0 42
0 0 42
0 0 48
0 0 42
0 0 42
0 0 42
0 0 42
0 0 42
0 0 44
0 0 42
106 112 125
227 239 255
227 239 255
227 239 255
227 239 255
227 239 255
227 239 255
227 239 255
227 239 255
227 239 255
227 239 255
227 239 255
227 239 255
227 239 255
227 239 255
227 239 255
227 239 255
227 239 255
227 239 255
227 239 255
227 239 255
227 239 255
227 239 255
227 239 255
227 239 255
227 239 255
227 239 255
227 239 255
227 239 255
227 239 255
227 239 255
227 239 255
227 239 255
227 239 255
227 239 255
227 239 255
227 239 255
227 239 255
227 239 255
227 239 255
227 239 255
227 239 255
227 239 255
227 239 255
227 239 255
227 239 255
227 239 255
227 239 255
227 239 255
227 239 255
227 239 255
227 239 255
227 239 255
227 239 255
227 239 255
227 239 255
227 239 255
227 239 255
227 239 255
227 239 255
227 239 255
227 239 255
227 239 255
227 239 255
227 239 255
227 239 255
227 239 255
227 239 255
227 239 255
227 239 255
227 239 255
227 239 255
227 239 255
227 239 255
227 239 255
227 239 255
227 239 255
227 239 255
227 239 255
227 239 255
227 239 255
227 239 255
227 239 255
227 239 255
227 239 255
227 239 255
227 239 255
227 239 255
227 239 255
227 239 255
227 239 255
227 239 255
227 239 255
227 239 255
227 239 255
227 239 255
227 239 255
227 239 255
227 239 255
227 239 255
227 239 255
227 239 255
227 239 255
227 239 255
227 239 255
227 239 255
227 239 255
227 239 255
227 239 255
227 239 255
227 239 255
227 239 255
227 239 255
227 239 255
227 239 255
227 239 255
227 239 255
227 239 255
227 239 255
227 239 255
227 239 255
227 239 255
227 239 255
227 239 255
227 239 255
227 239 255
227 239 255
227 239 255
227 239 255
227 239 255
227 239 255
227 239 255
227 239 255
227 239 255
227 239 255
227 239 255
227 239 255
227 239 255
227 239 255
227 239 255
227 239 255
227 239 255
227 239 255
227 239 255
227 239 255
227 239 255
227 239 255
227 239 255
227 239 255
227 239 255
227 239 255
227 239 255
227 239 255
227 239 255
227 239 255
227 239 255
227 239 255
227 239 255
227 239 255
227 239 255
227 239 255
227 239 255
227 239 255
227 239 255
227 239 255
227 239 255
227 239 255
227 239 255
227 239 255
227 239 255
227 239 255
227 239 255
227 239 255
227 239 255
227 239 255
227 239 255
227 239 255
227 239 255
227 239 255
227 239 255
227 239 255
227 239 255
227 239 255
227 239 255
227 239 255
227 239 255
227 239 255
227 239 255
227 239 255
227 239 255
227 239 255
227 239 255
227 239 255
227 239 255
227 239 255
227 239 255
227 239 255
227 239 255
227 239 255
227 239 255
227 239 255
227 239 255
227 239 255
227 239 255
227 239 255
227 239 255
227 239 255
227 239 255
227 239 255
227 239 255
227 239 255
151 158 173
0 0 54
73 77 76
49 63 18
29 52 0
22 47 0
22 43 0
23 45 0
23 47 0
24 47 0
28 51 0
22 47 0
27 51 0
25 47 0
20 42 0
20 43 0
21 43 0
23 45 0
19 38 0
21 43 0
26 46 0
24 43 0
25 47 0
28 52 0
26 49 0
29 51 0
27 50 0
32 52 0
35 58 4
29 56 11
25 53 0
43 59 9
44 102 89
31 151 130
6 77 109
0 35 96
0 6 57
0 0 42
0 0 46
0 0 42
0 0 40
0 0 43
0 0 43
0 0 42
0 0 42
0 0 42
0 0 42
0 0 42
0 0 42
0 0 42
0 0 42
0 0 42
0 0 42
0 0 42
0 0 42
0 0 42
0 0 42
0 0 42
0 0 42
0 0 42
0 0 42
0 0 42
0 0 42
0 0 42
0 0 42
0 0 42
0 0 42
0 0 42
0 0 42
0 0 42
0 0 42
0 0 42
0 0 42
0 0 42
0 0 42
0 0 42
0 0 42
0 0 42
0 0 42
0 0 42
0 0 42
0 0 42
0 0 42
0 0 42
0 0 42
0 0 42
0 0 42
0 0 42
0 0 42
0 0 42
0 0 42
0 0 42
0 0 42
0 0 42
0 0 42
0 0 42
0 0 42
0 0 42
0 0 42
0 0 42
0 0 42
0 0 42
0 0 42
0 0 42
0 0 42
0 0 42
0 0 42
0 0 43
0 0 43
0 0 42
0 0 42
0 0 42
0 0 42
0 0 42
0 0 42
0 0 42
0 0 42
0 0 42
0 0 42
0 0 42
0 0 42
0 0 42
0 0 42
0 0 42
0 0 42
0 0 42
0 0 43
0 0 45
0 0 45
0 0 45
0 0 45
0 0 40
0 0 40
0 0 47
0 0 46
0 0 44
15 30 54
38 62 24
38 53 6
34 52 0
37 53 0
50 66 16
59 76 25
50 68 15
34 50 0
30 47 0
29 51 0
27 50 0
21 45 0
26 46 0
25 43 0
24 42 0
25 44 0
24 42 0
24 43 0
29 49 0
29 49 0
25 45 0
24 44 0
25 45 0
25 45 0
25 46 0
21 40 0
21 38 0
17 35 0
24 44 4
40 56 10
58 70 17
56 67 16
32 124 141
28 153 150
64 125 100
68 76 30
80 76 30
91 81 37
89 77 40
105 85 52
83 78 43
7 13 46
0 0 42
0 0 43
0 0 45
0 0 44
0 0 42
0 0 42
0 0 42
0 0 43
0 0 45
0 0 42
124 131 144
227 239 255
227 239 255
227 239 255
227 239 255
227 239 255
227 239 255
227 239 255
227 239 255
227 239 255
227 239 255
227 239 255
227 239 255
227 239 255
227 239 255
227 239 255
227 239 255
227 239 255
227 239 255
227 239 255
227 239 255
227 239 255
227 239 255
227 239 255
227 239 255
227 239 255
227 239 255
227 239 255
227 239 255
227 239 255
227 239 255
227 239 255
227 239 255
227 239 255
227 239 255
227 239 255
227 239 255
227 239 255
227 239 255
227 239 255
227 239 255
227 239 255
227 239 255
227 239 255
227 239 255
227 239 255
227 239 255
227 239 255
227 239 255
227 239 255
227 239 255
227 239 255
227 239 255
227 239 255
227 239 255
227 239 255
227 239 255
227 239 255
227 239 255
227 239 255
227 239 255
227 239 255
227 239 255
227 239 255
227 239 255
227 239 255
227 239 255
227 239 255
227 239 255
227 239 255
227 239 255
227 239 255
227 239 255
227 239 255
227 239 255
227 239 255
227 239 255
227 239 255
227 239 255
227 239 255
227 239 255
227 239 255
227 239 255
227 239 255
227 239 255
227 239 255
227 239 255
227 239 255
227 239 255
227 239 255
227 239 255
227 239 255
227 239 255
227 239 255
227 239 255
227 239 255
227 239 255
227 239 255
227 239 255
227 239 255
227 239 255
227 239 255
227 239 255
227 239 255
227 239 255
227 239 255
227 239 255
227 239 255
227 239 255
227 239 255
227 239 255
227 239 255
227 239 255
227 239 255
227 239 255
227 239 255
227 239 255
227 239 255
227 239 255
227 239 255
227 239 255
227 239 255
227 239 255
227 239 255
227 239 255
227 239 255
227 239 255
227 239 255
227 239 255
227 239 255
227 239 255
227 239 255
227 239 255
227 239 255
227 239 255
227 239 255
227 239 255
227 239 255
227 239 255
227 239 255
227 239 255
227 239 255
227 239 255
227 239 255
227 239 255
227 239 255
227 239 255
227 239 255
227 239 255
227 239 255
227 239 255
227 239 255
227 239 255
227 239 255
227 239 255
227 239 255
227 239 255
227 239 255
227 239 255
227 239 255
227 239 255
227 239 255
227 239 255
227 239 255
227 239 255
227 239 255
227 239 255
227 239 255
227 239 255
227 239 255
227 239 255
227 239 255
227 239 255
227 239 255
227 239 255
227 239 255
227 239 255
227 239 255
227 239 255
227 239 255
227 239 255
227 239 255
227 239 255
227 239 255
227 239 255
227 239 255
227 239 255
227 239 255
227 239 255
227 239 255
227 239 255
227 239 255
227 239 255
227 239 255
227 239 255
227 239 255
227 239 255
227 239 255
227 239 255
227 239 255
227 239 255
227 239 255
227 239 255
227 239 255
227 239 255
227 239 255
227 239 255
227 239 255
227 239 255
227 239 255
227 239 255
165 174 189
0 0 52
34 44 78
81 86 47
27 48 2
21 48 0
23 46 0
20 42 0
23 46 0
25 47 0
27 50 0
20 45 0
23 45 0
26 48 0
20 43 0
16 38 0
23 44 0
21 42 0
23 46 0
22 43 0
26 45 0
30 49 0
34 48 0
40 55 0
38 54 0
41 60 0
34 52 0
38 55 0
35 56 0
27 51 0
22 52 0
43 58 13
33 96 74
38 67 28
35 67 26
27 82 81
11 58 98
2 13 61
0 0 44
0 0 38
0 0 46
0 0 40
0 0 43
0 0 43
0 0 41
0 0 40
0 0 40
0 0 42
0 0 42
0 0 42
0 0 42
0 0 42
0 0 42
0 0 42
0 0 42
0 0 42
0 0 42
0 0 42
0 0 42
0 0 42
0 0 42
0 0 42
0 0 42
0 0 42
0 0 42
0 0 42
0 0 42
0 0 42
0 0 42
0 0 42
0 0 42
0 0 42
0 0 42
0 0 42
0 0 42
0 0 42
0 0 42
0 0 42
0 0 42
0 0 42
0 0 42
0 0 42
0 0 43
0 0 43
0 0 43
0 0 43
0 0 43
0 0 43
0 0 42
0 0 42
0 0 42
0 0 42
0 0 42
0 0 43
0 0 43
0 0 43
0 0 43
0 0 43
0 0 43
0 0 43
0 0 43
0 0 43
0 0 43
0 0 44
0 0 45
0 0 45
0 0 45
0 0 45
0 0 45
0 0 44
0 0 44
0 0 44
0 0 44
0 0 44
0 0 44
0 0 44
0 0 44
0 0 44
0 0 44
0 0 44
0 0 45
0 0 45
0 0 45
0 0 45
0 0 45
0 0 43
0 0 45
0 0 45
0 0 45
0 0 45
0 0 43
0 0 43
0 0 42
0 0 47
0 0 47
0 0 51
20 35 47
42 64 21
51 68 25
41 59 5
44 58 0
50 65 14
43 59 10
48 66 11
42 56 8
36 53 1
30 52 0
32 52 0
24 46 0
29 50 0
28 47 0
25 44 0
26 46 0
24 42 0
24 43 0
27 47 0
27 48 0
25 45 0
23 45 0
24 45 0
23 41 0
23 43 0
20 40 0
16 34 0
16 36 0
23 44 6
42 56 18
55 67 13
57 66 11
38 154 137
57 170 138
71 112 87
81 78 37
102 88 53
92 87 42
82 74 42
121 94 64
57 62 31
0 0 44
0 0 41
0 0 43
0 0 45
0 0 45
0 0 42
0 0 42
0 0 42
0 0 43
0 0 45
0 0 43
172 180 195
227 239 255
227 239 255
227 239 255
227 239 255
227 239 255
227 239 255
227 239 255
227 239 255
227 239 255
227 239 255
227 239 255
227 239 255
227 239 255
227 239 255
227 239 255
227 239 255
227 239 255
227 239 255
227 239 255
227 239 255
227 239 255
227 239 255
227 239 255
227 239 255
227 239 255
227 239 255
227 239 255
227 239 255
227 239 255
227 239 255
227 239 255
227 239 255
227 239 255
227 239 255
227 239 255
227 239 255
227 239 255
227 239 255
227 239 255
227 239 255
227 239 255
227 239 255
227 239 255
227 239 255
227 239 255
227 239 255
227 239 255
227 239 255
227 239 255
227 239 255
227 239 255
227 239 255
227 239 255
227 239 255
227 239 255
227 239 255
227 239 255
227 239 255
227 239 255
227 239 255
227 239 255
227 239 255
227 239 255
227 239 255
227 239 255
227 239 255
227 239 255
227 239 255
227 239 255
227 239 255
227 239 255
227 239 255
227 239 255
227 239 255
227 239 255
227 239 255
227 239 255
227 239 255
227 239 255
227 239 255
227 239 255
227 239 255
227 239 255
227 239 255
227 239 255
227 239 255
227 239 255
227 239 255
227 239 255
227 239 255
227 239 255
227 239 255
227 239 255
227 239 255
227 239 255
227 239 255
227 239 255
227 239 255
227 239 255
227 239 255
227 239 255
227 239 255
227 239 255
227 239 255
227 239 255
227 239 255
227 239 255
227 239 255
227 239 255
227 239 255
227 239 255
227 239 255
227 239 255
227 239 255
227 239 255
227 239 255
227 239 255
227 239 255
227 239 255
227 239 255
227 239 255
227 239 255
227 239 255
227 239 255
227 239 255
227 239 255
227 239 255
227 239 255
227 239 255
227 239 255
227 239 255
227 239 255
227 239 255
227 239 255
227 239 255
227 239 255
227 239 255
227 239 255
227 239 255
227 239 255
227 239 255
227 239 255
227 239 255
227 239 255
227 239 255
227 239 255
227 239 255
227 239 255
227 239 255
227 239 255
227 239 255
227 239 255
227 239 255
227 239 255
227 239 255
227 239 255
227 239 255
227 239 255
227 239 255
227 239 255
227 239 255
227 239 255
227 239 255
227 239 255
227 239 255
227 239 255
227 239 255
227 239 255
227 239 255
227 239 255
227 239 255
227 239 255
227 239 255
227 239 255
227 239 255
227 239 255
227 239 255
227 239 255
227 239 255
227 239 255
227 239 255
227 239 255
227 239 255
227 239 255
227 239 255
227 239 255
227 239 255
227 239 255
227 239 255
227 239 255
227 239 255
227 239 255
227 239 255
227 239 255
227 239 255
227 239 255
227 239 255
227 239 255
227 239 255
227 239 255
227 239 255
227 239 255
227 239 255
227 239 255
227 239 255
227 239 255
227 239 255
227 239 255
227 239 255
227 239 255
193 203 218
0 0 48
23 29 74
122 130 109
38 54 14
22 46 0
22 47 0
20 42 0
18 41 0
24 46 0
20 42 0
21 44 0
24 47 0
22 44 0
24 46 0
19 41 0
23 43 0
23 42 0
30 50 0
25 43 0
27 46 0
32 49 0
34 51 0
34 51 0
41 56 0
40 55 0
36 55 0
35 54 0
26 50 0
24 49 6
24 64 19
25 78 41
35 82 35
40 62 0
42 65 0
41 66 0
32 74 48
21 69 86
3 27 66
0 0 46
0 0 49
0 0 43
0 0 41
0 0 41
0 0 41
0 0 41
0 0 41
0 0 42
0 0 42
0 0 42
0 0 42
0 0 42
0 0 42
0 0 42
0 0 42
0 0 42
0 0 42
0 0 42
0 0 42
0 0 42
0 0 42
0 0 42
0 0 42
0 0 42
0 0 42
0 0 42
0 0 42
0 0 42
0 0 42
0 0 42
0 0 42
0 0 42
0 0 42
0 0 42
0 0 42
0 0 42
0 0 42
0 0 42
0 0 42
0 0 42
0 0 42
0 0 42
0 0 44
0 0 44
0 0 45
0 0 45
0 0 44
0 0 44
0 0 44
0 0 44
0 0 44
0 0 44
0 0 44
0 0 45
0 0 45
0 0 45
0 0 45
0 0 45
0 0 45
0 0 45
0 0 45
0 0 45
0 0 45
0 0 45
0 0 44
0 0 45
0 0 45
0 0 45
0 0 44
0 0 45
0 0 45
0 0 45
0 0 45
0 0 45
0 0 45
0 0 45
0 0 45
0 0 45
0 0 44
0 0 44
0 0 45
0 0 45
0 0 45
0 0 45
0 0 45
0 0 44
0 0 45
0 0 45
0 0 45
0 0 45
0 0 45
0 0 45
0 0 45
0 0 47
0 0 48
10 18 63
37 56 42
44 61 10
42 56 12
33 46 0
32 47 0
43 59 0
43 60 0
40 56 0
60 69 24
61 72 24
44 58 2
38 53 0
31 52 0
30 52 0
26 45 0
28 47 0
26 44 0
23 41 0
23 43 0
24 44 0
24 44 0
23 44 0
24 45 0
24 44 0
23 42 0
24 44 0
22 40 0
13 36 0
13 34 0
31 46 11
51 62 16
55 67 12
57 65 16
62 93 60
88 104 72
97 95 62
89 83 44
87 80 36
84 80 38
85 77 41
100 83 49
36 42 33
0 0 42
0 0 41
0 0 43
0 0 45
0 0 44
0 0 42
0 0 42
0 0 42
0 0 45
0 0 45
0 0 42
189 198 213
227 239 255
227 239 255
227 239 255
227 239 255
227 239 255
227 239 255
227 239 255
227 239 255
227 239 255
227 239 255
227 239 255
227 239 255
227 239 255
227 239 255
227 239 255
227 239 255
227 239 255
227 239 255
227 239 255
227 239 255
227 239 255
227 239 255
227 239 255
227 239 255
227 239 255
227 239 255
227 239 255
227 239 255
227 239 255
227 239 255
227 239 255
227 239 255
227 239 255
227 239 255
227 239 255
227 239 255
227 239 255
227 239 255
227 239 255
227 239 255
227 239 255
227 239 255
227 239 255
227 239 255
227 239 255
227 239 255
227 239 255
227 239 255
227 239 255
227 239 255
227 239 255
227 239 255
227 239 255
227 239 255
227 239 255
227 239 255
227 239 255
227 239 255
227 239 255
227 239 255
227 239 255
227 239 255
227 239 255
227 239 255
227 239 255
227 239 255
227 239 255
227 239 255
227 239 255
227 239 255
227 239 255
227 239 255
227 239 255
227 239 255
227 239 255
227 239 255
227 239 255
227 239 255
227 239 255
227 239 255
227 239 255
227 239 255
227 239 255
227 239 255
227 239 255
227 239 255
227 239 255
227 239 255
227 239 255
227 239 255
227 239 255
227 239 255
227 239 255
227 239 255
227 239 255
227 239 255
227 239 255
227 239 255
227 239 255
227 239 255
227 239 255
227 239 255
227 239 255
227 239 255
227 239 255
227 239 255
227 239 255
227 239 255
227 239 255
227 239 255
227 239 255
227 239 255
227 239 255
227 239 255
227 239 255
227 239 255
227 239 255
227 239 255
227 239 255
227 239 255
227 239 255
227 239 255
227 239 255
227 239 255
227 239 255
227 239 255
227 239 255
227 239 255
227 239 255
227 239 255
227 239 255
227 239 255
227 239 255
227 239 255
227 239 255
227 239 255
227 239 255
227 239 255
227 239 255
227 239 255
227 239 255
227 239 255
227 239 255
227 239 255
227 239 255
227 239 255
227 239 255
227 239 255
227 239 255
227 239 255
227 239 255
227 239 255
227 239 255
227 239 255
227 239 255
227 239 255
227 239 255
227 239 255
227 239 255
227 239 255
227 239 255
227 239 255
227 239 255
227 239 255
227 239 255
227 239 255
227 239 255
227 239 255
227 239 255
227 239 255
227 239 255
227 239 255
227 239 255
227 239 255
227 239 255
227 239 255
227 239 255
227 239 255
227 239 255
227 239 255
227 239 255
227 239 255
227 239 255
227 239 255
227 239 255
227 239 255
227 239 255
227 239 255
227 239 255
227 239 255
227 239 255
227 239 255
227 239 255
227 239 255
227 239 255
227 239 255
227 239 255
227 239 255
227 239 255
227 239 255
227 239 255
227 239 255
227 239 255
227 239 255
227 239 255
227 239 255
227 239 255
227 239 255
227 239 255
227 239 255
218 229 245
0 0 46
0 11 68
81 88 89
48 59 15
25 49 0
25 49 0
19 43 0
16 40 0
15 39 0
20 42 0
22 45 0
24 46 0
21 43 0
21 44 0
22 44 0
25 47 0
24 44 0
27 47 0
27 47 0
28 49 0
24 45 0
26 48 0
26 49 0
33 55 0
29 52 0
27 50 0
34 57 0
27 50 0
30 51 0
28 51 0
36 54 11
34 60 8
37 61 0
42 66 0
34 63 0
38 65 2
32 62 22
23 60 75
0 6 58
0 0 48
0 0 42
0 0 42
0 0 41
0 0 42
0 0 41
0 0 40
0 0 42
0 0 42
0 0 42
0 0 42
0 0 42
0 0 42
0 0 42
0 0 42
0 0 42
0 0 42
0 0 42
0 0 42
0 0 42
0 0 42
0 0 42
0 0 42
0 0 42
0 0 42
0 0 42
0 0 42
0 0 42
0 0 42
0 0 42
0 0 42
0 0 42
0 0 42
0 0 42
0 0 42
0 0 42
0 0 42
0 0 42
0 0 42
0 0 42
0 0 42
0 0 42
0 0 42
0 0 42
0 0 42
0 0 42
0 0 42
0 0 42
0 0 42
0 0 42
0 0 42
0 0 42
0 0 42
0 0 42
0 0 42
0 0 42
0 0 42
0 0 42
0 0 44
0 0 45
0 0 43
0 0 42
0 0 44
0 0 44
0 0 42
0 0 44
0 0 45
0 0 44
0 0 42
0 0 44
0 0 45
0 0 45
0 0 45
0 0 45
0 0 45
0 0 45
0 0 45
0 0 45
0 0 43
0 0 42
0 0 45
0 0 45
0 0 45
0 0 45
0 0 45
0 0 45
0 0 45
0 0 45
0 0 45
0 0 45
0 0 46
0 0 45
0 0 45
0 0 45
0 0 47
20 34 56
41 62 19
34 49 11
42 56 2
40 53 0
29 47 0
29 48 0
31 47 0
37 53 2
67 76 31
67 79 30
46 61 9
40 56 9
31 51 4
28 48 0
29 47 0
23 42 0
26 45 0
26 44 0
24 44 0
24 44 0
23 44 0
24 45 0
23 45 0
23 44 0
24 43 0
26 45 0
23 42 0
17 40 0
12 35 0
45 55 18
50 61 14
60 66 17
55 64 14
72 76 37
90 88 55
118 108 75
107 98 58
88 82 41
92 78 46
89 78 41
80 76 38
18 23 39
0 0 42
0 0 41
0 0 44
0 0 45
0 0 42
0 0 42
0 0 41
0 0 42
0 0 45
0 0 45
0 0 42
215 226 241
227 239 255
227 239 255
227 239 255
227 239 255
227 239 255
227 239 255
227 239 255
227 239 255
227 239 255
227 239 255
227 239 255
227 239 255
227 239 255
227 239 255
227 239 255
227 239 255
227 239 255
227 239 255
227 239 255
227 239 255
227 239 255
227 239 255
227 239 255
227 239 255
227 239 255
227 239 255
227 239 255
227 239 255
227 239 255
227 239 255
227 239 255
227 239 255
227 239 255
227 239 255
227 239 255
227 239 255
227 239 255
227 239 255
227 239 255
227 239 255
227 239 255
227 239 255
227 239 255
227 239 255
227 239 255
227 239 255
227 239 255
227 239 255
227 239 255
227 239 255
227 239 255
227 239 255
227 239 255
227 239 255
227 239 255
227 239 255
227 239 255
227 239 255
227 239 255
227 239 255
227 239 255
227 239 255
227 239 255
227 239 255
227 239 255
227 239 255
227 239 255
227 239 255
227 239 255
227 239 255
227 239 255
227 239 255
227 239 255
227 239 255
227 239 255
227 239 255
227 239 255
227 239 255
227 239 255
227 239 255
227 239 255
227 239 255
227 239 255
227 239 255
227 239 255
227 239 255
227 239 255
227 239 255
227 239 255
227 239 255
227 239 255
227 239 255
227 239 255
227 239 255
227 239 255
227 239 255
227 239 255
227 239 255
227 239 255
227 239 255
227 239 255
227 239 255
227 239 255
227 239 255
227 239 255
227 239 255
227 239 255
227 239 255
227 239 255
227 239 255
227 239 255
227 239 255
227 239 255
227 239 255
227 239 255
227 239 255
227 239 255
227 239 255
227 239 255
227 239 255
227 239 255
227 239 255
227 239 255
227 239 255
227 239 255
227 239 255
227 239 255
227 239 255
227 239 255
227 239 255
227 239 255
227 239 255
227 239 255
227 239 255
227 239 255
227 239 255
227 239 255
227 239 255
227 239 255
227 239 255
227 239 255
227 239 255
227 239 255
227 239 255
227 239 255
227 239 255
227 239 255
227 239 255
227 239 255
227 239 255
227 239 255
227 239 255
227 239 255
227 239 255
227 239 255
227 239 255
227 239 255
227 239 255
227 239 255
227 239 255
227 239 255
227 239 255
227 239 255
227 239 255
227 239 255
227 239 255
227 239 255
227 239 255
227 239 255
227 239 255
227 239 255
227 239 255
227 239 255
227 239 255
227 239 255
227 239 255
227 239 255
227 239 255
227 239 255
227 239 255
228 239 255
227 239 255
228 239 255
228 239 255
228 239 255
228 239 255
228 239 255
228 239 255
228 239 255
228 239 255
228 239 255
228 239 255
228 239 255
228 239 255
228 239 255
228 239 255
228 239 255
228 239 255
228 239 255
228 239 255
228 239 255
228 239 255
228 239 255
228 239 255
228 239 255
228 239 255
228 239 255
228 239 255
228 239 255
228 239 255
228 239 255
60 63 80
0 10 64
47 50 75
53 58 22
29 52 3
23 47 0
19 44 0
16 40 0
14 39 0
19 42 0
23 47 0
21 44 0
21 45 0
19 43 0
19 42 0
19 44 0
20 43 0
20 42 0
23 43 0
24 45 0
21 43 0
24 47 0
24 46 0
28 49 0
28 50 0
32 52 0
44 66 0
34 58 0
31 54 0
26 51 0
35 55 0
34 58 0
37 60 0
36 59 0
31 54 0
46 65 8
38 62 0
28 66 50
13 59 90
19 42 68
4 7 50
0 0 41
0 0 44
0 0 45
0 0 42
0 0 42
0 0 42
0 0 42
0 0 42
0 0 42
0 0 42
0 0 42
0 0 42
0 0 42
0 0 42
0 0 42
0 0 42
0 0 42
0 0 42
0 0 42
0 0 42
0 0 42
0 0 42
0 0 42
0 0 42
0 0 42
0 0 42
0 0 42
0 0 42
0 0 42
0 0 42
0 0 42
0 0 42
0 0 42
0 0 42
0 0 42
0 0 42
0 0 42
0 0 42
0 0 42
0 0 42
0 0 42
0 0 42
0 0 42
0 0 42
0 0 42
0 0 42
0 0 42
0 0 42
0 0 42
0 0 42
0 0 42
0 0 42
0 0 42
0 0 42
0 0 42
0 0 42
0 0 42
0 0 43
0 0 42
0 0 42
0 0 43
0 0 42
0 0 42
0 0 44
0 0 45
0 0 44
0 0 42
0 0 42
0 0 42
0 0 42
0 0 42
0 0 42
0 0 42
0 0 42
0 0 44
0 0 44
0 0 42
0 0 43
0 0 45
0 0 45
0 0 45
0 0 45
0 0 45
0 0 45
0 0 45
0 0 45
0 0 45
0 0 45
0 0 45
0 0 45
0 0 45
0 0 45
0 0 45
4 6 45
34 49 25
31 47 4
31 50 0
31 50 0
35 52 0
31 47 0
30 44 0
36 50 2
58 67 22
61 75 26
52 68 23
53 69 22
35 53 5
36 52 0
34 49 0
25 45 0
25 46 0
28 46 0
24 44 0
24 43 0
22 42 0
20 42 0
23 44 0
24 44 0
27 46 0
30 49 0
20 41 0
18 38 0
17 37 0
34 46 8
54 62 27
60 65 14
48 61 3
69 72 35
106 96 65
112 98 64
95 85 46
81 76 37
75 70 31
75 73 38
42 50 28
0 0 44
0 0 40
0 0 41
0 0 43
0 0 44
0 0 42
0 0 42
0 0 42
0 0 44
0 0 45
0 0 44
45 47 66
228 239 255
228 239 255
228 239 255
228 239 255
228 239 255
228 239 255
228 239 255
228 239 255
228 239 255
228 239 255
228 239 255
228 239 255
228 239 255
228 239 255
228 239 255
228 239 255
228 239 255
228 239 255
228 239 255
228 239 255
228 239 255
228 239 255
228 239 255
228 239 255
228 239 255
228 239 255
228 239 255
228 239 255
228 239 255
228 239 255
227 239 255
227 239 255
227 239 255
227 239 255
227 239 255
227 239 255
227 239 255
227 239 255
227 239 255
227 239 255
227 239 255
227 239 255
227 239 255
227 239 255
227 239 255
227 239 255
227 239 255
227 239 255
227 239 255
227 239 255
227 239 255
227 239 255
227 239 255
227 239 255
227 239 255
227 239 255
227 239 255
227 239 255
227 239 255
227 239 255
227 239 255
227 239 255
227 239 255
227 239 255
227 239 255
227 239 255
227 239 255
227 239 255
227 239 255
227 239 255
227 239 255
227 239 255
227 239 255
227 239 255
227 239 255
227 239 255
227 239 255
227 239 255
227 239 255
227 239 255
227 239 255
227 239 255
227 239 255
227 239 255
227 239 255
227 239 255
227 239 255
227 239 255
227 239 255
227 239 255
227 239 255
227 239 255
227 239 255
227 239 255
227 239 255
227 239 255
227 239 255
227 239 255
227 239 255
227 239 255
227 239 255
227 239 255
227 239 255
227 239 255
227 239 255
227 239 255
227 239 255
227 239 255
227 239 255
227 239 255
227 239 255
227 239 255
227 239 255
227 239 255
227 239 255
227 239 255
227 239 255
227 239 255
227 239 255
227 239 255
227 239 255
227 239 255
227 239 255
227 239 255
227 239 255
227 239 255
227 239 255
227 239 255
227 239 255
227 239 255
227 239 255
227 239 255
227 239 255
227 239 255
227 239 255
227 239 255
227 239 255
227 239 255
227 239 255
227 239 255
227 239 255
227 239 255
227 239 255
227 239 255
227 239 255
227 239 255
227 239 255
227 239 255
227 239 255
227 239 255
227 239 255
227 239 255
227 239 255
227 239 255
227 239 255
228 239 255
228 239 255
228 239 255
228 239 255
228 239 255
228 239 255
228 239 255
228 239 255
228 239 255
228 239 255
228 239 255
228 239 255
228 239 255
228 239 255
228 239 255
228 239 255
228 239 255
228 239 255
228 239 255
228 239 255
228 239 255
228 239 255
228 239 255
228 239 255
228 239 255
228 239 255
228 239 255
228 239 255
228 239 255
228 239 255
228 239 255
228 239 255
228 239 255
228 239 255
228 239 255
228 239 255
228 239 255
228 239 255
228 239 255
228 239 255
228 239 255
228 239 255
228 239 255
228 239 255
228 239 255
228 239 255
228 239 255
228 239 255
228 239 255
228 239 255
228 239 255
228 239 255
228 239 255
228 239 255
228 239 255
228 239 255
228 239 255
118 124 138
0 4 55
8 17 74
69 73 42
29 50 3
23 46 0
21 43 0
18 41 0
19 41 0
17 40 0
24 48 0
18 41 0
22 45 0
20 43 0
19 43 0
21 44 0
20 44 0
21 44 0
17 40 0
23 45 0
23 45 0
27 50 0
28 51 0
30 51 0
31 53 0
30 52 0
33 56 0
33 56 0
35 58 0
29 52 0
37 59 6
34 56 0
32 55 0
40 61 0
33 54 0
42 62 3
40 62 5
37 69 31
33 68 34
59 75 40
52 66 53
23 36 52
11 15 48
3 5 52
0 0 50
0 0 42
0 0 42
0 0 42
0 0 42
0 0 42
0 0 42
0 0 42
0 0 42
0 0 42
0 0 42
0 0 42
0 0 42
0 0 42
0 0 42
0 0 42
0 0 42
0 0 42
0 0 42
0 0 42
0 0 42
0 0 42
0 0 42
0 0 42
0 0 42
0 0 42
0 0 42
0 0 42
0 0 42
0 0 42
0 0 42
0 0 42
0 0 42
0 0 42
0 0 42
0 0 42
0 0 42
0 0 42
0 0 42
0 0 42
0 0 42
0 0 42
0 0 42
0 0 42
0 0 42
0 0 42
0 0 42
0 0 42
0 0 42
0 0 42
0 0 42
0 0 42
0 0 42
0 0 42
0 0 42
0 0 42
0 0 42
0 0 42
0 0 42
0 0 42
0 0 42
0 0 43
0 0 42
0 0 42
0 0 42
0 0 42
0 0 42
0 0 42
0 0 42
0 0 42
0 0 42
0 0 43
0 0 43
0 0 42
0 0 43
0 0 45
0 0 45
0 0 45
0 0 45
0 0 45
0 0 45
0 0 45
0 0 45
0 0 45
0 0 45
0 0 45
0 0 45
0 0 45
0 0 45
0 0 45
0 0 49
21 30 37
31 48 9
28 44 0
34 49 0
35 50 0
45 58 7
43 56 1
42 57 5
65 74 26
63 73 27
54 66 20
55 66 20
39 52 0
45 59 0
45 59 0
34 48 0
24 45 0
27 46 0
27 44 0
24 42 0
23 43 0
23 44 0
29 49 0
36 53 0
39 52 0
35 53 0
22 43 0
23 43 0
26 41 0
39 53 16
48 53 32
53 60 11
47 60 10
64 67 31
92 84 53
97 88 51
91 86 47
80 77 39
68 67 27
56 68 17
24 42 33
0 0 44
0 0 40
0 0 42
0 0 42
0 0 42
0 0 42
0 0 42
0 0 44
0 0 44
0 0 45
0 0 45
109 114 128
228 239 255
228 239 255
228 239 255
228 239 255
228 239 255
228 239 255
228 239 255
228 239 255
228 239 255
228 239 255
228 239 255
228 239 255
228 239 255
228 239 255
228 239 255
228 239 255
228 239 255
228 239 255
228 239 255
228 239 255
228 239 255
228 239 255
228 239 255
228 239 255
228 239 255
228 239 255
228 239 255
228 239 255
228 239 255
228 239 255
228 239 255
228 239 255
228 239 255
228 239 255
228 239 255
228 239 255
228 239 255
228 239 255
228 239 255
228 239 255
228 239 255
228 239 255
228 239 255
228 239 255
228 239 255
228 239 255
228 239 255
228 239 255
228 239 255
228 239 255
228 239 255
228 239 255
228 239 255
228 239 255
228 239 255
228 239 255
228 239 255
227 239 255
227 239 255
227 239 255
227 239 255
227 239 255
227 239 255
227 239 255
227 239 255
227 239 255
227 239 255
227 239 255
227 239 255
227 239 255
227 239 255
227 239 255
227 239 255
227 239 255
227 239 255
227 239 255
227 239 255
227 239 255
227 239 255
227 239 255
227 239 255
227 239 255
227 239 255
227 239 255
227 239 255
227 239 255
227 239 255
227 239 255
227 239 255
227 239 255
227 239 255
227 239 255
227 239 255
227 239 255
227 239 255
227 239 255
227 239 255
227 239 255
227 239 255
227 239 255
227 239 255
227 239 255
227 239 255
227 239 255
227 239 255
227 239 255
227 239 255
227 239 255
227 239 255
227 239 255
227 239 255
227 239 255
227 239 255
227 239 255
227 239 255
227 239 255
227 239 255
227 239 255
227 239 255
227 239 255
227 239 255
227 239 255
227 239 255
227 239 255
227 239 255
227 239 255
227 239 255
227 239 255
227 239 255
227 239 255
227 239 255
228 239 255
228 239 255
228 239 255
228 239 255
228 239 255
228 239 255
228 239 255
228 239 255
228 239 255
228 239 255
228 239 255
228 239 255
228 239 255
228 239 255
228 239 255
228 239 255
228 239 255
228 239 255
228 239 255
228 239 255
228 239 255
228 239 255
228 239 255
228 239 255
228 239 255
228 239 255
228 239 255
228 239 255
228 239 255
228 239 255
228 239 255
228 239 255
228 239 255
228 239 255
228 239 255
228 239 255
228 239 255
228 239 255
228 239 255
228 239 255
228 239 255
228 239 255
228 239 255
228 239 255
228 239 255
228 239 255
228 239 255
228 239 255
228 239 255
228 239 255
228 239 255
228 239 255
228 239 255
228 239 255
228 239 255
228 239 255
228 239 255
228 239 255
228 239 255
228 239 255
228 239 255
228 239 255
228 239 255
228 239 255
228 239 255
228 239 255
228 239 255
228 239 255
228 239 255
228 239 255
228 239 255
228 239 255
228 239 255
228 239 255
228 239 255
228 239 255
228 239 255
228 239 255
228 239 255
228 239 255
228 239 255
153 160 174
0 0 49
0 11 72
62 66 68
38 48 9
23 46 0
21 44 0
18 41 0
19 43 0
19 42 0
22 44 0
17 40 0
21 44 0
20 44 0
21 44 0
22 44 0
24 44 0
23 44 0
20 41 0
25 47 0
23 45 0
24 48 0
27 51 0
29 51 0
25 47 0
27 49 0
30 52 0
29 53 0
31 55 0
34 58 0
32 51 10
35 56 0
30 52 0
36 57 0
31 52 0
43 64 0
40 60 0
32 59 3
32 54 0
40 57 0
44 62 7
42 63 6
43 63 21
44 65 18
48 65 28
34 42 43
7 10 41
0 0 39
0 0 38
0 0 42
0 0 41
0 0 42
0 0 41
0 0 42
0 0 42
0 0 42
0 0 42
0 0 42
0 0 42
0 0 42
0 0 42
0 0 42
0 0 42
0 0 42
0 0 42
0 0 42
0 0 42
0 0 42
0 0 42
0 0 42
0 0 42
0 0 42
0 0 42
0 0 42
0 0 42
0 0 42
0 0 42
0 0 42
0 0 42
0 0 42
0 0 42
0 0 42
0 0 42
0 0 42
0 0 42
0 0 42
0 0 42
0 0 42
0 0 42
0 0 42
0 0 42
0 0 42
0 0 42
0 0 42
0 0 42
0 0 42
0 0 42
0 0 42
0 0 42
0 0 42
0 0 42
0 0 42
0 0 42
0 0 42
0 0 42
0 0 42
0 0 42
0 0 42
0 0 42
0 0 42
0 0 42
0 0 42
0 0 42
0 0 42
0 0 42
0 0 44
0 0 45
0 0 44
0 0 44
0 0 45
0 0 45
0 0 45
0 0 45
0 0 45
0 0 45
0 0 45
0 0 45
0 0 45
0 0 45
0 0 44
0 0 45
0 0 45
0 0 45
0 0 44
0 0 45
2 3 45
28 40 41
41 54 7
42 51 4
46 59 7
54 57 9
42 62 10
46 60 9
52 64 15
59 70 19
60 68 23
50 60 14
41 54 0
48 62 11
50 61 8
47 61 12
26 45 0
25 46 0
28 47 0
28 47 0
30 49 0
26 45 0
30 50 0
46 60 14
47 56 14
31 49 0
36 53 0
37 51 0
41 55 8
38 50 22
41 45 39
54 63 16
55 63 19
69 71 36
79 76 43
72 71 34
72 70 31
77 71 32
53 61 22
40 58 11
10 20 41
0 0 41
0 0 42
0 0 42
0 0 42
0 0 42
0 0 42
0 0 44
0 0 45
0 0 44
0 0 45
0 0 45
158 166 180
228 239 255
228 239 255
228 239 255
228 239 255
228 239 255
228 239 255
228 239 255
228 239 255
228 239 255
228 239 255
228 239 255
228 239 255
228 239 255
228 239 255
228 239 255
228 239 255
228 239 255
228 239 255
228 239 255
228 239 255
228 239 255
228 239 255
228 239 255
228 239 255
228 239 255
228 239 255
228 239 255
228 239 255
228 239 255
228 239 255
228 239 255
228 239 255
228 239 255
228 239 255
228 239 255
228 239 255
228 239 255
228 239 255
228 239 255
228 239 255
228 239 255
228 239 255
228 239 255
228 239 255
228 239 255
228 239 255
228 239 255
228 239 255
228 239 255
228 239 255
228 239 255
228 239 255
228 239 255
228 239 255
228 239 255
228 239 255
228 239 255
228 239 255
228 239 255
228 239 255
228 239 255
228 239 255
228 239 255
228 239 255
228 239 255
228 239 255
228 239 255
228 239 255
228 239 255
228 239 255
228 239 255
228 239 255
228 239 255
228 239 255
228 239 255
228 239 255
228 239 255
228 239 255
228 239 255
228 239 255
227 239 255
227 239 255
227 239 255
227 239 255
227 239 255
227 239 255
227 239 255
227 239 255
227 239 255
227 239 255
227 239 255
227 239 255
227 239 255
227 239 255
227 239 255
227 239 255
227 239 255
227 239 255
227 239 255
227 239 255
227 239 255
227 239 255
227 239 255
227 239 255
227 239 255
227 239 255
227 239 255
227 239 255
227 239 255
227 239 255
228 239 255
227 239 255
228 239 255
228 239 255
228 239 255
228 239 255
228 239 255
228 239 255
228 239 255
228 239 255
228 239 255
228 239 255
228 239 255
228 239 255
228 239 255
228 239 255
228 239 255
228 239 255
228 239 255
228 239 255
228 239 255
228 239 255
228 239 255
228 239 255
228 239 255
228 239 255
228 239 255
228 239 255
228 239 255
228 239 255
228 239 255
228 239 255
228 239 255
228 239 255
228 239 255
228 239 255
228 239 255
228 239 255
228 239 255
228 239 255
228 239 255
228 239 255
228 239 255
228 239 255
228 239 255
228 239 255
228 239 255
228 239 255
228 239 255
228 239 255
228 239 255
228 239 255
228 239 255
228 239 255
228 239 255
228 239 255
228 239 255
228 239 255
228 239 255
228 239 255
228 239 255
228 239 255
228 239 255
228 239 255
228 239 255
228 239 255
228 239 255
228 239 255
228 239 255
228 239 255
228 239 255
228 239 255
228 239 255
228 239 255
228 239 255
228 239 255
228 239 255
228 239 255
228 239 255
228 239 255
228 239 255
228 239 255
228 239 255
228 239 255
228 239 255
228 239 255
228 239 255
228 239 255
228 239 255
228 239 255
228 239 255
228 239 255
228 239 255
228 239 255
228 239 255
228 239 255
228 239 255
228 239 255
228 239 255
228 239 255
228 239 255
228 239 255
192 201 217
0 0 49
0 3 65
66 70 91
56 59 25
25 48 0
25 48 0
20 42 0
20 43 0
20 42 0
18 40 0
17 38 0
22 46 0
20 43 0
17 41 0
24 46 0
27 47 0
20 44 0
19 43 0
24 46 0
20 43 0
19 43 0
23 45 0
28 50 0
28 50 0
28 49 0
27 49 0
27 51 0
28 53 0
29 54 0
25 42 2
41 63 9
37 58 0
43 62 0
36 57 3
44 66 7
46 65 9
37 59 2
35 55 0
35 54 0
36 55 0
41 59 11
41 59 0
45 66 5
54 76 14
53 72 16
35 48 38
7 11 47
0 0 43
0 0 38
0 0 44
0 0 45
0 0 40
0 0 42
0 0 42
0 0 41
0 0 42
0 0 42
0 0 42
0 0 42
0 0 42
0 0 42
0 0 42
0 0 42
0 0 42
0 0 42
0 0 42
0 0 42
0 0 42
0 0 42
0 0 42
0 0 42
0 0 42
0 0 42
0 0 42
0 0 42
0 0 42
0 0 42
0 0 42
0 0 42
0 0 42
0 0 42
0 0 42
0 0 42
0 0 42
0 0 42
0 0 42
0 0 42
0 0 42
0 0 42
0 0 42
0 0 42
0 0 42
0 0 42
0 0 42
0 0 42
0 0 42
0 0 42
0 0 42
0 0 42
0 0 42
0 0 42
0 0 42
0 0 42
0 0 42
0 0 42
0 0 42
0 0 42
0 0 42
0 0 42
0 0 42
0 0 42
0 0 42
0 0 42
0 0 43
0 0 45
0 0 45
0 0 45
0 0 45
0 0 45
0 0 45
0 0 45
0 0 45
0 0 43
0 0 44
0 0 45
0 0 45
0 0 45
0 0 44
0 0 45
0 0 45
0 0 44
0 0 43
0 0 43
0 0 45
0 0 43
6 8 53
26 36 43
56 70 22
51 62 11
60 66 22
50 60 2
46 60 11
48 60 7
59 70 22
58 67 24
46 58 14
40 55 9
46 60 13
52 64 13
49 61 8
39 54 0
30 50 0
26 46 0
28 48 0
29 47 0
21 44 0
20 40 0
40 54 15
50 58 19
44 55 12
47 58 10
40 53 0
38 51 0
34 41 27
32 41 35
54 61 15
56 60 19
59 63 28
63 65 30
67 66 26
98 86 43
99 84 49
55 66 19
43 62 5
15 25 40
0 0 42
0 0 40
0 0 42
0 0 42
0 0 42
0 0 43
0 0 45
0 0 45
0 0 45
0 0 45
0 0 45
193 203 218
228 239 255
228 239 255
228 239 255
228 239 255
228 239 255
228 239 255
228 239 255
228 239 255
228 239 255
228 239 255
228 239 255
228 239 255
228 239 255
228 239 255
228 239 255
228 239 255
228 239 255
228 239 255
228 239 255
228 239 255
228 239 255
228 239 255
228 239 255
228 239 255
228 239 255
228 239 255
228 239 255
228 239 255
228 239 255
228 239 255
228 239 255
228 239 255
228 239 255
228 239 255
228 239 255
228 239 255
228 239 255
228 239 255
228 239 255
228 239 255
228 239 255
228 239 255
228 239 255
228 239 255
228 239 255
228 239 255
228 239 255
228 239 255
228 239 255
228 239 255
228 239 255
228 239 255
228 239 255
228 239 255
228 239 255
228 239 255
228 239 255
228 239 255
228 239 255
228 239 255
228 239 255
228 239 255
228 239 255
228 239 255
228 239 255
228 239 255
228 239 255
228 239 255
228 239 255
228 239 255
228 239 255
228 239 255
228 239 255
228 239 255
228 239 255
228 239 255
228 239 255
228 239 255
228 239 255
228 239 255
228 239 255
228 239 255
228 239 255
228 239 255
228 239 255
228 239 255
228 239 255
228 239 255
228 239 255
228 239 255
228 239 255
228 239 255
228 239 255
228 239 255
228 239 255
228 239 255
228 239 255
228 239 255
228 239 255
228 239 255
227 239 255
227 239 255
227 239 255
227 239 255
227 239 255
227 239 255
228 239 255
228 239 255
228 239 255
228 239 255
228 239 255
228 239 255
228 239 255
228 239 255
228 239 255
228 239 255
228 239 255
228 239 255
228 239 255
228 239 255
228 239 255
228 239 255
228 239 255
228 239 255
228 239 255
228 239 255
228 239 255
228 239 255
228 239 255
228 239 255
228 239 255
228 239 255
228 239 255
228 239 255
228 239 255
228 239 255
228 239 255
228 239 255
228 239 255
228 239 255
228 239 255
228 239 255
228 239 255
228 239 255
228 239 255
228 239 255
228 239 255
228 239 255
228 239 255
228 239 255
228 239 255
228 239 255
228 239 255
228 239 255
228 239 255
228 239 255
228 239 255
228 239 255
228 239 255
228 239 255
228 239 255
228 239 255
228 239 255
228 239 255
228 239 255
228 239 255
228 239 255
228 239 255
228 239 255
228 239 255
228 239 255
228 239 255
228 239 255
228 239 255
228 239 255
228 239 255
228 239 255
228 239 255
228 239 255
228 239 255
228 239 255
228 239 255
228 239 255
228 239 255
228 239 255
228 239 255
228 239 255
228 239 255
228 239 255
228 239 255
228 239 255
228 239 255
228 239 255
228 239 255
228 239 255
228 239 255
228 239 255
228 239 255
228 239 255
228 239 255
228 239 255
228 239 255
228 239 255
228 239 255
228 239 255
228 239 255
228 239 255
228 239 255
228 239 255
228 239 255
228 239 255
228 239 255
221 232 248
0 0 47
0 0 62
26 46 94
82 77 49
34 53 0
25 49 0
22 45 0
23 46 0
21 43 0
19 40 0
17 38 0
23 46 0
22 45 0
17 41 0
24 46 0
24 45 0
21 44 0
18 42 0
24 45 0
19 41 0
19 42 0
22 45 0
26 48 0
24 46 0
26 48 0
24 47 0
28 51 0
29 54 0
30 54 5
37 58 7
41 61 2
44 64 0
52 72 12
41 61 10
36 56 5
42 61 7
42 61 2
35 55 0
34 54 0
35 54 2
44 62 7
45 61 8
50 68 19
50 69 19
48 67 11
49 69 8
39 52 32
7 10 44
0 0 42
0 0 39
0 0 43
0 0 40
0 0 42
0 0 44
0 0 41
0 0 42
0 0 42
0 0 42
0 0 42
0 0 42
0 0 42
0 0 42
0 0 42
0 0 42
0 0 42
0 0 42
0 0 42
0 0 42
0 0 42
0 0 42
0 0 42
0 0 42
0 0 42
0 0 42
0 0 42
0 0 42
0 0 42
0 0 42
0 0 42
0 0 42
0 0 42
0 0 42
0 0 42
0 0 42
0 0 42
0 0 42
0 0 42
0 0 42
0 0 42
0 0 42
0 0 42
0 0 42
0 0 42
0 0 42
0 0 42
0 0 42
0 0 42
0 0 42
0 0 42
0 0 42
0 0 42
0 0 42
0 0 42
0 0 42
0 0 42
0 0 42
0 0 42
0 0 42
0 0 42
0 0 42
0 0 43
0 0 45
0 0 45
0 0 45
0 0 45
0 0 45
0 0 45
0 0 45
0 0 45
0 0 45
0 0 45
0 0 44
0 0 43
0 0 45
0 0 45
0 0 46
0 0 46
0 0 45
0 0 46
0 0 47
0 0 45
0 0 46
0 0 48
0 0 48
0 0 50
0 0 52
0 7 63
50 64 59
57 70 30
49 62 15
59 62 13
51 64 14
56 65 17
55 64 19
59 70 26
47 61 18
45 63 17
45 59 5
52 64 10
50 61 7
49 61 8
34 52 0
29 48 0
28 48 0
27 48 0
24 44 0
22 41 0
43 54 14
52 56 20
55 62 24
52 60 16
49 60 11
48 57 12
39 48 25
32 42 37
52 63 20
55 61 22
65 66 31
67 65 31
70 65 28
88 79 39
89 79 45
51 66 18
46 61 11
28 42 37
0 0 41
0 0 41
0 0 42
0 0 42
0 0 42
0 0 45
0 0 45
0 0 45
0 0 45
0 0 45
0 0 45
218 229 245
228 239 255
228 239 255
228 239 255
228 239 255
228 239 255
228 239 255
228 239 255
228 239 255
228 239 255
228 239 255
228 239 255
228 239 255
228 239 255
228 239 255
228 239 255
228 239 255
228 239 255
228 239 255
228 239 255
228 239 255
228 239 255
228 239 255
228 239 255
228 239 255
228 239 255
228 239 255
228 239 255
228 239 255
228 239 255
228 239 255
228 239 255
228 239 255
228 239 255
228 239 255
228 239 255
228 239 255
228 239 255
228 239 255
228 239 255
228 239 255
228 239 255
228 239 255
228 239 255
228 239 255
228 239 255
228 239 255
228 239 255
228 239 255
228 239 255
228 239 255
228 239 255
228 239 255
228 239 255
228 239 255
228 239 255
228 239 255
228 239 255
228 239 255
228 239 255
228 239 255
228 239 255
228 239 255
228 239 255
228 239 255
228 239 255
228 239 255
228 239 255
228 239 255
228 239 255
228 239 255
228 239 255
228 239 255
228 239 255
228 239 255
228 239 255
228 239 255
228 239 255
228 239 255
228 239 255
228 239 255
228 239 255
228 239 255
228 239 255
228 239 255
228 239 255
228 239 255
228 239 255
228 239 255
228 239 255
228 239 255
228 239 255
228 239 255
228 239 255
228 239 255
228 239 255
228 239 255
228 239 255
228 239 255
228 239 255
228 239 255
228 239 255
228 239 255
228 239 255
228 239 255
228 239 255
228 239 255
228 239 255
228 239 255
228 239 255
228 239 255
228 239 255
228 239 255
228 239 255
228 239 255
228 239 255
228 239 255
228 239 255
228 239 255
228 239 255
228 239 255
228 239 255
228 239 255
228 239 255
228 239 255
228 239 255
228 239 255
228 239 255
228 239 255
228 239 255
228 239 255
228 239 255
228 239 255
228 239 255
228 239 255
228 239 255
228 239 255
228 239 255
228 239 255
228 239 255
228 239 255
228 239 255
228 239 255
228 239 255
228 239 255
228 239 255
228 239 255
228 239 255
228 239 255
228 239 255
228 239 255
228 239 255
228 239 255
228 239 255
228 239 255
228 239 255
228 239 255
228 239 255
228 239 255
228 239 255
228 239 255
228 239 255
228 239 255
228 239 255
228 239 255
228 239 255
228 239 255
228 239 255
228 239 255
228 239 255
228 239 255
228 239 255
228 239 255
228 239 255
228 239 255
228 239 255
228 239 255
228 239 255
228 239 255
228 239 255
228 239 255
228 239 255
228 239 255
228 239 255
228 239 255
228 239 255
228 239 255
228 239 255
228 239 255
228 239 255
228 239 255
228 239 255
228 239 255
228 239 255
228 239 255
228 239 255
228 239 255
228 239 255
228 239 255
228 239 255
228 239 255
228 239 255
228 239 255
228 239 255
228 239 255
228 239 255
228 239 255
228 239 255
228 239 255
228 239 255
228 239 255
228 239 255
228 239 255
228 239 255
94 98 113
0 3 59
0 20 76
76 75 67
36 53 10
24 47 0
24 45 0
24 46 0
23 44 0
22 42 0
20 42 0
23 46 0
20 44 0
20 44 0
21 43 0
20 44 0
20 43 0
19 40 0
24 47 0
21 44 0
19 42 0
22 46 0
24 48 0
24 46 0
25 50 0
26 51 0
28 52 0
28 51 0
31 53 7
39 62 3
43 65 8
44 65 0
49 67 9
42 60 8
36 55 0
41 60 0
39 59 0
36 56 0
39 59 0
45 59 5
50 64 15
43 55 14
50 62 19
54 69 16
54 70 18
51 69 17
58 74 21
46 57 42
15 18 50
0 0 41
0 0 44
0 0 43
0 0 40
0 0 43
0 0 45
0 0 42
0 0 42
0 0 42
0 0 42
0 0 42
0 0 42
0 0 42
0 0 42
0 0 42
0 0 42
0 0 42
0 0 42
0 0 42
0 0 42
0 0 42
0 0 42
0 0 42
0 0 42
0 0 42
0 0 42
0 0 42
0 0 42
0 0 42
0 0 42
0 0 42
0 0 42
0 0 42
0 0 42
0 0 42
0 0 42
0 0 42
0 0 42
0 0 42
0 0 42
0 0 42
0 0 42
0 0 42
0 0 42
0 0 42
0 0 42
0 0 42
0 0 42
0 0 42
0 0 42
0 0 42
0 0 42
0 0 42
0 0 42
0 0 42
0 0 42
0 0 42
0 0 42
0 0 42
0 0 42
0 0 42
0 0 42
0 0 45
0 0 45
0 0 45
0 0 45
0 0 45
0 0 45
0 0 45
0 0 45
0 0 45
0 0 45
0 0 45
0 0 45
0 0 45
0 0 45
0 0 47
0 0 48
0 0 47
0 0 47
0 0 48
0 0 50
0 0 53
0 0 59
0 0 58
0 0 59
0 0 58
0 4 69
10 24 72
45 58 45
53 69 18
56 66 15
51 61 20
57 65 24
54 63 20
50 61 17
51 66 19
43 57 10
47 59 6
50 61 7
50 60 13
57 68 24
45 56 10
37 53 6
30 49 0
33 52 0
38 52 7
33 47 5
47 56 16
56 59 24
59 60 23
54 61 15
51 61 15
51 57 14
47 55 29
30 43 38
54 61 15
58 61 20
61 64 32
72 69 34
75 73 33
85 74 37
73 68 31
46 62 8
48 62 12
18 28 48
0 0 42
0 0 44
0 0 42
0 0 42
0 0 44
0 0 45
0 0 45
0 0 45
0 0 45
0 0 45
91 95 110
228 239 255
228 239 255
228 239 255
228 239 255
228 239 255
228 239 255
228 239 255
228 239 255
228 239 255
228 239 255
228 239 255
228 239 255
228 239 255
228 239 255
228 239 255
228 239 255
228 239 255
228 239 255
228 239 255
228 239 255
228 239 255
228 239 255
228 239 255
228 239 255
228 239 255
228 239 255
228 239 255
228 239 255
228 239 255
228 239 255
228 239 255
228 239 255
228 239 255
228 239 255
228 239 255
228 239 255
228 239 255
228 239 255
228 239 255
228 239 255
228 239 255
228 239 255
228 239 255
228 239 255
228 239 255
228 239 255
228 239 255
228 239 255
228 239 255
228 239 255
228 239 255
228 239 255
228 239 255
228 239 255
228 239 255
228 239 255
228 239 255
228 239 255
228 239 255
228 239 255
228 239 255
228 239 255
228 239 255
228 239 255
228 239 255
228 239 255
228 239 255
228 239 255
228 239 255
228 239 255
228 239 255
228 239 255
228 239 255
228 239 255
228 239 255
228 239 255
228 239 255
228 239 255
228 239 255
228 239 255
228 239 255
228 239 255
228 239 255
228 239 255
228 239 255
228 239 255
228 239 255
228 239 255
228 239 255
228 239 255
228 239 255
228 239 255
228 239 255
228 239 255
228 239 255
228 239 255
228 239 255
228 239 255
228 239 255
228 239 255
228 239 255
228 239 255
228 239 255
228 239 255
228 239 255
228 239 255
228 239 255
228 239 255
228 239 255
228 239 255
228 239 255
228 239 255
228 239 255
228 239 255
228 239 255
228 239 255
228 239 255
228 239 255
228 239 255
228 239 255
228 239 255
228 239 255
228 239 255
228 239 255
228 239 255
228 239 255
228 239 255
228 239 255
228 239 255
228 239 255
228 239 255
228 239 255
228 239 255
228 239 255
228 239 255
228 239 255
228 239 255
228 239 255
228 239 255
228 239 255
228 239 255
228 239 255
228 239 255
228 239 255
228 239 255
228 239 255
228 239 255
228 239 255
228 239 255
228 239 255
228 239 255
228 239 255
228 239 255
228 239 255
228 239 255
228 239 255
228 239 255
228 239 255
228 239 255
228 239 255
228 239 255
228 239 255
228 239 255
228 239 255
228 239 255
228 239 255
228 239 255
228 239 255
228 239 255
228 239 255
228 239 255
228 239 255
228 239 255
228 239 255
228 239 255
228 239 255
228 239 255
228 239 255
228 239 255
228 239 255
228 239 255
228 239 255
228 239 255
228 239 255
228 239 255
228 239 255
228 239 255
228 239 255
228 239 255
228 239 255
228 239 255
228 239 255
228 239 255
228 239 255
228 239 255
228 239 255
228 239 255
228 239 255
228 239 255
228 239 255
228 239 255
228 239 255
228 239 255
228 239 255
228 239 255
228 239 255
228 239 255
228 239 255
228 239 255
228 239 255
228 239 255
228 239 255
228 239 255
228 239 255
156 164 178
0 2 56
0 8 65
68 65 84
62 64 29
23 45 0
25 46 0
24 45 0
21 44 0
21 44 0
27 48 0
25 47 0
21 44 0
23 44 0
24 45 0
21 42 0
19 43 0
19 41 0
20 43 0
25 48 0
21 44 0
25 48 0
26 51 0
24 47 0
26 51 0
26 51 0
37 61 4
38 62 10
27 50 0
44 65 0
47 72 8
46 65 0
50 63 11
48 64 11
46 60 6
43 53 3
43 57 0
37 58 0
37 55 0
46 59 9
53 67 15
48 60 14
54 65 18
60 70 20
59 71 19
61 72 25
73 82 29
75 84 37
64 72 46
37 38 53
22 23 42
12 14 43
0 0 39
0 0 41
0 0 45
0 0 42
0 0 42
0 0 42
0 0 42
0 0 42
0 0 42
0 0 42
0 0 42
0 0 42
0 0 42
0 0 42
0 0 42
0 0 42
0 0 42
0 0 42
0 0 42
0 0 42
0 0 42
0 0 42
0 0 42
0 0 42
0 0 42
0 0 42
0 0 42
0 0 42
0 0 42
0 0 42
0 0 42
0 0 42
0 0 42
0 0 42
0 0 42
0 0 42
0 0 42
0 0 42
0 0 42
0 0 42
0 0 42
0 0 42
0 0 42
0 0 42
0 0 42
0 0 42
0 0 42
0 0 42
0 0 42
0 0 42
0 0 42
0 0 42
0 0 42
0 0 42
0 0 42
0 0 42
0 0 42
0 0 42
0 0 42
0 0 42
0 0 44
0 0 44
0 0 43
0 0 43
0 0 43
0 0 44
0 0 45
0 0 45
0 0 45
0 0 45
0 0 45
0 0 47
0 0 48
0 0 48
0 0 50
0 0 49
0 0 51
0 0 53
0 0 56
0 0 57
0 0 60
0 0 62
0 0 61
0 0 68
0 12 70
0 10 73
30 55 74
62 81 36
59 71 16
50 63 16
57 65 24
54 65 21
51 64 17
46 60 14
41 54 0
52 63 15
56 64 19
58 64 24
66 72 32
55 61 18
41 54 8
32 48 0
42 57 6
52 65 18
58 70 26
51 58 21
63 65 33
57 60 22
51 59 11
48 61 8
44 56 6
44 51 23
22 30 49
56 61 29
56 64 23
59 66 28
66 64 26
73 71 32
79 77 39
47 57 13
49 64 11
45 60 15
9 14 46
0 0 42
0 0 41
0 0 42
0 0 42
0 0 45
0 0 44
0 0 45
0 0 45
0 0 45
0 0 45
140 147 161
228 239 255
228 239 255
228 239 255
228 239 255
228 239 255
228 239 255
228 239 255
228 239 255
228 239 255
228 239 255
228 239 255
228 239 255
228 239 255
228 239 255
228 239 255
228 239 255
228 239 255
228 239 255
228 239 255
228 239 255
228 239 255
228 239 255
228 239 255
228 239 255
228 239 255
228 239 255
228 239 255
228 239 255
228 239 255
228 239 255
228 239 255
228 239 255
228 239 255
228 239 255
228 239 255
228 239 255
228 239 255
228 239 255
228 239 255
228 239 255
228 239 255
228 239 255
228 239 255
228 239 255
228 239 255
228 239 255
228 239 255
228 239 255
228 239 255
228 239 255
228 239 255
228 239 255
228 239 255
228 239 255
228 239 255
228 239 255
228 239 255
228 239 255
228 239 255
228 239 255
228 239 255
228 239 255
228 239 255
228 239 255
228 239 255
228 239 255
228 239 255
228 239 255
228 239 255
228 239 255
228 239 255
228 239 255
228 239 255
228 239 255
228 239 255
228 239 255
228 239 255
228 239 255
228 239 255
228 239 255
228 239 255
228 239 255
228 239 255
228 239 255
228 239 255
228 239 255
228 239 255
228 239 255
228 239 255
228 239 255
228 239 255
228 239 255
228 239 255
228 239 255
228 239 255
228 239 255
228 239 255
228 239 255
228 239 255
228 239 255
228 239 255
228 239 255
228 239 255
228 239 255
228 239 255
228 239 255
228 239 255
228 239 255
228 239 255
228 239 255
228 239 255
228 239 255
228 239 255
228 239 255
228 239 255
228 239 255
228 239 255
228 239 255
228 239 255
228 239 255
228 239 255
228 239 255
228 239 255
228 239 255
228 239 255
228 239 255
228 239 255
228 239 255
228 239 255
228 239 255
228 239 255
228 239 255
228 239 255
228 239 255
228 239 255
228 239 255
228 239 255
228 239 255
228 239 255
228 239 255
228 239 255
228 239 255
228 239 255
228 239 255
228 239 255
228 239 255
228 239 255
228 239 255
228 239 255
228 239 255
228 239 255
228 239 255
228 239 255
228 239 255
228 239 255
228 239 255
228 239 255
228 239 255
228 239 255
228 239 255
228 239 255
228 239 255
228 239 255
228 239 255
228 239 255
228 239 255
228 239 255
228 239 255
228 239 255
228 239 255
228 239 255
228 239 255
228 239 255
228 239 255
228 239 255
228 239 255
228 239 255
228 239 255
228 239 255
228 239 255
228 239 255
228 239 255
228 239 255
228 239 255
228 239 255
228 239 255
228 239 255
228 239 255
228 239 255
228 239 255
228 239 255
228 239 255
228 239 255
228 239 255
228 239 255
228 239 255
228 239 255
228 239 255
228 239 255
228 239 255
228 239 255
228 239 255
228 239 255
228 239 255
228 239 255
228 239 255
228 239 255
228 239 255
228 239 255
228 239 255
228 239 255
228 239 255
228 239 255
228 239 255
188 197 212
0 0 53
0 0 54
45 50 92
79 76 45
27 46 2
24 45 0
28 47 0
24 46 0
23 46 0
30 52 0
26 46 0
25 46 0
27 48 0
21 43 0
28 48 0
19 41 0
15 40 0
20 43 0
23 46 0
25 48 0
23 46 0
26 50 0
24 46 0
25 49 0
26 50 0
31 55 0
37 62 3
42 64 5
51 74 12
46 70 0
50 68 9
52 64 11
51 63 10
50 62 12
55 62 16
47 56 8
36 54 0
38 55 2
45 56 0
52 61 10
47 59 9
58 70 24
69 75 29
58 70 23
65 76 23
75 82 32
78 80 39
84 85 52
96 97 57
80 82 39
51 56 35
4 4 40
0 0 45
0 0 40
0 0 42
0 0 42
0 0 42
0 0 42
0 0 42
0 0 42
0 0 42
0 0 42
0 0 42
0 0 42
0 0 42
0 0 42
0 0 42
0 0 42
0 0 42
0 0 42
0 0 42
0 0 42
0 0 42
0 0 42
0 0 42
0 0 42
0 0 42
0 0 42
0 0 42
0 0 42
0 0 42
0 0 42
0 0 42
0 0 42
0 0 42
0 0 42
0 0 42
0 0 42
0 0 42
0 0 42
0 0 42
0 0 42
0 0 42
0 0 42
0 0 42
0 0 42
0 0 42
0 0 42
0 0 42
0 0 42
0 0 42
0 0 42
0 0 42
0 0 42
0 0 42
0 0 42
0 0 42
0 0 42
0 0 42
0 0 42
0 0 42
0 0 42
0 0 42
0 0 42
0 0 42
0 0 42
0 0 43
0 0 45
0 0 45
0 0 45
0 0 45
0 0 45
0 0 48
0 0 49
0 0 51
0 0 51
0 0 51
0 0 53
0 0 56
0 0 57
0 0 57
0 0 59
0 0 59
0 0 57
0 0 65
0 6 66
0 7 74
14 51 95
50 68 45
52 67 15
52 66 13
51 63 18
53 65 20
46 55 12
45 56 8
47 57 8
51 60 9
60 67 24
69 72 31
61 62 23
54 60 20
45 55 9
38 49 3
45 55 8
53 64 20
63 71 30
59 62 26
60 60 28
57 61 23
49 61 13
48 60 9
41 55 10
53 60 13
38 46 45
50 59 30
83 90 48
60 64 23
59 62 21
71 69 30
61 63 22
44 61 6
46 60 11
49 60 20
4 8 42
0 0 40
0 0 41
0 0 42
0 0 43
0 0 44
0 0 45
0 0 45
0 0 45
0 0 45
0 0 45
189 199 213
228 239 255
228 239 255
228 239 255
228 239 255
228 239 255
228 239 255
228 239 255
228 239 255
228 239 255
228 239 255
228 239 255
228 239 255
228 239 255
228 239 255
228 239 255
228 239 255
228 239 255
228 239 255
228 239 255
228 239 255
228 239 255
228 239 255
228 239 255
228 239 255
228 239 255
228 239 255
228 239 255
228 239 255
228 239 255
228 239 255
228 239 255
228 239 255
228 239 255
228 239 255
228 239 255
228 239 255
228 239 255
228 239 255
228 239 255
228 239 255
228 239 255
228 239 255
228 239 255
228 239 255
228 239 255
228 239 255
228 239 255
228 239 255
228 239 255
228 239 255
228 239 255
228 239 255
228 239 255
228 239 255
228 239 255
228 239 255
228 239 255
228 239 255
228 239 255
228 239 255
228 239 255
228 239 255
228 239 255
228 239 255
228 239 255
228 239 255
228 239 255
228 239 255
228 239 255
228 239 255
228 239 255
228 239 255
228 239 255
228 239 255
228 239 255
228 239 255
228 239 255
228 239 255
228 239 255
228 239 255
228 239 255
228 239 255
228 239 255
228 239 255
228 239 255
228 239 255
228 239 255
228 239 255
228 239 255
228 239 255
228 239 255
228 239 255
228 239 255
228 239 255
228 239 255
228 239 255
228 239 255
228 239 255
228 239 255
228 239 255
228 239 255
228 239 255
228 239 255
228 239 255
228 239 255
228 239 255
228 239 255
228 239 255
228 239 255
228 239 255
228 239 255
228 239 255
228 239 255
228 239 255
228 239 255
228 239 255
228 239 255
228 239 255
228 239 255
228 239 255
228 239 255
228 239 255
228 239 255
228 239 255
228 239 255
228 239 255
228 239 255
228 239 255
228 239 255
228 239 255
228 239 255
228 239 255
228 239 255
228 239 255
228 239 255
228 239 255
228 239 255
228 239 255
228 239 255
228 239 255
228 239 255
228 239 255
228 239 255
228 239 255
228 239 255
228 239 255
228 239 255
228 239 255
228 239 255
228 239 255
228 239 255
228 239 255
228 239 255
228 239 255
228 239 255
228 239 255
228 239 255
228 239 255
228 239 255
228 239 255
228 239 255
228 239 255
228 239 255
228 239 255
228 239 255
228 239 255
228 239 255
228 239 255
228 239 255
228 239 255
228 239 255
228 239 255
228 239 255
228 239 255
228 239 255
228 239 255
228 239 255
228 239 255
228 239 255
228 239 255
228 239 255
228 239 255
228 239 255
228 239 255
228 239 255
228 239 255
228 239 255
228 239 255
228 239 255
228 239 255
228 239 255
228 239 255
228 239 255
228 239 255
228 239 255
228 239 255
228 239 255
228 239 255
228 239 255
228 239 255
228 239 255
228 239 255
228 239 255
228 239 255
228 239 255
228 239 255
228 239 255
228 239 255
228 239 255
228 239 255
228 239 255
228 239 255
228 239 255
228 239 255
223 235 250
22 23 54
0 0 49
0 20 78
83 82 73
44 53 17
25 45 0
28 48 0
25 46 0
27 49 0
37 59 5
30 51 0
27 48 0
27 48 0
25 45 0
28 47 0
21 42 0
17 40 0
23 45 0
21 45 0
25 48 0
25 49 0
27 51 0
25 47 0
26 50 0
26 49 0
28 52 0
25 50 0
40 63 3
50 72 14
48 70 8
55 71 14
56 66 18
59 69 21
57 66 16
58 64 17
54 60 13
47 58 7
50 59 13
56 63 18
53 62 16
51 60 15
62 67 25
72 70 31
60 69 22
68 76 28
71 77 33
80 82 43
94 90 57
91 85 52
73 72 33
65 77 13
18 22 47
0 0 42
0 0 42
0 0 42
0 0 42
0 0 42
0 0 42
0 0 42
0 0 42
0 0 42
0 0 42
0 0 42
0 0 42
0 0 42
0 0 42
0 0 42
0 0 42
0 0 42
0 0 42
0 0 42
0 0 42
0 0 42
0 0 42
0 0 42
0 0 42
0 0 42
0 0 42
0 0 42
0 0 42
0 0 42
0 0 42
0 0 42
0 0 42
0 0 42
0 0 42
0 0 42
0 0 42
0 0 42
0 0 42
0 0 42
0 0 42
0 0 42
0 0 42
0 0 42
0 0 42
0 0 42
0 0 42
0 0 42
0 0 42
0 0 42
0 0 42
0 0 42
0 0 42
0 0 42
0 0 42
0 0 42
0 0 42
0 0 42
0 0 42
0 0 42
0 0 42
0 0 42
0 0 42
0 0 42
0 0 42
0 0 43
0 0 45
0 0 45
0 0 45
0 0 45
0 0 47
0 0 50
0 0 49
0 0 50
0 0 50
0 0 51
0 0 53
0 0 54
0 0 53
0 0 48
0 0 47
0 0 45
0 0 49
0 0 53
0 0 58
0 0 63
4 25 71
41 65 54
47 62 12
50 63 12
45 56 7
47 57 12
44 53 7
39 49 0
38 49 3
46 56 8
48 55 10
61 64 25
59 60 21
48 53 13
51 56 18
52 57 20
48 54 13
47 54 11
59 62 23
59 60 25
60 61 26
52 59 17
47 60 12
47 59 0
45 56 10
48 55 20
42 48 37
45 49 44
75 77 37
76 78 38
84 80 42
85 74 44
42 56 11
46 60 10
51 61 12
48 59 14
6 10 43
0 0 42
0 0 42
0 0 42
0 0 42
0 0 43
0 0 44
0 0 44
0 0 45
0 0 45
39 41 62
221 232 248
228 239 255
228 239 255
228 239 255
228 239 255
228 239 255
228 239 255
228 239 255
228 239 255
228 239 255
228 239 255
228 239 255
228 239 255
228 239 255
228 239 255
228 239 255
228 239 255
228 239 255
228 239 255
228 239 255
228 239 255
228 239 255
228 239 255
228 239 255
228 239 255
228 239 255
228 239 255
228 239 255
228 239 255
228 239 255
228 239 255
228 239 255
228 239 255
228 239 255
228 239 255
228 239 255
228 239 255
228 239 255
228 239 255
228 239 255
228 239 255
228 239 255
228 239 255
228 239 255
228 239 255
228 239 255
228 239 255
228 239 255
228 239 255
228 239 255
228 239 255
228 239 255
228 239 255
228 239 255
228 239 255
228 239 255
228 239 255
228 239 255
228 239 255
228 239 255
228 239 255
228 239 255
228 239 255
228 239 255
228 239 255
228 239 255
228 239 255
228 239 255
228 239 255
228 239 255
228 239 255
228 239 255
228 239 255
228 239 255
228 239 255
228 239 255
228 239 255
228 239 255
228 239 255
228 239 255
228 239 255
228 239 255
228 239 255
228 239 255
228 239 255
228 239 255
228 239 255
228 239 255
228 239 255
228 239 255
228 239 255
228 239 255
228 239 255
228 239 255
228 239 255
228 239 255
228 239 255
228 239 255
228 239 255
228 239 255
228 239 255
228 239 255
228 239 255
228 239 255
228 239 255
228 239 255
228 239 255
228 239 255
228 239 255
228 239 255
228 239 255
228 239 255
228 239 255
228 239 255
228 239 255
228 239 255
228 239 255
228 239 255
228 239 255
228 239 255
228 239 255
228 239 255
228 239 255
228 239 255
228 239 255
228 239 255
228 239 255
228 239 255
228 239 255
228 239 255
228 239 255
228 239 255
228 239 255
228 239 255
228 239 255
228 239 255
228 239 255
228 239 255
228 239 255
228 239 255
228 239 255
228 239 255
228 239 255
228 239 255
228 239 255
228 239 255
228 239 255
228 239 255
228 239 255
228 239 255
228 239 255
228 239 255
228 239 255
228 239 255
228 239 255
228 239 255
228 239 255
228 239 255
228 239 255
228 239 255
228 239 255
228 239 255
228 239 255
228 239 255
228 239 255
228 239 255
228 239 255
228 239 255
228 239 255
228 239 255
228 239 255
228 239 255
228 239 255
228 239 255
228 239 255
228 239 255
228 239 255
228 239 255
228 239 255
228 239 255
228 239 255
228 239 255
228 239 255
228 239 255
228 239 255
228 239 255
228 239 255
228 239 255
228 239 255
228 239 255
228 239 255
228 239 255
228 239 255
228 239 255
228 239 255
228 239 255
228 239 255
228 239 255
228 239 255
228 239 255
228 239 255
228 239 255
228 239 255
228 239 255
228 239 255
228 239 255
228 239 255
228 239 255
228 239 255
228 239 255
228 239 255
228 239 255
228 239 255
228 239 255
228 239 255
228 239 255
111 117 131
0 0 48
0 12 65
62 73 103
79 73 39
27 47 1
28 48 0
27 46 0
30 51 0
37 58 3
27 48 0
26 47 0
25 47 0
34 56 0
26 47 0
22 44 0
19 42 0
22 45 0
23 47 0
22 46 0
20 45 0
24 50 0
26 49 0
25 50 0
25 49 0
28 51 0
30 53 0
43 66 5
49 68 16
51 72 16
60 75 21
57 67 23
57 66 18
56 64 16
58 64 21
55 59 18
52 60 16
59 62 17
60 62 23
53 62 21
59 65 26
75 72 39
82 73 40
66 72 30
69 74 30
75 78 37
83 81 45
91 84 52
99 91 57
80 78 38
69 79 20
33 41 32
0 0 42
0 0 42
0 0 42
0 0 42
0 0 42
0 0 42
0 0 42
0 0 42
0 0 42
0 0 42
0 0 42
0 0 42
0 0 42
0 0 42
0 0 42
0 0 42
0 0 42
0 0 42
0 0 42
0 0 42
0 0 42
0 0 42
0 0 42
0 0 42
0 0 42
0 0 42
0 0 42
0 0 42
0 0 42
0 0 42
0 0 42
0 0 42
0 0 42
0 0 42
0 0 42
0 0 42
0 0 42
0 0 42
0 0 42
0 0 42
0 0 42
0 0 42
0 0 42
0 0 42
0 0 42
0 0 42
0 0 42
0 0 42
0 0 42
0 0 42
0 0 42
0 0 42
0 0 42
0 0 42
0 0 42
0 0 42
0 0 42
0 0 42
0 0 42
0 0 42
0 0 42
0 0 42
0 0 42
0 0 42
0 0 43
0 0 45
0 0 45
0 0 45
0 0 48
0 0 48
0 0 49
0 0 47
0 0 46
0 0 48
0 0 51
0 0 53
0 0 53
0 0 51
0 0 46
0 0 43
0 0 43
0 0 45
0 0 46
0 0 47
0 0 47
0 0 52
32 53 59
48 63 17
47 60 5
49 59 14
51 60 17
47 55 9
44 54 8
49 60 16
45 53 8
44 51 5
50 54 12
52 53 14
49 50 11
53 55 19
52 56 21
49 54 14
48 52 14
60 59 25
65 63 29
56 60 22
47 58 13
47 58 15
49 57 14
42 51 19
42 52 13
46 55 27
55 60 39
63 64 26
63 66 28
55 58 23
63 65 30
37 52 12
53 62 13
51 62 12
44 57 13
16 22 38
0 0 40
0 0 42
0 0 42
0 0 42
0 0 43
0 0 43
0 0 44
0 0 45
0 0 45
120 126 140
228 239 255
228 239 255
228 239 255
228 239 255
228 239 255
228 239 255
228 239 255
228 239 255
228 239 255
228 239 255
228 239 255
228 239 255
228 239 255
228 239 255
228 239 255
228 239 255
228 239 255
228 239 255
228 239 255
228 239 255
228 239 255
228 239 255
228 239 255
228 239 255
228 239 255
228 239 255
228 239 255
228 239 255
228 239 255
228 239 255
228 239 255
228 239 255
228 239 255
228 239 255
228 239 255
228 239 255
228 239 255
228 239 255
228 239 255
228 239 255
228 239 255
228 239 255
228 239 255
228 239 255
228 239 255
228 239 255
228 239 255
228 239 255
228 239 255
228 239 255
228 239 255
228 239 255
228 239 255
228 239 255
228 239 255
228 239 255
228 239 255
228 239 255
228 239 255
228 239 255
228 239 255
228 239 255
228 239 255
228 239 255
228 239 255
228 239 255
228 239 255
228 239 255
228 239 255
228 239 255
228 239 255
228 239 255
228 239 255
228 239 255
228 239 255
228 239 255
228 239 255
228 239 255
228 239 255
228 239 255
228 239 255
228 239 255
228 239 255
228 239 255
228 239 255
228 239 255
228 239 255
228 239 255
228 239 255
228 239 255
228 239 255
228 239 255
228 239 255
228 239 255
228 239 255
228 239 255
228 239 255
228 239 255
228 239 255
228 239 255
228 239 255
228 239 255
228 239 255
228 239 255
228 239 255
228 239 255
228 239 255
228 239 255
228 239 255
228 239 255
228 239 255
228 239 255
228 239 255
228 239 255
228 239 255
228 239 255
228 239 255
228 239 255
228 239 255
228 239 255
228 239 255
228 239 255
228 239 255
228 239 255
228 239 255
228 239 255
228 239 255
228 239 255
228 239 255
228 239 255
228 239 255
228 239 255
228 239 255
228 239 255
228 239 255
228 239 255
228 239 255
228 239 255
228 239 255
228 239 255
228 239 255
228 239 255
228 239 255
228 239 255
228 239 255
228 239 255
228 239 255
228 239 255
228 239 255
228 239 255
228 239 255
228 239 255
228 239 255
228 239 255
228 239 255
228 239 255
228 239 255
228 239 255
228 239 255
228 239 255
228 239 255
228 239 255
228 239 255
228 239 255
228 239 255
228 239 255
228 239 255
228 239 255
228 239 255
228 239 255
228 239 255
228 239 255
228 239 255
228 239 255
228 239 255
228 239 255
228 239 255
228 239 255
228 239 255
228 239 255
228 239 255
228 239 255
228 239 255
228 239 255
228 239 255
228 239 255
228 239 255
228 239 255
228 239 255
228 239 255
228 239 255
228 239 255
228 239 255
228 239 255
228 239 255
228 239 255
228 239 255
228 239 255
228 239 255
228 239 255
228 239 255
228 239 255
228 239 255
228 239 255
228 239 255
228 239 255
228 239 255
228 239 255
228 239 255
228 239 255
228 239 255
228 239 255
228 239 255
228 239 255
228 239 255
228 239 255
181 190 204
0 0 46
0 5 51
29 45 100
97 88 64
38 50 10
23 44 0
26 45 0
28 49 0
29 48 0
26 46 0
29 49 0
27 49 0
37 59 0
37 59 0
22 45 0
18 41 0
25 45 0
24 48 0
29 52 0
26 50 0
24 49 0
29 53 0
22 49 0
22 49 0
24 48 0
29 51 0
39 61 8
48 66 16
52 68 19
57 73 17
58 65 21
54 63 14
56 63 17
54 60 16
54 58 18
53 60 19
55 63 16
55 60 18
55 60 23
63 69 32
80 75 42
84 75 42
72 69 32
68 69 28
67 70 31
79 79 42
81 79 43
85 84 47
76 77 36
62 74 17
43 57 22
0 0 44
0 0 41
0 0 42
0 0 42
0 0 42
0 0 42
0 0 42
0 0 42
0 0 42
0 0 42
0 0 42
0 0 42
0 0 42
0 0 42
0 0 42
0 0 42
0 0 42
0 0 42
0 0 42
0 0 42
0 0 42
0 0 42
0 0 42
0 0 42
0 0 42
0 0 42
0 0 42
0 0 42
0 0 42
0 0 42
0 0 42
0 0 42
0 0 42
0 0 42
0 0 42
0 0 42
0 0 42
0 0 42
0 0 42
0 0 42
0 0 42
0 0 42
0 0 42
0 0 42
0 0 42
0 0 42
0 0 42
0 0 42
0 0 42
0 0 42
0 0 42
0 0 42
0 0 42
0 0 42
0 0 42
0 0 42
0 0 42
0 0 42
0 0 42
0 0 42
0 0 42
0 0 42
0 0 42
0 0 42
0 0 43
0 0 45
0 0 45
0 0 45
0 0 48
0 0 48
0 0 48
0 0 46
0 0 45
0 0 47
0 0 50
0 0 53
0 0 53
0 0 50
0 0 46
0 0 44
0 0 45
0 0 45
0 0 43
0 0 42
0 0 39
0 0 46
10 26 57
48 60 29
48 61 15
44 57 12
48 56 12
51 57 14
49 57 10
59 67 24
55 63 22
44 53 13
51 57 16
51 54 13
54 55 18
51 52 16
49 52 18
50 54 13
54 56 20
62 59 26
64 61 28
58 62 23
43 55 14
56 57 21
47 53 15
28 36 13
48 55 18
53 60 21
57 60 21
59 60 20
59 64 24
32 37 38
51 57 10
46 58 8
53 62 12
57 66 23
52 64 19
24 32 39
0 0 42
0 0 41
0 0 41
0 0 41
9 11 45
22 23 45
0 0 43
0 0 44
0 0 45
164 173 187
228 239 255
228 239 255
228 239 255
228 239 255
228 239 255
228 239 255
228 239 255
228 239 255
228 239 255
228 239 255
228 239 255
228 239 255
228 239 255
228 239 255
228 239 255
228 239 255
228 239 255
228 239 255
228 239 255
228 239 255
228 239 255
228 239 255
228 239 255
228 239 255
228 239 255
228 239 255
228 239 255
228 239 255
228 239 255
228 239 255
228 239 255
228 239 255
228 239 255
228 239 255
228 239 255
228 239 255
228 239 255
228 239 255
228 239 255
228 239 255
228 239 255
228 239 255
228 239 255
228 239 255
228 239 255
228 239 255
228 239 255
228 239 255
228 239 255
228 239 255
228 239 255
228 239 255
228 239 255
228 239 255
228 239 255
228 239 255
228 239 255
228 239 255
228 239 255
228 239 255
228 239 255
228 239 255
228 239 255
228 239 255
228 239 255
228 239 255
228 239 255
228 239 255
228 239 255
228 239 255
228 239 255
228 239 255
228 239 255
228 239 255
228 239 255
228 239 255
228 239 255
228 239 255
228 239 255
228 239 255
228 239 255
228 239 255
228 239 255
228 239 255
228 239 255
228 239 255
228 239 255
228 239 255
228 239 255
228 239 255
228 239 255
228 239 255
228 239 255
228 239 255
228 239 255
228 239 255
228 239 255
228 239 255
228 239 255
228 239 255
228 239 255
228 239 255
228 239 255
228 239 255
228 239 255
228 239 255
228 239 255
228 239 255
228 239 255
228 239 255
228 239 255
228 239 255
228 239 255
228 239 255
228 239 255
228 239 255
228 239 255
228 239 255
228 239 255
228 239 255
228 239 255
228 239 255
228 239 255
228 239 255
228 239 255
228 239 255
228 239 255
228 239 255
228 239 255
228 239 255
228 239 255
228 239 255
228 239 255
228 239 255
228 239 255
228 239 255
228 239 255
228 239 255
228 239 255
228 239 255
228 239 255
228 239 255
228 239 255
228 239 255
228 239 255
228 239 255
228 239 255
228 239 255
228 239 255
228 239 255
228 239 255
228 239 255
228 239 255
228 239 255
228 239 255
228 239 255
228 239 255
228 239 255
228 239 255
228 239 255
228 239 255
228 239 255
228 239 255
228 239 255
228 239 255
228 239 255
228 239 255
228 239 255
228 239 255
228 239 255
228 239 255
228 239 255
228 239 255
228 239 255
228 239 255
228 239 255
228 239 255
228 239 255
228 239 255
228 239 255
228 239 255
228 239 255
228 239 255
228 239 255
228 239 255
228 239 255
228 239 255
228 239 255
228 239 255
228 239 255
228 239 255
228 239 255
228 239 255
228 239 255
228 239 255
228 239 255
228 239 255
228 239 255
228 239 255
228 239 255
228 239 255
228 239 255
228 239 255
228 239 255
228 239 255
228 239 255
228 239 255
228 239 255
228 239 255
228 239 255
228 239 255
228 239 255
228 239 255
228 239 255
228 239 255
228 239 255
215 226 241
0 0 44
0 0 44
0 19 77
82 77 80
72 69 33
27 45 0
26 44 0
25 45 0
27 48 0
28 49 0
27 48 0
23 45 0
25 47 0
49 71 9
29 51 3
22 43 0
25 47 0
28 52 0
34 58 0
34 59 0
40 63 8
38 60 4
27 50 0
25 49 0
23 48 0
27 50 0
32 55 0
39 56 4
53 65 19
56 69 21
54 64 19
56 62 18
62 65 23
55 62 20
54 60 20
55 61 23
44 56 10
52 61 19
58 64 28
64 68 30
76 75 38
81 77 40
76 70 33
75 72 31
70 68 28
77 77 39
70 73 35
73 79 38
69 77 30
58 73 14
46 65 20
0 0 44
0 0 42
0 0 42
0 0 42
0 0 42
0 0 42
0 0 42
0 0 42
0 0 42
0 0 42
0 0 42
0 0 42
0 0 42
0 0 42
0 0 42
0 0 42
0 0 42
0 0 42
0 0 42
0 0 42
0 0 42
0 0 42
0 0 42
0 0 42
0 0 42
0 0 42
0 0 42
0 0 42
0 0 42
0 0 42
0 0 42
0 0 42
0 0 42
0 0 42
0 0 42
0 0 42
0 0 42
0 0 42
0 0 42
0 0 42
0 0 42
0 0 42
0 0 42
0 0 42
0 0 42
0 0 42
0 0 42
0 0 42
0 0 42
0 0 42
0 0 42
0 0 42
0 0 42
0 0 42
0 0 42
0 0 42
0 0 42
0 0 42
0 0 42
0 0 42
0 0 42
0 0 42
0 0 42
0 0 43
0 0 44
0 0 45
0 0 45
0 0 45
0 0 48
0 0 48
0 0 47
0 0 45
0 0 45
0 0 46
0 0 49
0 0 53
0 0 54
0 0 49
0 0 45
0 0 45
0 0 45
0 0 45
0 0 44
0 0 43
0 0 43
0 0 43
0 5 51
39 50 37
46 58 9
35 50 1
45 52 12
57 63 21
47 53 8
52 56 13
47 54 13
50 58 17
53 58 18
51 56 19
53 56 21
53 52 18
54 55 17
47 51 6
51 52 16
56 56 21
50 54 18
51 57 17
51 57 17
56 57 17
41 51 14
40 52 8
51 58 9
59 61 24
57 58 19
57 59 24
54 59 18
35 40 39
58 60 23
48 58 9
63 66 22
68 70 31
49 60 19
10 13 43
0 0 43
0 0 41
0 0 42
0 0 43
35 35 45
36 31 42
0 0 42
0 0 42
0 0 43
208 218 233
228 239 255
228 239 255
228 239 255
228 239 255
228 239 255
228 239 255
228 239 255
228 239 255
228 239 255
228 239 255
228 239 255
228 239 255
228 239 255
228 239 255
228 239 255
228 239 255
228 239 255
228 239 255
228 239 255
228 239 255
228 239 255
228 239 255
228 239 255
228 239 255
228 239 255
228 239 255
228 239 255
228 239 255
228 239 255
228 239 255
228 239 255
228 239 255
228 239 255
228 239 255
228 239 255
228 239 255
228 239 255
228 239 255
228 239 255
228 239 255
228 239 255
228 239 255
228 239 255
228 239 255
228 239 255
228 239 255
228 239 255
228 239 255
228 239 255
228 239 255
228 239 255
228 239 255
228 239 255
228 239 255
228 239 255
228 239 255
228 239 255
228 239 255
228 239 255
228 239 255
228 239 255
228 239 255
228 239 255
228 239 255
228 239 255
228 239 255
228 239 255
228 239 255
228 239 255
228 239 255
228 239 255
228 239 255
228 239 255
228 239 255
228 239 255
228 239 255
228 239 255
228 239 255
228 239 255
228 239 255
228 239 255
228 239 255
228 239 255
228 239 255
228 239 255
228 239 255
228 239 255
228 239 255
228 239 255
228 239 255
228 239 255
228 239 255
228 239 255
228 239 255
228 239 255
228 239 255
228 239 255
228 239 255
228 239 255
228 239 255
228 239 255
228 239 255
228 239 255
228 239 255
228 239 255
228 239 255
228 239 255
228 239 255
228 239 255
228 239 255
228 239 255
228 239 255
228 239 255
228 239 255
228 239 255
228 239 255
228 239 255
228 239 255
228 239 255
228 239 255
228 239 255
228 239 255
228 239 255
228 239 255
228 239 255
228 239 255
228 239 255
228 239 255
228 239 255
228 239 255
228 239 255
228 239 255
228 239 255
228 239 255
228 239 255
228 239 255
228 239 255
228 239 255
228 239 255
228 239 255
228 239 255
228 239 255
228 239 255
228 239 255
228 239 255
228 239 255
228 239 255
228 239 255
228 239 255
228 239 255
228 239 255
228 239 255
228 239 255
228 239 255
228 239 255
228 239 255
228 239 255
228 239 255
228 239 255
228 239 255
228 239 255
228 239 255
228 239 255
228 239 255
228 239 255
228 239 255
228 239 255
228 239 255
228 239 255
228 239 255
228 239 255
228 239 255
228 239 255
228 239 255
228 239 255
228 239 255
228 239 255
228 239 255
228 239 255
228 239 255
228 239 255
228 239 255
228 239 255
228 239 255
228 239 255
228 239 255
228 239 255
228 239 255
228 239 255
228 239 255
228 239 255
228 239 255
228 239 255
228 239 255
228 239 255
228 239 255
228 239 255
228 239 255
228 239 255
228 239 255
228 239 255
228 239 255
228 239 255
228 239 255
228 239 255
228 239 255
228 239 255
228 239 255
228 239 255
228 239 255
228 239 255
228 239 255
228 239 255
228 239 255
228 239 255
228 239 255
228 239 255
99 104 118
0 0 43
0 9 60
63 67 88
98 88 56
48 52 16
36 48 10
24 47 0
25 46 0
26 46 0
30 48 0
26 46 0
26 46 0
41 59 3
43 63 10
24 45 0
20 43 0
28 52 0
28 51 0
29 52 0
47 69 10
51 72 18
32 54 0
28 52 0
28 50 0
26 49 0
37 60 7
39 54 6
52 63 19
55 67 22
54 64 18
63 66 25
65 67 25
58 62 24
56 60 21
57 63 25
42 53 11
47 56 14
57 60 22
68 67 33
80 69 40
79 74 41
70 66 28
84 76 36
79 74 32
78 75 38
73 74 38
65 74 31
59 72 21
54 75 16
36 54 25
0 0 43
0 0 41
0 0 42
0 0 42
0 0 42
0 0 42
0 0 42
0 0 42
0 0 42
0 0 42
0 0 42
0 0 42
0 0 42
0 0 42
0 0 42
0 0 42
0 0 42
0 0 42
0 0 42
0 0 42
0 0 42
0 0 42
0 0 42
0 0 42
0 0 42
0 0 42
0 0 42
0 0 42
0 0 42
0 0 42
0 0 42
0 0 42
0 0 42
0 0 42
0 0 42
0 0 42
0 0 42
0 0 42
0 0 42
0 0 42
0 0 42
0 0 42
0 0 42
0 0 42
0 0 42
0 0 42
0 0 42
0 0 42
0 0 42
0 0 42
0 0 42
0 0 42
0 0 42
0 0 42
0 0 42
0 0 42
0 0 42
0 0 42
0 0 42
0 0 42
0 0 42
0 0 42
0 0 42
0 0 44
0 0 45
0 0 45
0 0 45
0 0 46
0 0 48
0 0 47
0 0 46
0 0 45
0 0 45
0 0 46
0 0 49
0 0 53
0 0 54
0 0 47
0 0 43
0 0 45
0 0 45
0 0 45
0 0 45
0 0 45
0 0 45
0 0 45
0 0 48
34 47 44
42 56 5
35 49 6
50 57 15
52 62 16
52 57 21
56 63 20
51 57 18
47 54 11
53 57 19
55 57 22
58 57 24
60 57 22
52 52 14
52 54 14
49 52 14
43 50 8
41 50 5
47 57 12
59 61 21
57 61 20
43 55 14
49 57 21
55 60 24
56 57 21
56 56 25
55 61 22
58 63 22
34 38 35
53 60 18
51 60 15
63 67 25
60 66 27
44 56 24
0 4 43
0 0 40
0 0 41
0 0 42
0 0 42
54 57 38
26 27 39
0 0 42
0 0 42
99 104 118
228 239 255
228 239 255
228 239 255
228 239 255
228 239 255
228 239 255
228 239 255
228 239 255
228 239 255
228 239 255
228 239 255
228 239 255
228 239 255
228 239 255
228 239 255
228 239 255
228 239 255
228 239 255
228 239 255
228 239 255
228 239 255
228 239 255
228 239 255
228 239 255
228 239 255
228 239 255
228 239 255
228 239 255
228 239 255
228 239 255
228 239 255
228 239 255
228 239 255
228 239 255
228 239 255
228 239 255
228 239 255
228 239 255
228 239 255
228 239 255
228 239 255
228 239 255
228 239 255
228 239 255
228 239 255
228 239 255
228 239 255
228 239 255
228 239 255
228 239 255
228 239 255
228 239 255
228 239 255
228 239 255
228 239 255
228 239 255
228 239 255
228 239 255
228 239 255
228 239 255
228 239 255
228 239 255
228 239 255
228 239 255
228 239 255
228 239 255
228 239 255
228 239 255
228 239 255
228 239 255
228 239 255
228 239 255
228 239 255
228 239 255
228 239 255
228 239 255
228 239 255
228 239 255
228 239 255
228 239 255
228 239 255
228 239 255
228 239 255
228 239 255
228 239 255
228 239 255
228 239 255
228 239 255
228 239 255
228 239 255
228 239 255
228 239 255
228 239 255
228 239 255
228 239 255
228 239 255
228 239 255
228 239 255
228 239 255
228 239 255
228 239 255
228 239 255
228 239 255
228 239 255
228 239 255
228 239 255
228 239 255
228 239 255
228 239 255
228 239 255
228 239 255
228 239 255
228 239 255
228 239 255
228 239 255
228 239 255
228 239 255
228 239 255
228 239 255
228 239 255
228 239 255
228 239 255
228 239 255
228 239 255
228 239 255
228 239 255
228 239 255
228 239 255
228 239 255
228 239 255
228 239 255
228 239 255
228 239 255
228 239 255
228 239 255
228 239 255
228 239 255
228 239 255
228 239 255
228 239 255
228 239 255
228 239 255
228 239 255
228 239 255
228 239 255
228 239 255
228 239 255
228 239 255
228 239 255
228 239 255
228 239 255
228 239 255
228 239 255
228 239 255
228 239 255
228 239 255
228 239 255
228 239 255
228 239 255
228 239 255
228 239 255
228 239 255
228 239 255
228 239 255
228 239 255
228 239 255
228 239 255
228 239 255
228 239 255
228 239 255
228 239 255
228 239 255
228 239 255
228 239 255
228 239 255
228 239 255
228 239 255
228 239 255
228 239 255
228 239 255
228 239 255
228 239 255
228 239 255
228 239 255
228 239 255
228 239 255
228 239 255
228 239 255
228 239 255
228 239 255
228 240 255
228 240 255
228 240 255
228 240 255
228 240 255
228 240 255
228 240 255
228 240 255
228 240 255
228 240 255
228 240 255
228 240 255
228 240 255
228 240 255
228 240 255
228 240 255
228 240 255
228 240 255
228 240 255
228 240 255
228 240 255
228 240 255
228 240 255
228 240 255
228 240 255
228 240 255
228 240 255
228 240 255
169 178 191
0 0 42
0 3 50
26 34 80
113 109 90
79 73 39
70 68 35
33 49 9
24 46 0
36 52 0
40 54 0
37 54 6
28 49 0
33 54 0
45 68 8
33 53 0
22 43 0
35 58 0
38 60 5
33 56 3
37 58 6
43 64 13
32 52 5
22 44 0
40 60 12
38 55 6
39 56 12
40 54 11
49 61 19
59 68 26
52 60 17
67 70 30
82 81 43
65 66 32
67 66 30
55 63 22
43 52 12
56 63 27
69 69 37
78 73 42
83 77 48
87 76 46
89 79 46
98 84 53
94 85 51
80 76 35
83 83 39
69 84 28
65 85 23
49 70 8
33 51 21
0 0 43
0 0 40
0 0 42
0 0 42
0 0 42
0 0 42
0 0 42
0 0 42
0 0 42
0 0 42
0 0 42
0 0 42
0 0 42
0 0 42
0 0 42
0 0 42
0 0 42
0 0 42
0 0 42
0 0 42
0 0 42
0 0 42
0 0 42
0 0 42
0 0 42
0 0 42
0 0 42
0 0 42
0 0 42
0 0 42
0 0 42
0 0 42
0 0 42
0 0 42
0 0 42
0 0 42
0 0 42
0 0 42
0 0 42
0 0 42
0 0 42
0 0 42
0 0 42
0 0 42
0 0 42
0 0 42
0 0 42
0 0 42
0 0 42
0 0 42
0 0 42
0 0 42
0 0 42
0 0 42
0 0 42
0 0 42
0 0 42
0 0 42
0 0 42
0 0 42
0 0 42
0 0 42
0 0 42
0 0 44
0 0 45
0 0 45
0 0 45
0 0 46
0 0 47
0 0 46
0 0 43
0 0 42
0 0 43
0 0 45
0 0 46
0 0 50
0 0 52
0 0 48
0 0 44
0 0 44
0 0 45
0 0 45
0 0 45
0 0 45
0 0 46
0 0 44
18 23 65
64 83 50
43 60 13
40 53 11
53 63 21
51 61 16
51 60 18
56 62 21
52 58 21
47 56 12
47 54 13
57 57 23
60 59 27
55 57 21
52 54 15
48 52 12
45 52 15
41 50 1
45 52 9
53 56 16
55 56 19
48 55 14
43 53 13
61 63 24
42 46 27
54 58 20
54 58 19
57 62 21
64 64 29
26 31 43
49 59 16
49 60 15
61 66 25
58 65 24
44 54 29
0 0 42
0 0 41
0 0 41
0 0 42
16 26 39
35 46 19
0 0 42
0 0 42
0 0 42
174 182 196
228 240 255
228 240 255
228 240 255
228 240 255
228 240 255
228 240 255
228 240 255
228 240 255
228 240 255
228 240 255
228 240 255
228 240 255
228 240 255
228 240 255
228 240 255
228 240 255
228 240 255
228 240 255
228 240 255
228 240 255
228 240 255
228 240 255
228 240 255
228 240 255
228 240 255
228 240 255
228 240 255
228 240 255
228 240 255
228 240 255
228 239 255
228 239 255
228 239 255
228 239 255
228 239 255
228 239 255
228 239 255
228 239 255
228 239 255
228 239 255
228 239 255
228 239 255
228 239 255
228 239 255
228 239 255
228 239 255
228 239 255
228 239 255
228 239 255
228 239 255
228 239 255
228 239 255
228 239 255
228 239 255
228 239 255
228 239 255
228 239 255
228 239 255
228 239 255
228 239 255
228 239 255
228 239 255
228 239 255
228 239 255
228 239 255
228 239 255
228 239 255
228 239 255
228 239 255
228 239 255
228 239 255
228 239 255
228 239 255
228 239 255
228 239 255
228 239 255
228 239 255
228 239 255
228 239 255
228 239 255
228 239 255
228 239 255
228 239 255
228 239 255
228 239 255
228 239 255
228 239 255
228 239 255
228 239 255
228 239 255
228 239 255
228 239 255
228 239 255
228 239 255
228 239 255
228 239 255
228 239 255
228 239 255
228 239 255
228 239 255
228 239 255
228 239 255
228 239 255
228 239 255
228 239 255
228 239 255
228 239 255
228 239 255
228 239 255
228 239 255
228 239 255
228 239 255
228 239 255
228 239 255
228 239 255
228 239 255
228 239 255
228 239 255
228 239 255
228 239 255
228 239 255
228 239 255
228 239 255
228 239 255
228 239 255
228 239 255
228 239 255
228 239 255
228 239 255
228 239 255
228 239 255
228 239 255
228 239 255
228 239 255
228 239 255
228 239 255
228 239 255
228 239 255
228 239 255
228 239 255
228 239 255
228 239 255
228 239 255
228 239 255
228 239 255
228 239 255
228 239 255
228 239 255
228 239 255
228 239 255
228 239 255
228 239 255
228 239 255
228 239 255
228 239 255
228 239 255
228 239 255
228 239 255
228 239 255
228 239 255
228 239 255
228 239 255
228 239 255
228 239 255
228 240 255
228 240 255
228 240 255
228 240 255
228 240 255
228 240 255
228 240 255
228 240 255
228 240 255
228 240 255
228 240 255
228 240 255
228 240 255
228 240 255
228 240 255
228 240 255
228 240 255
228 240 255
228 240 255
228 240 255
228 240 255
228 240 255
228 240 255
228 240 255
228 240 255
228 240 255
228 240 255
228 240 255
228 240 255
228 240 255
228 240 255
228 240 255
228 240 255
228 240 255
228 240 255
228 240 255
228 240 255
228 240 255
228 240 255
228 240 255
228 240 255
228 240 255
228 240 255
228 240 255
228 240 255
228 240 255
228 240 255
228 240 255
228 240 255
228 240 255
228 240 255
228 240 255
228 240 255
228 240 255
217 227 243
0 0 42
0 0 46
0 6 69
106 94 92
105 93 58
86 78 47
79 75 41
27 44 2
30 47 0
43 56 0
47 58 11
38 52 8
27 48 0
33 56 0
31 52 0
28 49 0
26 48 0
34 56 2
34 55 3
33 51 4
35 56 7
28 51 4
22 43 0
35 54 6
44 60 18
45 57 18
45 55 18
45 58 17
60 66 26
55 62 22
62 68 28
81 77 39
74 71 39
64 65 30
52 61 20
53 57 24
62 63 33
76 74 46
83 78 50
81 81 50
90 80 50
99 84 52
92 80 45
88 78 37
77 82 31
79 96 31
65 91 23
55 79 10
44 68 14
19 29 37
0 0 44
0 0 39
0 0 42
0 0 42
0 0 42
0 0 42
0 0 42
0 0 42
0 0 42
0 0 42
0 0 42
0 0 42
0 0 42
0 0 42
0 0 42
0 0 42
0 0 42
0 0 42
0 0 42
0 0 42
0 0 42
0 0 42
0 0 42
0 0 42
0 0 42
0 0 42
0 0 42
0 0 42
0 0 42
0 0 42
0 0 42
0 0 42
0 0 42
0 0 42
0 0 42
0 0 42
0 0 42
0 0 42
0 0 42
0 0 42
0 0 42
0 0 42
0 0 42
0 0 42
0 0 42
0 0 42
0 0 42
0 0 42
0 0 42
0 0 42
0 0 42
0 0 42
0 0 42
0 0 42
0 0 42
0 0 42
0 0 42
0 0 42
0 0 42
0 0 42
0 0 42
0 0 42
0 0 42
0 0 42
0 0 42
0 0 42
0 0 42
0 0 42
0 0 42
0 0 42
0 0 42
0 0 42
0 0 42
0 0 44
0 0 43
0 0 46
0 0 50
0 0 49
0 0 44
0 0 44
0 0 45
0 0 45
0 0 45
0 0 45
0 0 46
0 0 42
17 22 57
55 75 32
42 62 6
51 64 20
55 66 22
49 60 13
49 58 15
45 50 7
44 53 8
48 58 12
46 54 14
56 58 25
50 54 19
46 53 15
49 54 11
48 54 15
44 51 16
48 52 15
53 55 17
50 50 16
52 57 22
48 54 15
51 58 16
56 57 26
41 48 15
57 61 24
58 65 22
65 66 27
55 53 40
41 47 36
43 54 10
53 64 19
58 64 23
59 65 26
31 37 37
0 0 41
0 0 42
0 0 42
0 0 41
50 52 40
29 40 27
0 0 42
0 0 42
0 0 42
209 220 235
228 240 255
228 240 255
228 240 255
228 240 255
228 240 255
228 240 255
228 240 255
228 240 255
228 240 255
228 240 255
228 240 255
228 240 255
228 240 255
228 240 255
228 240 255
228 240 255
228 240 255
228 240 255
228 240 255
228 240 255
228 240 255
228 240 255
228 240 255
228 240 255
228 240 255
228 240 255
228 240 255
228 240 255
228 240 255
228 240 255
228 240 255
228 240 255
228 240 255
228 240 255
228 240 255
228 240 255
228 240 255
228 240 255
228 240 255
228 240 255
228 240 255
228 240 255
228 240 255
228 240 255
228 240 255
228 240 255
228 240 255
228 240 255
228 240 255
228 240 255
228 240 255
228 240 255
228 240 255
228 239 255
228 239 255
228 239 255
228 239 255
228 239 255
228 239 255
228 239 255
228 239 255
228 239 255
228 239 255
228 239 255
228 239 255
228 239 255
228 239 255
228 239 255
228 239 255
228 239 255
228 239 255
228 239 255
228 239 255
228 239 255
228 239 255
228 239 255
228 239 255
228 239 255
228 239 255
228 239 255
228 239 255
228 239 255
228 239 255
228 239 255
228 239 255
228 239 255
228 239 255
228 239 255
228 239 255
228 239 255
228 239 255
228 239 255
228 239 255
228 239 255
228 239 255
228 239 255
228 239 255
228 239 255
228 239 255
228 239 255
228 239 255
228 239 255
228 239 255
228 239 255
228 239 255
228 239 255
228 239 255
228 239 255
228 239 255
228 239 255
228 239 255
228 239 255
228 239 255
228 239 255
228 239 255
228 239 255
228 239 255
228 239 255
228 239 255
228 239 255
228 239 255
228 239 255
228 239 255
228 239 255
228 239 255
228 239 255
228 239 255
228 239 255
228 239 255
228 239 255
228 239 255
228 239 255
228 239 255
228 239 255
228 239 255
228 239 255
228 239 255
228 239 255
228 239 255
228 239 255
228 239 255
228 239 255
228 239 255
228 240 255
228 240 255
228 240 255
228 240 255
228 240 255
228 240 255
228 240 255
228 240 255
228 240 255
228 240 255
228 240 255
228 240 255
228 240 255
228 240 255
228 240 255
228 240 255
228 240 255
228 240 255
228 240 255
228 240 255
228 240 255
228 240 255
228 240 255
228 240 255
228 240 255
228 240 255
228 240 255
228 240 255
228 240 255
228 240 255
228 240 255
228 240 255
228 240 255
228 240 255
228 240 255
228 240 255
228 240 255
228 240 255
228 240 255
228 240 255
228 240 255
228 240 255
228 240 255
228 240 255
228 240 255
228 240 255
228 240 255
228 240 255
228 240 255
228 240 255
228 240 255
228 240 255
228 240 255
228 240 255
228 240 255
228 240 255
228 240 255
228 240 255
228 240 255
228 240 255
228 240 255
228 240 255
228 240 255
228 240 255
228 240 255
228 240 255
228 240 255
228 240 255
228 240 255
228 240 255
228 240 255
228 240 255
228 240 255
228 240 255
228 240 255
228 240 255
104 110 123
0 0 43
0 0 54
24 28 77
122 108 83
109 97 60
97 86 50
67 64 34
22 45 1
42 57 7
50 59 14
48 59 12
35 49 6
28 47 0
40 60 9
36 57 0
32 49 0
33 54 4
27 48 0
45 57 14
52 63 20
26 46 0
22 44 0
27 47 0
38 57 7
46 59 16
46 58 20
43 56 15
59 65 24
57 64 25
53 64 21
85 80 43
79 73 41
50 57 19
46 56 15
53 55 23
69 66 40
78 73 44
80 72 45
72 67 36
76 71 39
75 69 31
77 76 35
71 72 26
68 79 26
67 88 26
59 86 12
51 77 7
23 37 38
0 0 46
0 0 40
0 0 39
0 0 42
0 0 42
0 0 42
0 0 42
0 0 42
0 0 42
0 0 42
0 0 42
0 0 42
0 0 42
0 0 42
0 0 42
0 0 42
0 0 42
0 0 42
0 0 42
0 0 42
0 0 42
0 0 42
0 0 42
0 0 42
0 0 42
0 0 42
0 0 42
0 0 42
0 0 42
0 0 42
0 0 42
0 0 42
0 0 42
0 0 42
0 0 42
0 0 42
0 0 42
0 0 42
0 0 42
0 0 42
0 0 42
0 0 42
0 0 42
0 0 42
0 0 42
0 0 42
0 0 42
0 0 42
0 0 42
0 0 42
0 0 42
0 0 42
0 0 42
0 0 42
0 0 42
0 0 42
0 0 42
0 0 42
0 0 42
0 0 42
0 0 42
0 0 42
0 0 42
0 0 42
0 0 42
0 0 42
0 0 42
0 0 42
0 0 42
0 0 42
0 0 42
0 0 42
0 0 42
0 0 42
0 0 44
0 0 44
0 0 46
0 0 48
0 0 47
0 0 45
0 0 45
0 0 45
0 0 45
0 0 45
0 0 45
0 0 46
0 0 46
0 0 54
42 58 43
50 70 15
53 64 17
49 56 16
48 57 12
48 55 13
43 51 9
42 52 0
42 52 0
51 58 19
54 58 24
49 54 19
54 57 21
51 54 16
43 49 9
45 49 13
50 52 16
49 53 14
45 50 9
52 54 18
54 56 20
49 54 15
50 54 18
51 53 19
54 57 17
65 68 26
71 67 29
48 53 43
44 50 30
45 54 10
53 61 15
60 65 22
65 69 29
28 34 37
0 0 41
0 0 41
0 0 42
25 29 49
69 63 35
16 27 33
0 0 42
0 0 42
99 104 117
228 240 255
228 240 255
228 240 255
228 240 255
228 240 255
228 240 255
228 240 255
228 240 255
228 240 255
228 240 255
228 240 255
228 240 255
228 240 255
228 240 255
228 240 255
228 240 255
228 240 255
228 240 255
228 240 255
228 240 255
228 240 255
228 240 255
228 240 255
228 240 255
228 240 255
228 240 255
228 240 255
228 240 255
228 240 255
228 240 255
228 240 255
228 240 255
228 240 255
228 240 255
228 240 255
228 240 255
228 240 255
228 240 255
228 240 255
228 240 255
228 240 255
228 240 255
228 240 255
228 240 255
228 240 255
228 240 255
228 240 255
228 240 255
228 240 255
228 240 255
228 240 255
228 240 255
228 240 255
228 240 255
228 240 255
228 240 255
228 240 255
228 240 255
228 240 255
228 240 255
228 240 255
228 240 255
228 240 255
228 240 255
228 240 255
228 240 255
228 240 255
228 240 255
228 240 255
228 240 255
228 240 255
228 240 255
228 240 255
228 240 255
228 240 255
228 240 255
228 240 255
228 239 255
228 239 255
228 239 255
228 239 255
228 239 255
228 239 255
228 239 255
228 239 255
228 239 255
228 239 255
228 239 255
228 239 255
228 239 255
228 239 255
228 239 255
228 239 255
228 239 255
228 239 255
228 239 255
228 239 255
228 239 255
228 239 255
228 239 255
228 239 255
228 239 255
228 239 255
228 239 255
228 239 255
228 239 255
228 239 255
228 239 255
228 239 255
228 239 255
228 239 255
228 239 255
228 239 255
228 239 255
228 239 255
228 239 255
228 239 255
228 239 255
228 239 255
228 239 255
228 239 255
228 239 255
228 239 255
228 239 255
228 239 255
228 240 255
228 240 255
228 240 255
228 240 255
228 240 255
228 240 255
228 240 255
228 240 255
228 240 255
228 240 255
228 240 255
228 240 255
228 240 255
228 240 255
228 240 255
228 240 255
228 240 255
228 240 255
228 240 255
228 240 255
228 240 255
228 240 255
228 240 255
228 240 255
228 240 255
228 240 255
228 240 255
228 240 255
228 240 255
228 240 255
228 240 255
228 240 255
228 240 255
228 240 255
228 240 255
228 240 255
228 240 255
228 240 255
228 240 255
228 240 255
228 240 255
228 240 255
228 240 255
228 240 255
228 240 255
228 240 255
228 240 255
228 240 255
228 240 255
228 240 255
228 240 255
228 240 255
228 240 255
228 240 255
228 240 255
228 240 255
228 240 255
228 240 255
228 240 255
228 240 255
228 240 255
228 240 255
228 240 255
228 240 255
228 240 255
228 240 255
228 240 255
228 240 255
228 240 255
228 240 255
228 240 255
228 240 255
228 240 255
228 240 255
228 240 255
228 240 255
228 240 255
228 240 255
228 240 255
228 240 255
228 240 255
228 240 255
228 240 255
228 240 255
228 240 255
228 240 255
228 240 255
228 240 255
228 240 255
228 240 255
228 240 255
228 240 255
228 240 255
228 240 255
228 240 255
177 185 200
0 0 42
0 0 48
0 7 66
56 55 88
119 101 72
102 88 51
102 90 55
47 51 16
37 53 7
45 59 4
44 58 9
37 52 3
30 48 0
32 51 5
39 58 0
40 54 8
50 61 16
35 51 5
48 59 19
59 65 26
28 45 2
21 44 0
29 50 0
36 52 2
48 60 19
46 58 19
45 55 16
62 69 29
60 66 25
56 65 23
68 72 37
82 76 46
71 71 38
51 57 20
59 60 29
71 66 41
82 76 48
86 74 46
93 74 49
77 69 36
67 72 28
72 76 30
71 76 30
72 77 31
60 81 18
51 72 16
32 45 34
3 5 50
0 0 36
0 0 41
0 0 44
0 0 42
0 0 42
0 0 42
0 0 42
0 0 42
0 0 42
0 0 42
0 0 42
0 0 42
0 0 42
0 0 42
0 0 42
0 0 42
0 0 42
0 0 42
0 0 42
0 0 42
0 0 42
0 0 42
0 0 42
0 0 42
0 0 42
0 0 42
0 0 42
0 0 42
0 0 42
0 0 42
0 0 42
0 0 42
0 0 42
0 0 42
0 0 42
0 0 42
0 0 42
0 0 42
0 0 42
0 0 42
0 0 42
0 0 42
0 0 42
0 0 42
0 0 42
0 0 42
0 0 42
0 0 42
0 0 42
0 0 42
0 0 42
0 0 42
0 0 42
0 0 42
0 0 42
0 0 42
0 0 42
0 0 42
0 0 42
0 0 42
0 0 42
0 0 42
0 0 42
0 0 42
0 0 42
0 0 42
0 0 42
0 0 42
0 0 42
0 0 42
0 0 42
0 0 42
0 0 42
0 0 42
0 0 43
0 0 45
0 0 45
0 0 46
0 0 45
0 0 45
0 0 45
0 0 45
0 0 45
0 0 45
0 0 44
0 0 46
0 0 46
0 0 50
26 37 49
54 67 21
60 64 25
48 51 13
50 56 12
51 54 16
45 52 12
44 54 0
43 53 0
50 56 18
52 56 22
57 56 25
54 50 19
52 53 19
42 50 10
44 49 8
48 51 9
50 52 14
50 53 15
51 52 18
57 56 24
53 56 19
49 55 15
62 60 27
59 63 23
63 63 25
75 68 31
42 47 50
47 55 21
47 56 8
54 61 17
60 64 22
63 69 25
21 23 41
0 0 44
0 0 44
15 21 49
65 63 48
58 57 28
0 2 42
0 0 42
0 0 42
183 192 206
228 240 255
228 240 255
228 240 255
228 240 255
228 240 255
228 240 255
228 240 255
228 240 255
228 240 255
228 240 255
228 240 255
228 240 255
228 240 255
228 240 255
228 240 255
228 240 255
228 240 255
228 240 255
228 240 255
228 240 255
228 240 255
228 240 255
228 240 255
228 240 255
228 240 255
228 240 255
228 240 255
228 240 255
228 240 255
228 240 255
228 240 255
228 240 255
228 240 255
228 240 255
228 240 255
228 240 255
228 240 255
228 240 255
228 240 255
228 240 255
228 240 255
228 240 255
228 240 255
228 240 255
228 240 255
228 240 255
228 240 255
228 240 255
228 240 255
228 240 255
228 240 255
228 240 255
228 240 255
228 240 255
228 240 255
228 240 255
228 240 255
228 240 255
228 240 255
228 240 255
228 240 255
228 240 255
228 240 255
228 240 255
228 240 255
228 240 255
228 240 255
228 240 255
228 240 255
228 240 255
228 240 255
228 240 255
228 240 255
228 240 255
228 240 255
228 240 255
228 240 255
228 240 255
228 240 255
228 240 255
228 240 255
228 240 255
228 240 255
228 240 255
228 240 255
228 240 255
228 240 255
228 240 255
228 240 255
228 240 255
228 240 255
228 240 255
228 240 255
228 240 255
228 240 255
228 239 255
228 239 255
228 239 255
228 239 255
228 239 255
228 239 255
228 239 255
228 239 255
228 239 255
228 239 255
228 239 255
228 239 255
228 239 255
228 239 255
228 239 255
228 240 255
228 240 255
228 240 255
228 240 255
228 240 255
228 240 255
228 240 255
228 240 255
228 240 255
228 240 255
228 240 255
228 240 255
228 240 255
228 240 255
228 240 255
228 240 255
228 240 255
228 240 255
228 240 255
228 240 255
228 240 255
228 240 255
228 240 255
228 240 255
228 240 255
228 240 255
228 240 255
228 240 255
228 240 255
228 240 255
228 240 255
228 240 255
228 240 255
228 240 255
228 240 255
228 240 255
228 240 255
228 240 255
228 240 255
228 240 255
228 240 255
228 240 255
228 240 255
228 240 255
228 240 255
228 240 255
228 240 255
228 240 255
228 240 255
228 240 255
228 240 255
228 240 255
228 240 255
228 240 255
228 240 255
228 240 255
228 240 255
228 240 255
228 240 255
228 240 255
228 240 255
228 240 255
228 240 255
228 240 255
228 240 255
228 240 255
228 240 255
228 240 255
228 240 255
228 240 255
228 240 255
228 240 255
228 240 255
228 240 255
228 240 255
228 240 255
228 240 255
228 240 255
228 240 255
228 240 255
228 240 255
228 240 255
228 240 255
228 240 255
228 240 255
228 240 255
228 240 255
228 240 255
228 240 255
228 240 255
228 240 255
228 240 255
228 240 255
228 240 255
228 240 255
228 240 255
228 240 255
228 240 255
228 240 255
228 240 255
228 240 255
228 240 255
228 240 255
228 240 255
228 240 255
228 240 255
228 240 255
228 240 255
228 240 255
228 240 255
224 235 250
56 58 74
0 0 43
0 0 49
0 16 74
97 85 90
138 121 92
101 89 66
54 60 60
27 48 4
32 51 0
42 58 7
28 50 0
24 48 0
23 43 0
33 51 5
47 60 12
62 64 24
60 64 23
41 53 9
58 68 28
39 54 12
29 49 1
31 49 4
45 56 13
51 60 21
45 56 18
50 58 24
65 71 32
62 67 26
57 66 23
60 66 30
88 81 49
82 79 46
60 64 29
59 60 27
69 65 37
62 61 31
68 63 33
94 75 47
63 67 24
69 76 26
74 75 25
74 78 25
71 75 29
56 74 11
34 52 28
7 11 46
0 0 41
0 0 41
0 0 45
0 0 42
0 0 43
0 0 42
0 0 42
0 0 42
0 0 42
0 0 42
0 0 42
0 0 42
0 0 42
0 0 42
0 0 42
0 0 42
0 0 42
0 0 42
0 0 42
0 0 42
0 0 42
0 0 42
0 0 42
0 0 42
0 0 42
0 0 42
0 0 42
0 0 42
0 0 42
0 0 42
0 0 42
0 0 42
0 0 42
0 0 42
0 0 42
0 0 42
0 0 42
0 0 42
0 0 42
0 0 42
0 0 42
0 0 42
0 0 42
0 0 42
0 0 42
0 0 42
0 0 42
0 0 42
0 0 42
0 0 42
0 0 42
0 0 42
0 0 42
0 0 42
0 0 42
0 0 42
0 0 42
0 0 42
0 0 42
0 0 42
0 0 42
0 0 42
0 0 42
0 0 42
0 0 42
0 0 42
0 0 42
0 0 42
0 0 42
0 0 42
0 0 42
0 0 42
0 0 42
0 0 42
0 0 42
0 0 42
0 0 44
0 0 45
0 0 44
0 0 45
0 0 45
0 0 45
0 0 45
0 0 45
0 0 45
0 0 44
0 0 49
0 0 44
0 0 43
27 37 46
52 63 17
56 61 19
57 56 23
63 59 28
61 58 28
52 55 18
46 54 11
46 54 10
52 58 22
46 52 17
57 57 25
54 49 22
49 51 15
40 50 0
40 48 0
46 52 13
49 53 16
45 51 13
43 48 14
58 57 25
55 58 20
58 58 22
57 60 22
64 67 27
71 68 36
84 73 36
51 55 50
50 56 28
52 57 18
56 59 18
62 67 23
51 59 29
0 0 43
0 0 43
3 7 47
61 69 51
85 71 41
28 37 29
0 0 42
0 0 42
56 58 75
224 235 250
228 240 255
228 240 255
228 240 255
228 240 255
228 240 255
228 240 255
228 240 255
228 240 255
228 240 255
228 240 255
228 240 255
228 240 255
228 240 255
228 240 255
228 240 255
228 240 255
228 240 255
228 240 255
228 240 255
228 240 255
228 240 255
228 240 255
228 240 255
228 240 255
228 240 255
228 240 255
228 240 255
228 240 255
228 240 255
228 240 255
228 240 255
228 240 255
228 240 255
228 240 255
228 240 255
228 240 255
228 240 255
228 240 255
228 240 255
228 240 255
228 240 255
228 240 255
228 240 255
228 240 255
228 240 255
228 240 255
228 240 255
228 240 255
228 240 255
228 240 255
228 240 255
228 240 255
228 240 255
228 240 255
228 240 255
228 240 255
228 240 255
228 240 255
228 240 255
228 240 255
228 240 255
228 240 255
228 240 255
228 240 255
228 240 255
228 240 255
228 240 255
228 240 255
228 240 255
228 240 255
228 240 255
228 240 255
228 240 255
228 240 255
228 240 255
228 240 255
228 240 255
228 240 255
228 240 255
228 240 255
228 240 255
228 240 255
228 240 255
228 240 255
228 240 255
228 240 255
228 240 255
228 240 255
228 240 255
228 240 255
228 240 255
228 240 255
228 240 255
228 240 255
228 240 255
228 240 255
228 240 255
228 240 255
228 240 255
228 240 255
228 240 255
228 240 255
228 240 255
228 240 255
228 240 255
228 240 255
228 240 255
228 240 255
228 240 255
228 240 255
228 240 255
228 240 255
228 240 255
228 240 255
228 240 255
228 240 255
228 240 255
228 240 255
228 240 255
228 240 255
228 240 255
228 240 255
228 240 255
228 240 255
228 240 255
228 240 255
228 240 255
228 240 255
228 240 255
228 240 255
228 240 255
228 240 255
228 240 255
228 240 255
228 240 255
228 240 255
228 240 255
228 240 255
228 240 255
228 240 255
228 240 255
228 240 255
228 240 255
228 240 255
228 240 255
228 240 255
228 240 255
228 240 255
228 240 255
228 240 255
228 240 255
228 240 255
228 240 255
228 240 255
228 240 255
228 240 255
228 240 255
228 240 255
228 240 255
228 240 255
228 240 255
228 240 255
228 240 255
228 240 255
228 240 255
228 240 255
228 240 255
228 240 255
228 240 255
228 240 255
228 240 255
228 240 255
228 240 255
228 240 255
228 240 255
228 240 255
228 240 255
228 240 255
228 240 255
228 240 255
228 240 255
228 240 255
228 240 255
228 240 255
228 240 255
228 240 255
228 240 255
228 240 255
228 240 255
228 240 255
228 240 255
228 240 255
228 240 255
228 240 255
228 240 255
228 240 255
228 240 255
228 240 255
228 240 255
228 240 255
229 240 255
229 240 255
229 240 255
229 240 255
229 240 255
229 240 255
229 240 255
229 240 255
229 240 255
229 240 255
229 240 255
229 240 255
229 240 255
229 240 255
229 240 255
229 240 255
229 240 255
229 240 255
229 240 255
229 240 255
229 240 255
146 153 167
0 0 42
0 0 46
0 3 56
0 4 65
124 115 110
130 114 81
76 74 75
54 61 31
21 42 0
39 58 2
32 51 0
23 46 0
23 45 0
30 49 4
45 59 10
67 66 30
69 70 33
56 65 24
52 62 19
50 61 20
47 58 14
52 63 20
61 68 27
57 62 26
50 60 22
57 65 28
64 69 33
60 66 27
59 68 25
59 66 29
76 74 40
82 79 43
64 66 31
58 60 27
68 66 38
72 66 40
73 66 37
71 64 30
53 59 15
57 66 16
76 77 27
68 75 23
58 70 17
46 62 14
14 21 38
0 0 42
0 0 42
0 0 42
0 0 42
0 0 40
0 0 42
0 0 42
0 0 42
0 0 42
0 0 42
0 0 42
0 0 42
0 0 42
0 0 42
0 0 42
0 0 42
0 0 42
0 0 42
0 0 42
0 0 42
0 0 42
0 0 42
0 0 42
0 0 42
0 0 42
0 0 42
0 0 42
0 0 42
0 0 42
0 0 42
0 0 42
0 0 42
0 0 42
0 0 42
0 0 42
0 0 42
0 0 42
0 0 42
0 0 42
0 0 42
0 0 42
0 0 42
0 0 42
0 0 42
0 0 42
0 0 42
0 0 42
0 0 42
0 0 42
0 0 42
0 0 42
0 0 42
0 0 42
0 0 42
0 0 42
0 0 42
0 0 42
0 0 42
0 0 42
0 0 42
0 0 42
0 0 42
0 0 42
0 0 42
0 0 42
0 0 42
0 0 42
0 0 42
0 0 42
0 0 42
0 0 42
0 0 42
0 0 42
0 0 42
0 0 40
0 0 42
0 0 43
0 0 45
0 0 45
0 0 43
0 0 42
0 0 43
0 0 45
0 0 45
0 0 45
0 0 45
0 0 48
0 0 44
0 0 48
0 0 52
30 41 36
52 61 15
58 61 22
61 57 25
69 63 32
67 65 34
53 56 19
49 56 16
50 55 17
50 54 18
46 53 16
69 69 38
72 66 39
58 57 25
43 52 9
48 56 13
47 52 14
47 53 16
43 51 13
47 51 15
57 56 22
59 60 22
62 59 23
60 62 21
76 72 35
56 62 23
67 65 30
69 70 40
62 66 26
57 61 21
56 63 18
61 67 21
23 30 36
0 0 47
0 6 45
57 61 52
83 71 41
73 63 33
10 18 42
0 0 42
0 0 42
141 148 161
229 240 255
229 240 255
229 240 255
229 240 255
229 240 255
229 240 255
229 240 255
229 240 255
229 240 255
229 240 255
229 240 255
229 240 255
229 240 255
229 240 255
229 240 255
229 240 255
229 240 255
229 240 255
229 240 255
229 240 255
229 240 255
229 240 255
228 240 255
228 240 255
228 240 255
228 240 255
228 240 255
228 240 255
228 240 255
228 240 255
228 240 255
228 240 255
228 240 255
228 240 255
228 240 255
228 240 255
228 240 255
228 240 255
228 240 255
228 240 255
228 240 255
228 240 255
228 240 255
228 240 255
228 240 255
228 240 255
228 240 255
228 240 255
228 240 255
228 240 255
228 240 255
228 240 255
228 240 255
228 240 255
228 240 255
228 240 255
228 240 255
228 240 255
228 240 255
228 240 255
228 240 255
228 240 255
228 240 255
228 240 255
228 240 255
228 240 255
228 240 255
228 240 255
228 240 255
228 240 255
228 240 255
228 240 255
228 240 255
228 240 255
228 240 255
228 240 255
228 240 255
228 240 255
228 240 255
228 240 255
228 240 255
228 240 255
228 240 255
228 240 255
228 240 255
228 240 255
228 240 255
228 240 255
228 240 255
228 240 255
228 240 255
228 240 255
228 240 255
228 240 255
228 240 255
228 240 255
228 240 255
228 240 255
228 240 255
228 240 255
228 240 255
228 240 255
228 240 255
228 240 255
228 240 255
228 240 255
228 240 255
228 240 255
228 240 255
228 240 255
228 240 255
228 240 255
228 240 255
228 240 255
228 240 255
228 240 255
228 240 255
228 240 255
228 240 255
228 240 255
228 240 255
228 240 255
228 240 255
228 240 255
228 240 255
228 240 255
228 240 255
228 240 255
228 240 255
228 240 255
228 240 255
228 240 255
228 240 255
228 240 255
228 240 255
228 240 255
228 240 255
228 240 255
228 240 255
228 240 255
228 240 255
228 240 255
228 240 255
228 240 255
228 240 255
228 240 255
228 240 255
228 240 255
228 240 255
228 240 255
228 240 255
228 240 255
228 240 255
228 240 255
228 240 255
228 240 255
228 240 255
228 240 255
228 240 255
228 240 255
228 240 255
228 240 255
228 240 255
228 240 255
228 240 255
228 240 255
228 240 255
228 240 255
228 240 255
228 240 255
228 240 255
228 240 255
228 240 255
228 240 255
229 240 255
229 240 255
229 240 255
229 240 255
229 240 255
229 240 255
229 240 255
229 240 255
229 240 255
229 240 255
229 240 255
229 240 255
229 240 255
229 240 255
229 240 255
229 240 255
229 240 255
229 240 255
229 240 255
229 240 255
229 240 255
229 240 255
229 240 255
229 240 255
229 240 255
229 240 255
229 240 255
229 240 255
229 240 255
229 240 255
229 240 255
229 240 255
229 240 255
229 240 255
229 240 255
229 240 255
229 240 255
229 240 255
229 240 255
229 240 255
229 240 255
229 240 255
229 240 255
229 240 255
229 240 255
229 240 255
229 240 255
229 240 255
211 221 236
0 0 42
0 0 43
0 0 49
0 0 58
16 28 77
143 127 114
115 100 70
95 84 54
31 41 9
30 50 0
34 54 0
28 50 0
27 46 0
32 50 0
45 62 13
53 64 17
54 64 18
59 69 25
62 71 28
61 68 30
62 66 31
70 73 34
66 71 32
67 70 35
51 60 22
61 69 29
63 67 32
59 64 29
55 63 25
63 67 31
68 71 37
85 80 46
66 68 35
65 66 34
70 69 41
78 70 45
88 77 49
65 66 28
55 62 18
60 66 19
64 69 17
54 73 16
49 68 9
31 46 28
0 0 45
0 0 40
0 0 42
0 0 42
0 0 42
0 0 42
0 0 42
0 0 42
0 0 42
0 0 42
0 0 42
0 0 42
0 0 42
0 0 42
0 0 42
0 0 42
0 0 42
0 0 42
0 0 42
0 0 42
0 0 42
0 0 42
0 0 42
0 0 42
0 0 42
0 0 42
0 0 42
0 0 42
0 0 42
0 0 42
0 0 42
0 0 42
0 0 42
0 0 42
0 0 42
0 0 42
0 0 42
0 0 42
0 0 42
0 0 42
0 0 42
0 0 42
0 0 42
0 0 42
0 0 42
0 0 42
0 0 42
0 0 42
0 0 42
0 0 42
0 0 42
0 0 42
0 0 42
0 0 42
0 0 42
0 0 42
0 0 42
0 0 42
0 0 42
0 0 42
0 0 42
0 0 42
0 0 42
0 0 42
0 0 42
0 0 42
0 0 42
0 0 42
0 0 42
0 0 42
0 0 42
0 0 42
0 0 42
0 0 42
0 0 42
0 0 42
0 0 43
0 0 44
0 0 44
0 0 44
0 0 44
0 0 43
0 0 44
0 0 45
0 0 45
0 0 45
0 0 45
0 0 42
0 0 49
0 0 45
33 34 55
60 69 39
54 61 15
56 55 19
70 65 36
69 65 33
58 58 24
51 56 17
54 60 22
54 58 22
53 58 21
48 56 18
59 61 27
78 73 44
70 69 40
45 52 13
49 53 14
52 55 17
52 56 19
49 54 19
48 52 16
64 61 29
60 59 21
57 61 20
64 65 30
54 58 21
54 61 19
51 56 18
69 69 31
57 60 17
53 60 15
50 62 13
49 58 34
0 0 45
0 0 41
27 30 52
82 72 44
95 76 49
49 51 28
0 0 42
0 0 42
0 0 42
207 217 232
229 240 255
229 240 255
229 240 255
229 240 255
229 240 255
229 240 255
229 240 255
229 240 255
229 240 255
229 240 255
229 240 255
229 240 255
229 240 255
229 240 255
229 240 255
229 240 255
229 240 255
229 240 255
229 240 255
229 240 255
229 240 255
229 240 255
229 240 255
229 240 255
229 240 255
229 240 255
229 240 255
229 240 255
229 240 255
229 240 255
229 240 255
229 240 255
229 240 255
229 240 255
229 240 255
229 240 255
229 240 255
229 240 255
229 240 255
229 240 255
229 240 255
229 240 255
229 240 255
229 240 255
229 240 255
229 240 255
229 240 255
229 240 255
229 240 255
228 240 255
228 240 255
228 240 255
228 240 255
228 240 255
228 240 255
228 240 255
228 240 255
228 240 255
228 240 255
228 240 255
228 240 255
228 240 255
228 240 255
228 240 255
228 240 255
228 240 255
228 240 255
228 240 255
228 240 255
228 240 255
228 240 255
228 240 255
228 240 255
228 240 255
228 240 255
228 240 255
228 240 255
228 240 255
228 240 255
228 240 255
228 240 255
228 240 255
228 240 255
228 240 255
228 240 255
228 240 255
228 240 255
228 240 255
228 240 255
228 240 255
228 240 255
228 240 255
228 240 255
228 240 255
228 240 255
228 240 255
228 240 255
228 240 255
228 240 255
228 240 255
228 240 255
228 240 255
228 240 255
228 240 255
228 240 255
228 240 255
228 240 255
228 240 255
228 240 255
228 240 255
228 240 255
228 240 255
228 240 255
228 240 255
228 240 255
228 240 255
228 240 255
228 240 255
228 240 255
228 240 255
228 240 255
228 240 255
228 240 255
228 240 255
228 240 255
228 240 255
228 240 255
228 240 255
228 240 255
228 240 255
228 240 255
228 240 255
228 240 255
228 240 255
228 240 255
228 240 255
228 240 255
228 240 255
228 240 255
228 240 255
228 240 255
228 240 255
228 240 255
228 240 255
228 240 255
228 240 255
228 240 255
228 240 255
228 240 255
228 240 255
228 240 255
228 240 255
228 240 255
229 240 255
229 240 255
229 240 255
229 240 255
229 240 255
229 240 255
229 240 255
229 240 255
229 240 255
229 240 255
229 240 255
229 240 255
229 240 255
229 240 255
229 240 255
229 240 255
229 240 255
229 240 255
229 240 255
229 240 255
229 240 255
229 240 255
229 240 255
229 240 255
229 240 255
229 240 255
229 240 255
229 240 255
229 240 255
229 240 255
229 240 255
229 240 255
229 240 255
229 240 255
229 240 255
229 240 255
229 240 255
229 240 255
229 240 255
229 240 255
229 240 255
229 240 255
229 240 255
229 240 255
229 240 255
229 240 255
229 240 255
229 240 255
229 240 255
229 240 255
229 240 255
229 240 255
229 240 255
229 240 255
229 240 255
229 240 255
229 240 255
229 240 255
229 240 255
229 240 255
229 240 255
229 240 255
229 240 255
229 240 255
229 240 255
229 240 255
229 240 255
229 240 255
229 240 255
229 240 255
105 110 123
0 0 42
0 0 45
0 0 52
0 3 63
59 53 76
145 119 87
138 113 76
89 73 46
39 52 20
27 51 0
33 56 5
34 52 0
41 53 0
43 57 2
53 67 17
59 75 26
50 63 16
59 67 26
60 65 28
67 71 36
70 72 36
60 68 29
57 65 26
59 65 27
70 73 37
63 68 32
62 65 30
56 62 26
61 63 30
65 70 36
80 74 39
68 70 39
73 74 44
73 70 43
74 65 40
90 79 52
67 60 27
62 61 21
72 67 28
59 67 19
46 69 11
21 35 35
11 19 40
0 0 40
0 0 42
0 0 42
0 0 42
0 0 42
0 0 42
0 0 42
0 0 42
0 0 42
0 0 42
0 0 42
0 0 42
0 0 42
0 0 42
0 0 42
0 0 42
0 0 42
0 0 42
0 0 42
0 0 42
0 0 42
0 0 42
0 0 42
0 0 42
0 0 42
0 0 42
0 0 42
0 0 42
0 0 42
0 0 42
0 0 42
0 0 42
0 0 42
0 0 42
0 0 42
0 0 42
0 0 42
0 0 42
0 0 42
0 0 42
0 0 42
0 0 42
0 0 42
0 0 42
0 0 42
0 0 42
0 0 42
0 0 42
0 0 42
0 0 42
0 0 42
0 0 42
0 0 42
0 0 42
0 0 42
0 0 42
0 0 42
0 0 42
0 0 42
0 0 42
0 0 42
0 0 42
0 0 42
0 0 42
0 0 42
0 0 42
0 0 42
0 0 42
0 0 42
0 0 42
0 0 42
0 0 42
0 0 42
0 0 42
0 0 42
0 0 42
0 0 42
0 0 42
0 0 42
0 0 42
0 0 44
0 0 45
0 0 45
0 0 45
0 0 45
0 0 45
0 0 45
0 0 42
0 0 44
32 33 56
84 87 57
63 73 30
62 66 27
65 62 31
67 63 32
63 64 29
50 56 18
52 59 19
52 57 19
51 58 17
58 61 26
49 58 20
56 58 23
80 76 48
73 70 41
54 58 23
53 56 20
57 59 23
66 62 28
61 57 24
65 61 27
68 63 26
55 60 21
56 60 17
54 60 20
61 65 25
62 65 27
52 63 20
65 69 30
42 54 10
47 60 10
44 58 14
19 24 43
0 0 41
0 2 45
55 57 53
86 73 43
76 65 36
17 27 33
0 0 42
0 0 41
99 104 118
229 240 255
229 240 255
229 240 255
229 240 255
229 240 255
229 240 255
229 240 255
229 240 255
229 240 255
229 240 255
229 240 255
229 240 255
229 240 255
229 240 255
229 240 255
229 240 255
229 240 255
229 240 255
229 240 255
229 240 255
229 240 255
229 240 255
229 240 255
229 240 255
229 240 255
229 240 255
229 240 255
229 240 255
229 240 255
229 240 255
229 240 255
229 240 255
229 240 255
229 240 255
229 240 255
229 240 255
229 240 255
229 240 255
229 240 255
229 240 255
229 240 255
229 240 255
229 240 255
229 240 255
229 240 255
229 240 255
229 240 255
229 240 255
229 240 255
229 240 255
229 240 255
229 240 255
229 240 255
229 240 255
229 240 255
229 240 255
229 240 255
229 240 255
229 240 255
229 240 255
229 240 255
229 240 255
229 240 255
229 240 255
229 240 255
229 240 255
229 240 255
229 240 255
229 240 255
229 240 255
229 240 255
228 240 255
228 240 255
228 240 255
228 240 255
228 240 255
228 240 255
228 240 255
228 240 255
228 240 255
228 240 255
228 240 255
228 240 255
228 240 255
228 240 255
228 240 255
228 240 255
228 240 255
228 240 255
228 240 255
228 240 255
228 240 255
228 240 255
228 240 255
228 240 255
228 240 255
228 240 255
228 240 255
228 240 255
228 240 255
228 240 255
228 240 255
228 240 255
228 240 255
228 240 255
228 240 255
228 240 255
228 240 255
228 240 255
228 240 255
228 240 255
228 240 255
228 240 255
228 240 255
228 240 255
228 240 255
228 240 255
228 240 255
228 240 255
228 240 255
228 240 255
228 240 255
228 240 255
228 240 255
228 240 255
228 240 255
228 240 255
228 240 255
228 240 255
228 240 255
228 240 255
228 240 255
228 240 255
228 240 255
228 240 255
229 240 255
229 240 255
229 240 255
229 240 255
229 240 255
229 240 255
229 240 255
229 240 255
229 240 255
229 240 255
229 240 255
229 240 255
229 240 255
229 240 255
229 240 255
229 240 255
229 240 255
229 240 255
229 240 255
229 240 255
229 240 255
229 240 255
229 240 255
229 240 255
229 240 255
229 240 255
229 240 255
229 240 255
229 240 255
229 240 255
229 240 255
229 240 255
229 240 255
229 240 255
229 240 255
229 240 255
229 240 255
229 240 255
229 240 255
229 240 255
229 240 255
229 240 255
229 240 255
229 240 255
229 240 255
229 240 255
229 240 255
229 240 255
229 240 255
229 240 255
229 240 255
229 240 255
229 240 255
229 240 255
229 240 255
229 240 255
229 240 255
229 240 255
229 240 255
229 240 255
229 240 255
229 240 255
229 240 255
229 240 255
229 240 255
229 240 255
229 240 255
229 240 255
229 240 255
229 240 255
229 240 255
229 240 255
229 240 255
229 240 255
229 240 255
229 240 255
229 240 255
229 240 255
229 240 255
229 240 255
229 240 255
229 240 255
229 240 255
229 240 255
229 240 255
229 240 255
229 240 255
229 240 255
229 240 255
190 199 213
0 0 42
0 0 42
0 0 48
0 0 57
0 0 55
85 76 87
146 120 84
147 123 90
98 87 57
42 53 16
40 62 10
47 63 9
41 55 3
42 57 0
45 58 8
57 69 24
53 65 22
61 68 28
59 66 28
63 70 33
68 71 37
64 71 36
62 69 33
63 67 30
71 75 38
62 67 29
63 69 32
62 67 31
66 68 34
74 72 41
78 74 43
78 73 43
79 77 47
76 67 43
88 77 53
82 75 46
87 72 42
75 67 35
81 67 35
50 59 12
33 56 3
3 9 44
0 0 41
0 0 42
0 0 42
0 0 42
0 0 42
0 0 42
0 0 42
0 0 42
0 0 42
0 0 42
0 0 42
0 0 42
0 0 42
0 0 42
0 0 42
0 0 42
0 0 42
0 0 42
0 0 42
0 0 42
0 0 42
0 0 42
0 0 42
0 0 42
0 0 42
0 0 42
0 0 42
0 0 42
0 0 42
0 0 42
0 0 42
0 0 42
0 0 42
0 0 42
0 0 42
0 0 42
0 0 42
0 0 42
0 0 42
0 0 42
0 0 42
0 0 42
0 0 42
0 0 42
0 0 42
0 0 42
0 0 42
0 0 42
0 0 42
0 0 42
0 0 42
0 0 42
0 0 42
0 0 42
0 0 42
0 0 42
0 0 42
0 0 42
0 0 42
0 0 42
0 0 42
0 0 42
0 0 42
0 0 42
0 0 42
0 0 42
0 0 42
0 0 42
0 0 42
0 0 42
0 0 42
0 0 42
0 0 42
0 0 42
0 0 42
0 0 42
0 0 42
0 0 42
0 0 42
0 0 42
0 0 42
0 0 44
0 0 45
0 0 45
0 0 45
0 0 45
0 0 45
0 0 45
0 0 44
20 18 48
82 79 66
75 76 40
60 69 24
71 72 35
68 66 33
60 62 27
55 61 25
55 62 23
54 60 22
53 57 19
51 58 19
55 59 24
52 59 23
56 59 23
82 77 47
74 70 39
71 70 38
66 66 34
68 63 33
61 60 28
58 61 25
66 65 32
64 61 28
58 63 23
64 66 28
72 73 28
67 69 30
69 71 36
56 64 20
47 61 13
42 56 9
43 58 29
13 24 49
0 0 45
0 0 43
9 14 49
70 67 36
88 73 43
46 49 24
0 0 43
0 0 42
0 3 42
190 199 213
229 240 255
229 240 255
229 240 255
229 240 255
229 240 255
229 240 255
229 240 255
229 240 255
229 240 255
229 240 255
229 240 255
229 240 255
229 240 255
229 240 255
229 240 255
229 240 255
229 240 255
229 240 255
229 240 255
229 240 255
229 240 255
229 240 255
229 240 255
229 240 255
229 240 255
229 240 255
229 240 255
229 240 255
229 240 255
229 240 255
229 240 255
229 240 255
229 240 255
229 240 255
229 240 255
229 240 255
229 240 255
229 240 255
229 240 255
229 240 255
229 240 255
229 240 255
229 240 255
229 240 255
229 240 255
229 240 255
229 240 255
229 240 255
229 240 255
229 240 255
229 240 255
229 240 255
229 240 255
229 240 255
229 240 255
229 240 255
229 240 255
229 240 255
229 240 255
229 240 255
229 240 255
229 240 255
229 240 255
229 240 255
229 240 255
229 240 255
229 240 255
229 240 255
229 240 255
229 240 255
229 240 255
229 240 255
229 240 255
229 240 255
229 240 255
229 240 255
229 240 255
229 240 255
229 240 255
229 240 255
229 240 255
229 240 255
229 240 255
229 240 255
229 240 255
229 240 255
229 240 255
229 240 255
228 240 255
228 240 255
228 240 255
228 240 255
228 240 255
228 240 255
228 240 255
228 240 255
228 240 255
228 240 255
228 240 255
228 240 255
228 240 255
228 240 255
228 240 255
228 240 255
228 240 255
228 240 255
228 240 255
228 240 255
228 240 255
228 240 255
228 240 255
228 240 255
228 240 255
228 240 255
228 240 255
228 240 255
228 240 255
228 240 255
229 240 255
229 240 255
229 240 255
229 240 255
229 240 255
229 240 255
229 240 255
229 240 255
229 240 255
229 240 255
229 240 255
229 240 255
229 240 255
229 240 255
229 240 255
229 240 255
229 240 255
229 240 255
229 240 255
229 240 255
229 240 255
229 240 255
229 240 255
229 240 255
229 240 255
229 240 255
229 240 255
229 240 255
229 240 255
229 240 255
229 240 255
229 240 255
229 240 255
229 240 255
229 240 255
229 240 255
229 240 255
229 240 255
229 240 255
229 240 255
229 240 255
229 240 255
229 240 255
229 240 255
229 240 255
229 240 255
229 240 255
229 240 255
229 240 255
229 240 255
229 240 255
229 240 255
229 240 255
229 240 255
229 240 255
229 240 255
229 240 255
229 240 255
229 240 255
229 240 255
229 240 255
229 240 255
229 240 255
229 240 255
229 240 255
229 240 255
229 240 255
229 240 255
229 240 255
229 240 255
229 240 255
229 240 255
229 240 255
229 240 255
229 240 255
229 240 255
229 240 255
229 240 255
229 240 255
229 240 255
229 240 255
229 240 255
229 240 255
229 240 255
229 240 255
229 240 255
229 240 255
229 240 255
229 240 255
229 240 255
229 240 255
229 240 255
229 240 255
229 240 255
229 240 255
229 240 255
229 240 255
229 240 255
229 240 255
229 240 255
229 240 255
229 240 255
229 240 255
229 240 255
229 240 255
229 240 255
225 236 252
79 83 97
0 0 42
0 0 44
0 0 49
0 0 50
2 11 56
140 117 93
152 126 85
146 119 83
95 81 56
45 58 17
57 71 21
59 70 23
39 55 0
36 52 0
43 53 6
45 59 13
48 62 16
46 58 16
58 69 27
63 69 31
65 69 36
66 70 36
73 75 39
72 76 38
65 72 35
61 69 31
66 71 33
67 65 31
77 73 41
84 79 47
83 78 45
69 69 38
69 65 39
85 74 50
83 74 45
79 66 37
89 71 46
87 74 45
54 61 16
35 56 2
12 22 37
0 0 42
0 0 38
0 0 44
0 0 42
0 0 42
0 0 42
0 0 42
0 0 42
0 0 42
0 0 42
0 0 42
0 0 42
0 0 42
0 0 42
0 0 42
0 0 42
0 0 42
0 0 42
0 0 42
0 0 42
0 0 42
0 0 42
0 0 42
0 0 42
0 0 42
0 0 42
0 0 42
0 0 42
0 0 42
0 0 42
0 0 42
0 0 42
0 0 42
0 0 42
0 0 42
0 0 42
0 0 42
0 0 42
0 0 42
0 0 42
0 0 42
0 0 42
0 0 42
0 0 42
0 0 42
0 0 42
0 0 42
0 0 42
0 0 42
0 0 42
0 0 42
0 0 42
0 0 42
0 0 42
0 0 42
0 0 42
0 0 42
0 0 42
0 0 42
0 0 42
0 0 42
0 0 42
0 0 42
0 0 42
0 0 42
0 0 42
0 0 42
0 0 42
0 0 42
0 0 42
0 0 42
0 0 42
0 0 42
0 0 42
0 0 43
0 0 42
0 0 42
0 0 42
0 0 42
0 0 42
0 0 42
0 0 45
0 0 45
0 0 45
0 0 45
0 0 45
0 0 46
0 0 47
0 0 41
46 40 60
111 106 72
71 78 37
68 72 33
64 67 29
54 61 21
59 66 29
57 62 27
59 63 31
60 61 28
63 63 31
67 67 36
59 61 28
58 60 26
76 73 45
83 79 48
75 75 40
75 76 43
65 65 34
67 65 32
65 66 31
67 66 32
68 68 33
68 70 27
68 65 26
75 72 40
83 75 43
63 64 28
57 61 25
58 65 18
43 59 13
39 54 34
13 21 55
0 0 44
0 0 45
0 0 47
22 27 50
77 70 38
83 69 39
19 31 33
0 0 42
4 7 40
79 83 97
229 240 255
229 240 255
229 240 255
229 240 255
229 240 255
229 240 255
229 240 255
229 240 255
229 240 255
229 240 255
229 240 255
229 240 255
229 240 255
229 240 255
229 240 255
229 240 255
229 240 255
229 240 255
229 240 255
229 240 255
229 240 255
229 240 255
229 240 255
229 240 255
229 240 255
229 240 255
229 240 255
229 240 255
229 240 255
229 240 255
229 240 255
229 240 255
229 240 255
229 240 255
229 240 255
229 240 255
229 240 255
229 240 255
229 240 255
229 240 255
229 240 255
229 240 255
229 240 255
229 240 255
229 240 255
229 240 255
229 240 255
229 240 255
229 240 255
229 240 255
229 240 255
229 240 255
229 240 255
229 240 255
229 240 255
229 240 255
229 240 255
229 240 255
229 240 255
229 240 255
229 240 255
229 240 255
229 240 255
229 240 255
229 240 255
229 240 255
229 240 255
229 240 255
229 240 255
229 240 255
229 240 255
229 240 255
229 240 255
229 240 255
229 240 255
229 240 255
229 240 255
229 240 255
229 240 255
229 240 255
229 240 255
229 240 255
229 240 255
229 240 255
229 240 255
229 240 255
229 240 255
229 240 255
229 240 255
229 240 255
229 240 255
229 240 255
229 240 255
229 240 255
229 240 255
229 240 255
229 240 255
229 240 255
229 240 255
229 240 255
229 240 255
229 240 255
229 240 255
229 240 255
229 240 255
229 240 255
229 240 255
229 240 255
228 240 255
228 240 255
228 240 255
228 240 255
228 240 255
229 240 255
229 240 255
229 240 255
229 240 255
229 240 255
229 240 255
229 240 255
229 240 255
229 240 255
229 240 255
229 240 255
229 240 255
229 240 255
229 240 255
229 240 255
229 240 255
229 240 255
229 240 255
229 240 255
229 240 255
229 240 255
229 240 255
229 240 255
229 240 255
229 240 255
229 240 255
229 240 255
229 240 255
229 240 255
229 240 255
229 240 255
229 240 255
229 240 255
229 240 255
229 240 255
229 240 255
229 240 255
229 240 255
229 240 255
229 240 255
229 240 255
229 240 255
229 240 255
229 240 255
229 240 255
229 240 255
229 240 255
229 240 255
229 240 255
229 240 255
229 240 255
229 240 255
229 240 255
229 240 255
229 240 255
229 240 255
229 240 255
229 240 255
229 240 255
229 240 255
229 240 255
229 240 255
229 240 255
229 240 255
229 240 255
229 240 255
229 240 255
229 240 255
229 240 255
229 240 255
229 240 255
229 240 255
229 240 255
229 240 255
229 240 255
229 240 255
229 240 255
229 240 255
229 240 255
229 240 255
229 240 255
229 240 255
229 240 255
229 240 255
229 240 255
229 240 255
229 240 255
229 240 255
229 240 255
229 240 255
229 240 255
229 240 255
229 240 255
229 240 255
229 240 255
229 240 255
229 240 255
229 240 255
229 240 255
229 240 255
229 240 255
229 240 255
229 240 255
229 240 255
229 240 255
229 240 255
229 240 255
229 240 255
229 240 255
229 240 255
229 240 255
229 240 255
229 240 255
179 187 201
0 0 42
0 0 43
0 0 48
0 0 51
0 0 53
102 89 87
147 121 81
145 129 77
106 92 55
66 66 31
54 66 21
58 70 21
41 59 0
34 51 0
35 50 0
32 45 0
35 51 8
43 56 11
53 65 21
65 72 31
69 72 37
74 74 40
74 75 41
71 75 38
66 73 33
63 72 34
66 71 32
72 70 35
83 77 45
81 75 42
74 71 36
73 72 39
67 67 39
77 71 46
77 73 43
58 59 22
71 66 33
76 69 34
59 67 21
44 62 8
13 24 38
0 0 44
0 0 42
0 0 40
0 0 42
0 0 42
0 0 42
0 0 42
0 0 42
0 0 42
0 0 42
0 0 42
0 0 42
0 0 42
0 0 42
0 0 42
0 0 42
0 0 42
0 0 42
0 0 42
0 0 42
0 0 42
0 0 42
0 0 42
0 0 42
0 0 42
0 0 42
0 0 42
0 0 42
0 0 42
0 0 42
0 0 42
0 0 42
0 0 42
0 0 42
0 0 42
0 0 42
0 0 42
0 0 42
0 0 42
0 0 42
0 0 42
0 0 42
0 0 42
0 0 42
0 0 42
0 0 42
0 0 42
0 0 42
0 0 42
0 0 42
0 0 42
0 0 42
0 0 42
0 0 42
0 0 42
0 0 42
0 0 42
0 0 42
0 0 42
0 0 42
0 0 42
0 0 42
0 0 42
0 0 42
0 0 42
0 0 42
0 0 42
0 0 42
0 0 42
0 0 42
0 0 42
0 0 42
0 0 42
0 0 42
0 0 44
0 0 44
0 0 43
0 0 42
0 0 42
0 0 42
0 0 42
0 0 42
0 0 44
0 0 44
0 0 45
0 0 45
0 0 50
0 0 52
6 7 54
86 78 77
105 94 60
84 85 43
86 87 50
76 78 43
64 67 32
64 65 33
64 65 34
63 63 33
70 69 38
82 77 46
77 74 43
78 76 48
74 72 43
84 78 50
82 80 47
73 73 39
83 81 50
75 73 42
78 71 39
83 72 42
73 68 35
52 52 33
79 72 47
69 64 29
74 69 36
84 76 46
68 65 32
52 59 19
51 63 19
41 61 24
13 18 51
0 0 44
0 0 44
0 0 46
0 0 44
38 42 48
88 74 45
53 55 27
3 6 42
0 0 42
2 3 42
163 171 185
229 240 255
229 240 255
229 240 255
229 240 255
229 240 255
229 240 255
229 240 255
229 240 255
229 240 255
229 240 255
229 240 255
229 240 255
229 240 255
229 240 255
229 240 255
229 240 255
229 240 255
229 240 255
229 240 255
229 240 255
229 240 255
229 240 255
229 240 255
229 240 255
229 240 255
229 240 255
229 240 255
229 240 255
229 240 255
229 240 255
229 240 255
229 240 255
229 240 255
229 240 255
229 240 255
229 240 255
229 240 255
229 240 255
229 240 255
229 240 255
229 240 255
229 240 255
229 240 255
229 240 255
229 240 255
229 240 255
229 240 255
229 240 255
229 240 255
229 240 255
229 240 255
229 240 255
229 240 255
229 240 255
229 240 255
229 240 255
229 240 255
229 240 255
229 240 255
229 240 255
229 240 255
229 240 255
229 240 255
229 240 255
229 240 255
229 240 255
229 240 255
229 240 255
229 240 255
229 240 255
229 240 255
229 240 255
229 240 255
229 240 255
229 240 255
229 240 255
229 240 255
229 240 255
229 240 255
229 240 255
229 240 255
229 240 255
229 240 255
229 240 255
229 240 255
229 240 255
229 240 255
229 240 255
229 240 255
229 240 255
229 240 255
229 240 255
229 240 255
229 240 255
229 240 255
229 240 255
229 240 255
229 240 255
229 240 255
229 240 255
229 240 255
229 240 255
229 240 255
229 240 255
229 240 255
229 240 255
229 240 255
229 240 255
229 240 255
229 240 255
229 240 255
229 240 255
229 240 255
229 240 255
229 240 255
229 240 255
229 240 255
229 240 255
229 240 255
229 240 255
229 240 255
229 240 255
229 240 255
229 240 255
229 240 255
229 240 255
229 240 255
229 240 255
229 240 255
229 240 255
229 240 255
229 240 255
229 240 255
229 240 255
229 240 255
229 240 255
229 240 255
229 240 255
229 240 255
229 240 255
229 240 255
229 240 255
229 240 255
229 240 255
229 240 255
229 240 255
229 240 255
229 240 255
229 240 255
229 240 255
229 240 255
229 240 255
229 240 255
229 240 255
229 240 255
229 240 255
229 240 255
229 240 255
229 240 255
229 240 255
229 240 255
229 240 255
229 240 255
229 240 255
229 240 255
229 240 255
229 240 255
229 240 255
229 240 255
229 240 255
229 240 255
229 240 255
229 240 255
229 240 255
229 240 255
229 240 255
229 240 255
229 240 255
229 240 255
229 240 255
229 240 255
229 240 255
229 240 255
229 240 255
229 240 255
229 240 255
229 240 255
229 240 255
229 240 255
229 240 255
229 240 255
229 240 255
229 240 255
229 240 255
229 240 255
229 240 255
229 240 255
229 240 255
229 240 255
229 240 255
229 240 255
229 240 255
229 240 255
229 240 255
229 240 255
229 240 255
229 240 255
229 240 255
229 240 255
229 240 255
229 240 255
229 240 255
229 240 255
229 240 255
229 240 255
229 240 255
229 240 255
229 240 255
229 240 255
229 240 255
229 240 255
229 240 255
229 240 255
229 240 255
229 240 255
229 240 255
228 239 254
79 83 97
0 0 42
0 0 45
0 0 53
0 0 55
36 37 73
152 128 103
149 125 85
143 119 87
104 89 59
51 56 19
55 61 19
43 58 8
44 60 7
34 50 3
30 50 0
34 52 9
59 70 31
59 66 30
67 71 34
74 75 43
74 74 42
72 73 39
77 77 42
74 78 38
69 78 34
71 76 34
75 73 35
81 76 43
82 76 44
79 76 42
77 76 43
71 69 40
73 68 41
73 69 41
55 60 24
57 64 23
59 63 20
58 69 19
48 66 10
19 38 37
0 2 44
0 0 45
0 0 41
0 0 40
0 0 42
0 0 42
0 0 42
0 0 42
0 0 42
0 0 42
0 0 42
0 0 42
0 0 42
0 0 42
0 0 42
0 0 42
0 0 42
0 0 42
0 0 42
0 0 42
0 0 42
0 0 42
0 0 42
0 0 42
0 0 42
0 0 42
0 0 42
0 0 42
0 0 42
0 0 42
0 0 42
0 0 42
0 0 42
0 0 42
0 0 42
0 0 42
0 0 42
0 0 42
0 0 42
0 0 42
0 0 42
0 0 42
0 0 42
0 0 42
0 0 42
0 0 42
0 0 42
0 0 42
0 0 42
0 0 42
0 0 42
0 0 42
0 0 42
0 0 42
0 0 42
0 0 42
0 0 42
0 0 42
0 0 42
0 0 42
0 0 42
0 0 42
0 0 42
0 0 42
0 0 42
0 0 42
0 0 42
0 0 42
0 0 42
0 0 42
0 0 42
0 0 42
0 0 42
0 0 42
0 0 42
0 0 42
0 0 45
0 0 43
0 0 42
0 0 42
0 0 42
0 0 42
0 0 45
0 0 46
0 0 44
0 0 49
0 0 53
0 0 57
49 49 73
134 122 95
112 98 70
76 78 39
68 71 36
66 70 36
67 71 37
73 74 43
78 77 45
81 79 46
82 79 45
85 80 45
84 79 48
83 80 51
82 79 50
81 77 47
97 89 58
87 79 50
87 81 51
75 74 40
80 72 37
77 68 39
54 54 35
85 79 46
78 71 41
77 71 41
79 70 42
82 73 44
53 58 18
48 61 15
42 58 14
20 35 61
0 0 45
0 0 44
0 0 45
0 0 44
5 6 45
71 65 47
81 69 40
22 32 35
0 0 42
0 0 42
68 72 86
224 235 250
229 240 255
229 240 255
229 240 255
229 240 255
229 240 255
229 240 255
229 240 255
229 240 255
229 240 255
229 240 255
229 240 255
229 240 255
229 240 255
229 240 255
229 240 255
229 240 255
229 240 255
229 240 255
229 240 255
229 240 255
229 240 255
229 240 255
229 240 255
229 240 255
229 240 255
229 240 255
229 240 255
229 240 255
229 240 255
229 240 255
229 240 255
229 240 255
229 240 255
229 240 255
229 240 255
229 240 255
229 240 255
229 240 255
229 240 255
229 240 255
229 240 255
229 240 255
229 240 255
229 240 255
229 240 255
229 240 255
229 240 255
229 240 255
229 240 255
229 240 255
229 240 255
229 240 255
229 240 255
229 240 255
229 240 255
229 240 255
229 240 255
229 240 255
229 240 255
229 240 255
229 240 255
229 240 255
229 240 255
229 240 255
229 240 255
229 240 255
229 240 255
229 240 255
229 240 255
229 240 255
229 240 255
229 240 255
229 240 255
229 240 255
229 240 255
229 240 255
229 240 255
229 240 255
229 240 255
229 240 255
229 240 255
229 240 255
229 240 255
229 240 255
229 240 255
229 240 255
229 240 255
229 240 255
229 240 255
229 240 255
229 240 255
229 240 255
229 240 255
229 240 255
229 240 255
229 240 255
229 240 255
229 240 255
229 240 255
229 240 255
229 240 255
229 240 255
229 240 255
229 240 255
229 240 255
229 240 255
229 240 255
229 240 255
229 240 255
229 240 255
229 240 255
229 240 255
229 240 255
229 240 255
229 240 255
229 240 255
229 240 255
229 240 255
229 240 255
229 240 255
229 240 255
229 240 255
229 240 255
229 240 255
229 240 255
229 240 255
229 240 255
229 240 255
229 240 255
229 240 255
229 240 255
229 240 255
229 240 255
229 240 255
229 240 255
229 240 255
229 240 255
229 240 255
229 240 255
229 240 255
229 240 255
229 240 255
229 240 255
229 240 255
229 240 255
229 240 255
229 240 255
229 240 255
229 240 255
229 240 255
229 240 255
229 240 255
229 240 255
229 240 255
229 240 255
229 240 255
229 240 255
229 240 255
229 240 255
229 240 255
229 240 255
229 240 255
229 240 255
229 240 255
229 240 255
229 240 255
229 240 255
229 240 255
229 240 255
229 240 255
229 240 255
229 240 255
229 240 255
229 240 255
229 240 255
229 240 255
229 240 255
229 240 255
229 240 255
229 240 255
229 240 255
229 240 255
229 240 255
229 240 255
229 240 255
229 240 255
229 240 255
229 240 255
229 240 255
229 240 255
229 240 255
229 240 255
229 240 255
229 240 255
229 240 255
229 240 255
229 240 255
229 240 255
229 240 255
229 240 255
229 240 255
229 240 255
229 240 255
229 240 255
229 240 255
229 240 255
229 240 255
229 240 255
229 240 255
229 240 255
229 240 255
229 240 255
229 240 255
229 240 255
229 240 255
229 240 255
229 240 255
229 240 255
229 240 255
229 240 255
229 240 255
229 240 255
229 240 255
229 240 255
229 240 255
229 240 255
229 240 255
168 176 190
0 0 42
0 0 42
0 0 48
0 0 51
0 5 61
131 108 101
154 125 95
151 126 96
122 103 70
72 69 36
61 63 24
56 63 20
47 60 10
44 59 13
33 52 0
32 51 0
40 47 16
61 66 34
62 69 32
66 71 33
71 71 38
71 74 40
77 76 43
80 77 44
71 75 38
71 77 34
71 72 32
80 76 44
79 75 42
79 75 42
77 75 41
75 73 40
68 68 35
64 64 33
55 58 24
57 63 26
51 60 13
57 70 18
55 71 12
29 49 31
0 6 42
0 0 41
0 0 43
0 0 40
0 0 42
0 0 42
0 0 42
0 0 42
0 0 42
0 0 42
0 0 42
0 0 42
0 0 42
0 0 42
0 0 42
0 0 42
0 0 42
0 0 42
0 0 42
0 0 42
0 0 42
0 0 42
0 0 42
0 0 42
0 0 42
0 0 42
0 0 42
0 0 42
0 0 42
0 0 42
0 0 42
0 0 42
0 0 42
0 0 42
0 0 42
0 0 42
0 0 42
0 0 42
0 0 42
0 0 42
0 0 42
0 0 42
0 0 42
0 0 42
0 0 42
0 0 42
0 0 42
0 0 42
0 0 42
0 0 42
0 0 42
0 0 42
0 0 42
0 0 42
0 0 42
0 0 42
0 0 42
0 0 42
0 0 42
0 0 42
0 0 42
0 0 42
0 0 42
0 0 42
0 0 42
0 0 42
0 0 42
0 0 42
0 0 42
0 0 42
0 0 42
0 0 42
0 0 42
0 0 42
0 0 42
0 0 42
0 0 45
0 0 43
0 0 43
0 0 45
0 0 43
0 0 44
0 0 46
0 0 47
0 0 48
0 0 52
0 0 56
0 0 63
114 104 93
163 141 104
117 107 75
68 72 37
75 76 42
77 79 44
81 82 49
83 81 52
93 87 55
85 81 48
85 82 49
87 83 50
89 84 53
86 84 55
81 79 48
86 82 52
83 78 48
87 79 50
73 71 40
76 73 42
80 71 41
73 69 38
81 75 44
89 80 47
70 66 36
83 73 46
84 74 47
61 62 29
49 61 18
43 59 10
25 39 49
3 6 48
0 0 47
0 0 45
0 0 45
0 0 44
49 44 41
103 85 57
61 57 32
2 5 41
0 0 42
0 0 42
157 164 178
229 240 255
229 240 255
229 240 255
229 240 255
229 240 255
229 240 255
229 240 255
229 240 255
229 240 255
229 240 255
229 240 255
229 240 255
229 240 255
229 240 255
229 240 255
229 240 255
229 240 255
229 240 255
229 240 255
229 240 255
229 240 255
229 240 255
229 240 255
229 240 255
229 240 255
229 240 255
229 240 255
229 240 255
229 240 255
229 240 255
229 240 255
229 240 255
229 240 255
229 240 255
229 240 255
229 240 255
229 240 255
229 240 255
229 240 255
229 240 255
229 240 255
229 240 255
229 240 255
229 240 255
229 240 255
229 240 255
229 240 255
229 240 255
229 240 255
229 240 255
229 240 255
229 240 255
229 240 255
229 240 255
229 240 255
229 240 255
229 240 255
229 240 255
229 240 255
229 240 255
229 240 255
229 240 255
229 240 255
229 240 255
229 240 255
229 240 255
229 240 255
229 240 255
229 240 255
229 240 255
229 240 255
229 240 255
229 240 255
229 240 255
229 240 255
229 240 255
229 240 255
229 240 255
229 240 255
229 240 255
229 240 255
229 240 255
229 240 255
229 240 255
229 240 255
229 240 255
229 240 255
229 240 255
229 240 255
229 240 255
229 240 255
229 240 255
229 240 255
229 240 255
229 240 255
229 240 255
229 240 255
229 240 255
229 240 255
229 240 255
229 240 255
229 240 255
229 240 255
229 240 255
229 240 255
229 240 255
229 240 255
229 240 255
229 240 255
229 240 255
229 240 255
229 240 255
229 240 255
229 240 255
229 240 255
229 240 255
229 240 255
229 240 255
229 240 255
229 240 255
229 240 255
229 240 255
229 240 255
229 240 255
229 240 255
229 240 255
229 240 255
229 240 255
229 240 255
229 240 255
229 240 255
229 240 255
229 240 255
229 240 255
229 240 255
229 240 255
229 240 255
229 240 255
229 240 255
229 240 255
229 240 255
229 240 255
229 240 255
229 240 255
229 240 255
229 240 255
229 240 255
229 240 255
229 240 255
229 240 255
229 240 255
229 240 255
229 240 255
229 240 255
229 240 255
229 240 255
229 240 255
229 240 255
229 240 255
229 240 255
229 240 255
229 240 255
229 240 255
229 240 255
229 240 255
229 240 255
229 240 255
229 240 255
229 240 255
229 240 255
229 240 255
229 240 255
229 240 255
229 240 255
229 240 255
229 240 255
229 240 255
229 240 255
229 240 255
229 240 255
229 240 255
229 240 255
229 240 255
229 240 255
229 240 255
229 240 255
229 240 255
229 240 255
229 240 255
229 240 255
229 240 255
229 240 255
229 240 255
229 240 255
229 240 255
229 240 255
229 240 255
229 240 255
229 240 255
229 240 255
229 240 255
229 240 255
229 240 255
229 240 255
229 240 255
229 240 255
229 240 255
229 240 255
229 240 255
229 240 255
229 240 255
229 240 255
229 240 255
229 240 255
229 240 255
229 240 255
229 240 255
229 240 255
229 240 255
229 240 255
229 240 255
229 240 255
229 240 255
229 240 255
229 240 255
229 240 255
229 240 255
229 240 255
227 238 253
56 58 74
0 0 42
0 0 44
0 0 48
0 0 54
77 64 82
160 130 101
184 155 127
139 115 84
92 82 49
55 59 22
68 64 33
53 62 20
45 59 12
38 58 2
41 55 6
52 61 23
63 67 35
60 68 30
68 76 38
69 70 36
74 74 40
73 74 41
77 73 42
78 74 41
74 77 39
70 74 34
77 75 40
77 73 39
79 75 41
75 70 38
74 74 38
76 69 37
63 62 30
54 58 23
63 65 32
55 65 19
57 72 20
53 68 9
34 50 24
0 0 44
0 0 40
0 0 43
0 0 41
0 0 42
0 0 42
0 0 42
0 0 42
0 0 42
0 0 42
0 0 42
0 0 42
0 0 42
0 0 42
0 0 42
0 0 42
0 0 42
0 0 42
0 0 42
0 0 42
0 0 42
0 0 42
0 0 42
0 0 42
0 0 42
0 0 42
0 0 42
0 0 42
0 0 42
0 0 42
0 0 42
0 0 42
0 0 42
0 0 42
0 0 42
0 0 42
0 0 42
0 0 42
0 0 42
0 0 42
0 0 42
0 0 42
0 0 42
0 0 42
0 0 42
0 0 42
0 0 42
0 0 42
0 0 42
0 0 42
0 0 42
0 0 42
0 0 42
0 0 42
0 0 42
0 0 42
0 0 42
0 0 42
0 0 42
0 0 42
0 0 42
0 0 42
0 0 42
0 0 42
0 0 42
0 0 42
0 0 42
0 0 42
0 0 42
0 0 42
0 0 42
0 0 42
0 0 42
0 0 42
0 0 42
0 0 42
0 0 45
0 0 44
0 0 45
0 0 45
0 0 45
0 0 47
0 0 48
0 0 51
0 0 51
0 0 53
0 0 62
8 9 64
156 135 111
151 128 94
100 95 57
83 77 44
98 92 58
108 101 68
101 96 69
85 83 53
96 91 60
87 87 51
92 87 52
90 86 51
86 82 50
79 79 48
78 76 46
81 77 47
88 81 51
97 89 57
84 81 49
82 75 43
75 72 44
74 72 42
95 84 54
88 79 51
73 69 41
88 78 51
101 87 59
56 61 24
52 66 20
35 51 52
0 0 52
0 0 45
0 0 45
0 0 45
0 0 45
17 20 45
81 70 45
89 76 46
23 31 39
0 0 42
0 0 42
85 89 103
228 239 254
229 240 255
229 240 255
229 240 255
229 240 255
229 240 255
229 240 255
229 240 255
229 240 255
229 240 255
229 240 255
229 240 255
229 240 255
229 240 255
229 240 255
229 240 255
229 240 255
229 240 255
229 240 255
229 240 255
229 240 255
229 240 255
229 240 255
229 240 255
229 240 255
229 240 255
229 240 255
229 240 255
229 240 255
229 240 255
229 240 255
229 240 255
229 240 255
229 240 255
229 240 255
229 240 255
229 240 255
229 240 255
229 240 255
229 240 255
229 240 255
229 240 255
229 240 255
229 240 255
229 240 255
229 240 255
229 240 255
229 240 255
229 240 255
229 240 255
229 240 255
229 240 255
229 240 255
229 240 255
229 240 255
229 240 255
229 240 255
229 240 255
229 240 255
229 240 255
229 240 255
229 240 255
229 240 255
229 240 255
229 240 255
229 240 255
229 240 255
229 240 255
229 240 255
229 240 255
229 240 255
229 240 255
229 240 255
229 240 255
229 240 255
229 240 255
229 240 255
229 240 255
229 240 255
229 240 255
229 240 255
229 240 255
229 240 255
229 240 255
229 240 255
229 240 255
229 240 255
229 240 255
229 240 255
229 240 255
229 240 255
229 240 255
229 240 255
229 240 255
229 240 255
229 240 255
229 240 255
229 240 255
229 240 255
229 240 255
229 240 255
229 240 255
229 240 255
229 240 255
229 240 255
229 240 255
229 240 255
229 240 255
229 240 255
229 240 255
229 240 255
229 240 255
229 240 255
229 240 255
229 240 255
229 240 255
229 240 255
229 240 255
229 240 255
229 240 255
229 240 255
229 240 255
229 240 255
229 240 255
229 240 255
229 240 255
229 240 255
229 240 255
229 240 255
229 240 255
229 240 255
229 240 255
229 240 255
229 240 255
229 240 255
229 240 255
229 240 255
229 240 255
229 240 255
229 240 255
229 240 255
229 240 255
229 240 255
229 240 255
229 240 255
229 240 255
229 240 255
229 240 255
229 240 255
229 240 255
229 240 255
229 240 255
229 240 255
229 240 255
229 240 255
229 240 255
229 240 255
229 240 255
229 240 255
229 240 255
229 240 255
229 240 255
229 240 255
229 240 255
229 240 255
229 240 255
229 240 255
229 240 255
229 240 255
229 240 255
229 240 255
229 240 255
229 240 255
229 240 255
229 240 255
229 240 255
229 240 255
229 240 255
229 240 255
229 240 255
229 240 255
229 240 255
229 240 255
229 240 255
229 240 255
229 240 255
229 240 255
229 240 255
229 240 255
229 240 255
229 240 255
229 240 255
229 240 255
229 240 255
229 240 255
229 240 255
229 240 255
229 240 255
229 240 255
229 240 255
229 240 255
229 240 255
229 240 255
229 240 255
229 240 255
229 240 255
229 240 255
229 240 255
229 240 255
229 240 255
229 240 255
229 240 255
229 240 255
229 240 255
229 240 255
229 240 255
229 240 255
229 240 255
229 240 255
229 240 255
229 240 255
229 240 255
229 240 255
229 240 255
229 240 255
229 240 255
229 240 255
229 240 255
229 240 255
229 240 255
189 198 212
0 0 42
0 0 43
0 0 45
0 0 53
14 13 59
148 124 108
149 122 92
157 126 94
108 91 58
51 57 20
63 63 34
62 66 31
45 56 11
37 55 0
47 62 15
59 68 28
54 61 22
54 63 25
65 74 33
75 77 39
77 78 43
74 75 40
73 74 39
74 69 38
71 70 35
69 72 34
71 72 35
77 74 38
79 77 41
76 73 38
76 71 36
70 65 33
57 59 26
53 57 22
53 57 22
51 62 12
58 75 21
64 77 14
39 60 28
0 0 47
0 0 42
0 0 43
0 0 40
0 0 42
0 0 42
0 0 42
0 0 42
0 0 42
0 0 42
0 0 42
0 0 42
0 0 42
0 0 42
0 0 42
0 0 42
0 0 42
0 0 42
0 0 42
0 0 42
0 0 42
0 0 42
0 0 42
0 0 42
0 0 42
0 0 42
0 0 42
0 0 42
0 0 42
0 0 42
0 0 42
0 0 42
0 0 42
0 0 42
0 0 42
0 0 42
0 0 42
0 0 42
0 0 42
0 0 42
0 0 42
0 0 42
0 0 42
0 0 42
0 0 42
0 0 42
0 0 42
0 0 42
0 0 42
0 0 42
0 0 42
0 0 42
0 0 42
0 0 42
0 0 42
0 0 42
0 0 42
0 0 42
0 0 42
0 0 42
0 0 42
0 0 42
0 0 42
0 0 42
0 0 42
0 0 42
0 0 42
0 0 42
0 0 42
0 0 42
0 0 42
0 0 42
0 0 42
0 0 42
0 0 42
0 0 42
0 0 45
0 0 45
0 0 43
0 0 43
0 0 46
0 0 47
0 0 48
0 0 51
0 0 56
0 0 58
0 5 64
51 46 74
186 162 129
129 104 71
113 103 61
99 90 58
119 109 74
141 128 93
138 127 89
119 108 76
98 93 61
95 91 58
103 94 64
103 96 66
95 89 60
89 86 56
85 82 52
92 87 57
100 92 61
96 89 57
91 87 52
81 76 42
70 68 40
76 71 45
81 74 44
84 75 49
84 77 50
101 86 59
95 84 56
46 58 15
45 63 52
0 11 59
0 0 45
0 0 45
0 0 44
0 0 43
0 0 44
59 56 47
90 75 48
65 61 34
2 4 41
0 0 42
0 0 42
174 183 196
229 240 255
229 240 255
229 240 255
229 240 255
229 240 255
229 240 255
229 240 255
229 240 255
229 240 255
229 240 255
229 240 255
229 240 255
229 240 255
229 240 255
229 240 255
229 240 255
229 240 255
229 240 255
229 240 255
229 240 255
229 240 255
229 240 255
229 240 255
229 240 255
229 240 255
229 240 255
229 240 255
229 240 255
229 240 255
229 240 255
229 240 255
229 240 255
229 240 255
229 240 255
229 240 255
229 240 255
229 240 255
229 240 255
229 240 255
229 240 255
229 240 255
229 240 255
229 240 255
229 240 255
229 240 255
229 240 255
229 240 255
229 240 255
229 240 255
229 240 255
229 240 255
229 240 255
229 240 255
229 240 255
229 240 255
229 240 255
229 240 255
229 240 255
229 240 255
229 240 255
229 240 255
229 240 255
229 240 255
229 240 255
229 240 255
229 240 255
229 240 255
229 240 255
229 240 255
229 240 255
229 240 255
229 240 255
229 240 255
229 240 255
229 240 255
229 240 255
229 240 255
229 240 255
229 240 255
229 240 255
229 240 255
229 240 255
229 240 255
229 240 255
229 240 255
229 240 255
229 240 255
229 240 255
229 240 255
229 240 255
229 240 255
229 240 255
229 240 255
229 240 255
229 240 255
229 240 255
229 240 255
229 240 255
229 240 255
229 240 255
229 240 255
229 240 255
229 240 255
229 240 255
229 240 255
229 240 255
229 240 255
229 240 255
229 240 255
229 240 255
229 240 255
229 240 255
229 240 255
229 240 255
229 240 255
229 240 255
229 240 255
229 240 255
229 240 255
229 240 255
229 240 255
229 240 255
229 240 255
229 240 255
229 240 255
229 240 255
229 240 255
229 240 255
229 240 255
229 240 255
229 240 255
229 240 255
229 240 255
229 240 255
229 240 255
229 240 255
229 240 255
229 240 255
229 240 255
229 240 255
229 240 255
229 240 255
229 240 255
229 240 255
229 240 255
229 240 255
229 240 255
229 240 255
229 240 255
229 240 255
229 240 255
229 240 255
229 240 255
229 240 255
229 240 255
229 240 255
229 240 255
229 240 255
229 240 255
229 240 255
229 240 255
229 240 255
229 240 255
229 240 255
229 240 255
229 240 255
229 240 255
229 240 255
229 240 255
229 240 255
229 240 255
229 240 255
229 240 255
229 240 255
229 240 255
229 240 255
229 240 255
229 240 255
229 240 255
229 240 255
229 240 255
229 240 255
229 240 255
229 240 255
229 240 255
229 240 255
229 240 255
229 240 255
229 240 255
229 240 255
229 240 255
229 240 255
229 240 255
229 240 255
229 240 255
229 240 255
229 240 255
229 240 255
229 240 255
229 240 255
229 240 255
229 240 255
229 240 255
229 240 255
229 240 255
229 240 255
229 240 255
229 240 255
229 240 255
229 240 255
229 240 255
229 240 255
229 240 255
229 240 255
229 240 255
229 240 255
229 240 255
229 240 255
229 240 255
229 240 255
229 240 255
229 240 255
229 240 255
229 240 255
229 240 255
229 240 255
229 240 255
229 240 255
229 240 255
229 240 255
228 239 254
88 93 106
0 0 42
0 0 44
0 0 48
0 2 57
114 97 101
155 131 110
153 120 91
134 111 74
76 75 44
54 58 24
62 62 32
53 60 21
42 57 11
37 58 8
57 67 25
47 62 17
50 62 23
64 72 31
75 77 40
74 76 41
74 76 40
73 76 40
70 72 38
70 70 34
76 76 40
72 71 35
76 74 37
78 75 38
77 74 37
78 72 37
77 72 39
57 63 29
51 59 24
63 65 29
64 65 24
68 79 25
70 78 14
32 48 37
4 9 54
0 0 44
0 0 43
0 0 40
0 0 42
0 0 42
0 0 42
0 0 42
0 0 42
0 0 42
0 0 42
0 0 42
0 0 42
0 0 42
0 0 42
0 0 42
0 0 42
0 0 42
0 0 42
0 0 42
0 0 42
0 0 42
0 0 42
0 0 42
0 0 42
0 0 42
0 0 42
0 0 42
0 0 42
0 0 42
0 0 42
0 0 42
0 0 42
0 0 42
0 0 42
0 0 42
0 0 42
0 0 42
0 0 42
0 0 42
0 0 42
0 0 42
0 0 42
0 0 42
0 0 42
0 0 42
0 0 42
0 0 42
0 0 42
0 0 42
0 0 42
0 0 42
0 0 42
0 0 42
0 0 42
0 0 42
0 0 42
0 0 42
0 0 42
0 0 42
0 0 42
0 0 42
0 0 42
0 0 42
0 0 42
0 0 42
0 0 42
0 0 42
0 0 42
0 0 42
0 0 42
0 0 42
0 0 42
0 0 42
0 0 42
0 0 43
0 0 45
0 0 45
0 0 42
0 0 44
0 0 45
0 0 45
0 0 45
0 0 50
0 0 57
0 0 56
0 0 63
62 64 79
196 175 131
141 119 86
116 101 62
108 93 56
132 116 81
158 143 100
164 151 108
125 115 85
108 101 70
99 90 61
112 99 71
110 99 71
103 95 65
95 90 59
80 77 47
74 71 41
100 93 61
102 94 64
91 87 57
84 80 53
83 80 50
79 72 43
75 70 43
82 74 47
88 81 53
82 76 45
59 63 27
50 60 22
45 58 45
0 0 47
0 0 42
0 0 42
0 0 44
0 0 43
20 22 44
82 72 43
85 71 44
25 31 36
0 0 42
0 0 42
79 83 97
226 236 252
229 240 255
229 240 255
229 240 255
229 240 255
229 240 255
229 240 255
229 240 255
229 240 255
229 240 255
229 240 255
229 240 255
229 240 255
229 240 255
229 240 255
229 240 255
229 240 255
229 240 255
229 240 255
229 240 255
229 240 255
229 240 255
229 240 255
229 240 255
229 240 255
229 240 255
229 240 255
229 240 255
229 240 255
229 240 255
229 240 255
229 240 255
229 240 255
229 240 255
229 240 255
229 240 255
229 240 255
229 240 255
229 240 255
229 240 255
229 240 255
229 240 255
229 240 255
229 240 255
229 240 255
229 240 255
229 240 255
229 240 255
229 240 255
229 240 255
229 240 255
229 240 255
229 240 255
229 240 255
229 240 255
229 240 255
229 240 255
229 240 255
229 240 255
229 240 255
229 240 255
229 240 255
229 240 255
229 240 255
229 240 255
229 240 255
229 240 255
229 240 255
229 240 255
229 240 255
229 240 255
229 240 255
229 240 255
229 240 255
229 240 255
229 240 255
229 240 255
229 240 255
229 240 255
229 240 255
229 240 255
229 240 255
229 240 255
229 240 255
229 240 255
229 240 255
229 240 255
229 240 255
229 240 255
229 240 255
229 240 255
229 240 255
229 240 255
229 240 255
229 240 255
229 240 255
229 240 255
229 240 255
229 240 255
229 240 255
229 240 255
229 240 255
229 240 255
229 240 255
229 240 255
229 240 255
229 240 255
229 240 255
229 240 255
229 240 255
229 240 255
229 240 255
229 240 255
229 240 255
229 240 255
229 240 255
229 240 255
229 240 255
229 240 255
229 240 255
229 240 255
229 240 255
229 240 255
229 240 255
229 240 255
229 240 255
229 240 255
229 240 255
229 240 255
229 240 255
229 240 255
229 240 255
229 240 255
229 240 255
229 240 255
229 240 255
229 240 255
229 240 255
229 240 255
229 240 255
229 240 255
229 240 255
229 240 255
229 240 255
229 240 255
229 240 255
229 240 255
229 240 255
229 240 255
229 240 255
229 240 255
229 240 255
229 240 255
229 240 255
229 240 255
229 240 255
229 240 255
229 240 255
229 240 255
229 240 255
229 240 255
229 240 255
229 240 255
229 240 255
229 240 255
229 240 255
229 240 255
229 240 255
229 240 255
229 240 255
229 240 255
229 240 255
229 240 255
229 240 255
229 240 255
229 240 255
229 240 255
229 240 255
229 240 255
229 240 255
229 240 255
229 240 255
229 240 255
229 240 255
229 240 255
229 240 255
229 240 255
229 240 255
229 240 255
229 240 255
229 240 255
229 240 255
229 240 255
229 240 255
229 240 255
229 240 255
229 240 255
229 240 255
229 240 255
229 240 255
229 240 255
229 240 255
229 240 255
229 240 255
229 240 255
229 240 255
229 240 255
229 240 255
229 240 255
229 240 255
229 240 255
229 240 255
229 240 255
229 240 255
229 240 255
229 240 255
229 240 255
229 240 255
229 240 255
229 240 255
229 240 255
229 240 255
229 240 255
229 240 255
229 240 255
229 240 255
229 240 255
229 240 255
229 240 255
229 240 255
229 240 255
229 240 255
193 202 216
0 0 42
0 0 43
0 0 46
0 0 52
65 59 81
155 127 104
163 130 107
159 131 95
87 76 48
47 55 18
60 62 29
59 62 27
47 58 14
44 62 15
52 65 21
49 64 19
57 71 27
64 72 30
75 78 40
72 74 38
71 77 36
74 78 37
73 77 40
73 76 39
75 76 37
77 75 38
77 76 39
78 76 39
74 71 35
81 78 43
82 76 41
64 66 31
49 58 21
63 65 27
78 73 35
69 71 29
62 72 19
29 41 42
0 3 49
0 0 46
0 0 41
0 0 43
0 0 41
0 0 42
0 0 42
0 0 42
0 0 42
0 0 42
0 0 42
0 0 42
0 0 42
0 0 42
0 0 42
0 0 42
0 0 42
0 0 42
0 0 42
0 0 42
0 0 42
0 0 42
0 0 42
0 0 42
0 0 42
0 0 42
0 0 42
0 0 42
0 0 42
0 0 42
0 0 42
0 0 42
0 0 42
0 0 42
0 0 42
0 0 42
0 0 42
0 0 42
0 0 42
0 0 42
0 0 42
0 0 42
0 0 42
0 0 42
0 0 42
0 0 42
0 0 42
0 0 42
0 0 42
0 0 42
0 0 42
0 0 42
0 0 42
0 0 42
0 0 42
0 0 42
0 0 42
0 0 42
0 0 42
0 0 42
0 0 42
0 0 42
0 0 42
0 0 42
0 0 42
0 0 42
0 0 42
0 0 42
0 0 42
0 0 42
0 0 42
0 0 42
0 0 42
0 0 42
0 0 42
0 0 43
0 0 45
0 0 45
0 0 42
0 0 45
0 0 45
0 0 45
0 0 45
0 0 50
0 0 55
0 0 53
0 2 62
24 26 73
174 151 117
144 125 78
120 108 66
118 98 63
147 129 84
146 135 99
178 176 148
110 105 75
84 80 50
101 90 63
121 105 75
118 106 75
112 101 71
99 93 64
86 84 54
79 75 44
106 98 67
103 95 64
111 102 70
104 98 67
95 87 60
89 79 52
86 80 54
83 80 51
72 73 42
74 72 41
55 62 25
53 61 18
30 39 44
0 0 43
0 0 42
0 0 42
0 0 43
0 0 43
41 39 41
97 79 49
59 52 37
0 4 41
0 0 42
0 0 42
201 211 225
229 240 255
229 240 255
229 240 255
229 240 255
229 240 255
229 240 255
229 240 255
229 240 255
229 240 255
229 240 255
229 240 255
229 240 255
229 240 255
229 240 255
229 240 255
229 240 255
229 240 255
229 240 255
229 240 255
229 240 255
229 240 255
229 240 255
229 240 255
229 240 255
229 240 255
229 240 255
229 240 255
229 240 255
229 240 255
229 240 255
229 240 255
229 240 255
229 240 255
229 240 255
229 240 255
229 240 255
229 240 255
229 240 255
229 240 255
229 240 255
229 240 255
229 240 255
229 240 255
229 240 255
229 240 255
229 240 255
229 240 255
229 240 255
229 240 255
229 240 255
229 240 255
229 240 255
229 240 255
229 240 255
229 240 255
229 240 255
229 240 255
229 240 255
229 240 255
229 240 255
229 240 255
229 240 255
229 240 255
229 240 255
229 240 255
229 240 255
229 240 255
229 240 255
229 240 255
229 240 255
229 240 255
229 240 255
229 240 255
229 240 255
229 240 255
229 240 255
229 240 255
229 240 255
229 240 255
229 240 255
229 240 255
229 240 255
229 240 255
229 240 255
229 240 255
229 240 255
229 240 255
229 240 255
229 240 255
229 240 255
229 240 255
229 240 255
229 240 255
229 240 255
229 240 255
229 240 255
229 240 255
229 240 255
229 240 255
229 240 255
229 240 255
229 240 255
229 240 255
229 240 255
229 240 255
229 240 255
229 240 255
229 240 255
229 240 255
229 240 255
229 240 255
229 240 255
229 240 255
229 240 255
229 240 255
229 240 255
229 240 255
229 240 255
229 240 255
229 240 255
229 240 255
229 240 255
229 240 255
229 240 255
229 240 255
229 240 255
229 240 255
229 240 255
229 240 255
229 240 255
229 240 255
229 240 255
229 240 255
229 240 255
229 240 255
229 240 255
229 240 255
229 240 255
229 240 255
229 240 255
229 240 255
229 240 255
229 240 255
229 240 255
229 240 255
229 240 255
229 240 255
229 240 255
229 240 255
229 240 255
229 240 255
229 240 255
229 240 255
229 240 255
229 240 255
229 240 255
229 240 255
229 240 255
229 240 255
229 240 255
229 240 255
229 240 255
229 240 255
229 240 255
229 240 255
229 240 255
229 240 255
229 240 255
229 240 255
229 240 255
229 240 255
229 240 255
229 240 255
229 240 255
229 240 255
229 240 255
229 240 255
229 240 255
229 240 255
229 240 255
229 240 255
229 240 255
229 240 255
229 240 255
229 240 255
229 240 255
229 240 255
229 240 255
229 240 255
229 240 255
229 240 255
229 240 255
229 240 255
229 240 255
229 240 255
229 240 255
229 240 255
229 240 255
229 240 255
229 240 255
229 240 255
229 240 255
229 240 255
229 240 255
229 240 255
229 240 255
229 240 255
229 240 255
229 240 255
229 240 255
229 240 255
229 240 255
229 240 255
229 240 255
229 240 255
229 240 255
229 240 255
229 240 255
229 240 255
229 240 255
229 240 255
229 240 255
229 240 255
229 240 255
229 240 255
229 240 255
229 240 255
229 240 255
229 240 255
229 240 255
229 240 255
229 240 255
229 240 255
114 120 133
0 0 42
0 0 44
0 0 50
5 5 55
149 123 101
158 129 105
163 134 105
128 107 76
45 57 20
60 66 30
57 62 28
56 65 22
53 66 21
46 61 16
57 67 24
57 70 25
61 71 27
69 75 35
70 72 32
67 75 31
65 73 29
66 76 32
77 82 42
77 79 40
71 72 32
66 70 31
70 70 33
73 72 35
77 77 39
72 71 31
69 68 33
51 56 18
53 59 21
67 67 29
66 65 29
58 63 17
33 54 65
0 6 49
0 0 48
0 0 40
0 0 43
0 0 42
0 0 42
0 0 42
0 0 42
0 0 42
0 0 42
0 0 42
0 0 42
0 0 42
0 0 42
0 0 42
0 0 42
0 0 42
0 0 42
0 0 42
0 0 42
0 0 42
0 0 42
0 0 42
0 0 42
0 0 42
0 0 42
0 0 42
0 0 42
0 0 42
0 0 42
0 0 42
0 0 42
0 0 42
0 0 42
0 0 42
0 0 42
0 0 42
0 0 42
0 0 42
0 0 42
0 0 42
0 0 42
0 0 42
0 0 42
0 0 42
0 0 42
0 0 42
0 0 42
0 0 42
0 0 42
0 0 42
0 0 42
0 0 42
0 0 42
0 0 42
0 0 42
0 0 42
0 0 42
0 0 42
0 0 42
0 0 42
0 0 42
0 0 42
0 0 42
0 0 42
0 0 42
0 0 42
0 0 42
0 0 42
0 0 42
0 0 42
0 0 42
0 0 42
0 0 42
0 0 42
0 0 43
0 0 45
0 0 44
0 0 42
0 0 45
0 0 45
0 0 45
0 0 44
0 0 48
0 0 50
0 0 54
0 6 68
4 4 69
115 104 99
171 145 98
149 130 88
127 109 72
132 115 80
126 117 86
104 100 69
80 77 47
84 78 47
122 106 76
136 117 87
133 115 83
115 102 72
113 103 74
109 100 69
103 99 65
103 97 61
138 128 87
149 141 99
100 91 64
99 88 62
95 85 60
86 77 50
75 73 42
74 71 42
69 69 38
62 66 35
50 58 21
24 36 42
0 0 42
0 0 42
0 0 42
0 0 42
0 0 44
80 70 55
99 83 55
24 25 42
0 0 42
0 0 42
112 117 130
229 240 255
229 240 255
229 240 255
229 240 255
229 240 255
229 240 255
229 240 255
229 240 255
229 240 255
229 240 255
229 240 255
229 240 255
229 240 255
229 240 255
229 240 255
229 240 255
229 240 255
229 240 255
229 240 255
229 240 255
229 240 255
229 240 255
229 240 255
229 240 255
229 240 255
229 240 255
229 240 255
229 240 255
229 240 255
229 240 255
229 240 255
229 240 255
229 240 255
229 240 255
229 240 255
229 240 255
229 240 255
229 240 255
229 240 255
229 240 255
229 240 255
229 240 255
229 240 255
229 240 255
229 240 255
229 240 255
229 240 255
229 240 255
229 240 255
229 240 255
229 240 255
229 240 255
229 240 255
229 240 255
229 240 255
229 240 255
229 240 255
229 240 255
229 240 255
229 240 255
229 240 255
229 240 255
229 240 255
229 240 255
229 240 255
229 240 255
229 240 255
229 240 255
229 240 255
229 240 255
229 240 255
229 240 255
229 240 255
229 240 255
229 240 255
229 240 255
229 240 255
229 240 255
229 240 255
229 240 255
229 240 255
229 240 255
229 240 255
229 240 255
229 240 255
229 240 255
229 240 255
229 240 255
229 240 255
229 240 255
229 240 255
229 240 255
229 240 255
229 240 255
229 240 255
229 240 255
229 240 255
229 240 255
229 240 255
229 240 255
229 240 255
229 240 255
229 240 255
229 240 255
229 240 255
229 240 255
229 240 255
229 240 255
229 240 255
229 240 255
229 240 255
229 240 255
229 240 255
229 240 255
229 240 255
229 240 255
229 240 255
229 240 255
229 240 255
229 240 255
229 240 255
229 240 255
229 240 255
229 240 255
229 240 255
229 240 255
229 240 255
229 240 255
229 240 255
229 240 255
229 240 255
229 240 255
229 240 255
229 240 255
229 240 255
229 240 255
229 240 255
229 240 255
229 240 255
229 240 255
229 240 255
229 240 255
229 240 255
229 240 255
229 240 255
229 240 255
229 240 255
229 240 255
229 240 255
229 240 255
229 240 255
229 240 255
229 240 255
229 240 255
229 240 255
229 240 255
229 240 255
229 240 255
229 240 255
229 240 255
229 240 255
229 240 255
229 240 255
229 240 255
229 240 255
229 240 255
229 240 255
229 240 255
229 240 255
229 240 255
229 240 255
229 240 255
229 240 255
229 240 255
229 240 255
229 240 255
229 240 255
229 240 255
229 240 255
229 240 255
229 240 255
229 240 255
229 240 255
229 240 255
229 240 255
229 240 255
229 240 255
229 240 255
229 240 255
229 240 255
229 240 255
229 240 255
229 240 255
229 240 255
229 240 255
229 240 255
229 240 255
229 240 255
229 240 255
229 240 255
229 240 255
229 240 255
229 240 255
229 240 255
229 240 255
229 240 255
229 240 255
229 240 255
229 240 255
229 240 255
229 240 255
229 240 255
229 240 255
229 240 255
229 240 255
229 240 255
229 240 255
229 240 255
229 240 255
229 240 255
229 240 255
229 240 255
229 240 255
229 240 255
229 240 255
229 240 255
229 240 255
229 240 255
229 240 255
229 240 255
229 240 255
229 240 255
229 240 255
229 240 255
210 220 235
39 41 60
0 0 43
0 0 48
0 0 58
79 66 78
163 131 104
150 122 101
150 125 96
58 61 26
61 64 30
61 66 28
54 63 22
66 77 33
42 59 13
44 59 15
52 65 19
59 71 28
60 70 24
66 74 27
66 76 28
61 71 25
65 78 29
68 78 31
77 80 39
70 73 32
58 68 27
65 68 30
74 74 37
73 74 35
63 67 27
57 61 24
52 57 20
65 67 33
61 63 29
63 65 25
58 63 20
33 49 52
0 6 46
0 0 44
0 0 43
0 0 43
0 0 40
0 0 42
0 0 42
0 0 42
0 0 42
0 0 42
0 0 42
0 0 42
0 0 42
0 0 42
0 0 42
0 0 42
0 0 42
0 0 42
0 0 42
0 0 42
0 0 42
0 0 42
0 0 42
0 0 42
0 0 42
0 0 42
0 0 42
0 0 42
0 0 42
0 0 42
0 0 42
0 0 42
0 0 42
0 0 42
0 0 42
0 0 42
0 0 42
0 0 42
0 0 42
0 0 42
0 0 42
0 0 42
0 0 42
0 0 42
0 0 42
0 0 42
0 0 42
0 0 42
0 0 42
0 0 42
0 0 42
0 0 42
0 0 42
0 0 42
0 0 42
0 0 42
0 0 42
0 0 42
0 0 42
0 0 42
0 0 42
0 0 42
0 0 42
0 0 42
0 0 42
0 0 42
0 0 42
0 0 42
0 0 42
0 0 42
0 0 42
0 0 42
0 0 42
0 0 42
0 0 42
0 0 42
0 0 42
0 0 42
0 0 42
0 0 44
0 0 45
0 0 45
0 0 45
0 0 49
0 0 47
0 0 51
0 3 63
0 9 67
66 58 81
161 128 98
143 111 76
139 116 89
111 99 69
92 87 56
83 79 49
94 85 57
124 108 76
144 124 91
135 112 79
131 113 83
123 109 80
118 107 77
109 100 70
107 106 66
111 108 68
116 109 71
110 98 71
93 80 59
92 81 53
97 85 59
97 85 58
79 74 45
65 67 33
71 72 41
61 64 36
46 57 19
9 12 45
0 0 42
0 0 42
0 0 42
0 0 44
17 17 45
90 79 54
46 43 46
0 0 42
0 0 42
39 41 60
214 224 239
229 240 255
229 240 255
229 240 255
229 240 255
229 240 255
229 240 255
229 240 255
229 240 255
229 240 255
229 240 255
229 240 255
229 240 255
229 240 255
229 240 255
229 240 255
229 240 255
229 240 255
229 240 255
229 240 255
229 240 255
229 240 255
229 240 255
229 240 255
229 240 255
229 240 255
229 240 255
229 240 255
229 240 255
229 240 255
229 240 255
229 240 255
229 240 255
229 240 255
229 240 255
229 240 255
229 240 255
229 240 255
229 240 255
229 240 255
229 240 255
229 240 255
229 240 255
229 240 255
229 240 255
229 240 255
229 240 255
229 240 255
229 240 255
229 240 255
229 240 255
229 240 255
229 240 255
229 240 255
229 240 255
229 240 255
229 240 255
229 240 255
229 240 255
229 240 255
229 240 255
229 240 255
229 240 255
229 240 255
229 240 255
229 240 255
229 240 255
229 240 255
229 240 255
229 240 255
229 240 255
229 240 255
229 240 255
229 240 255
229 240 255
229 240 255
229 240 255
229 240 255
229 240 255
229 240 255
229 240 255
229 240 255
229 240 255
229 240 255
229 240 255
229 240 255
229 240 255
229 240 255
229 240 255
229 240 255
229 240 255
229 240 255
229 240 255
229 240 255
229 240 255
229 240 255
229 240 255
229 240 255
229 240 255
229 240 255
229 240 255
229 240 255
229 240 255
229 240 255
229 240 255
229 240 255
229 240 255
229 240 255
229 240 255
229 240 255
229 240 255
229 240 255
229 240 255
229 240 255
229 240 255
229 240 255
229 240 255
229 240 255
229 240 255
229 240 255
229 240 255
229 240 255
229 240 255
229 240 255
229 240 255
229 240 255
229 240 255
229 240 255
229 240 255
229 240 255
229 240 255
229 240 255
229 240 255
229 240 255
229 240 255
229 240 255
229 240 255
229 240 255
229 240 255
229 240 255
229 240 255
229 240 255
229 240 255
229 240 255
229 240 255
229 240 255
229 240 255
229 240 255
229 240 255
229 240 255
229 240 255
229 240 255
229 240 255
229 240 255
229 240 255
229 240 255
229 240 255
229 240 255
229 240 255
229 240 255
229 240 255
229 240 255
229 240 255
229 240 255
229 240 255
229 240 255
229 240 255
229 240 255
229 240 255
229 240 255
229 240 255
229 240 255
229 240 255
229 240 255
229 240 255
229 240 255
229 240 255
229 240 255
229 240 255
229 240 255
229 240 255
229 240 255
229 240 255
229 240 255
229 240 255
229 240 255
229 240 255
229 240 255
229 240 255
229 240 255
229 240 255
229 240 255
229 240 255
229 240 255
229 240 255
229 240 255
229 240 255
229 240 255
229 240 255
229 240 255
229 240 255
229 240 255
229 240 255
229 240 255
229 240 255
229 240 255
229 240 255
229 240 255
229 240 255
229 240 255
229 240 255
229 240 255
229 240 255
229 240 255
229 240 255
229 240 255
229 240 255
229 240 255
229 240 255
229 240 255
229 240 255
229 240 255
229 240 255
229 240 255
229 240 255
229 240 255
229 240 255
229 240 255
229 240 255
229 240 255
229 240 255
229 240 255
229 240 255
229 240 255
229 240 255
229 240 255
157 164 178
0 0 42
0 0 48
0 0 51
8 6 58
129 100 82
149 119 98
156 126 99
69 66 36
51 59 23
62 67 32
50 61 20
50 62 21
46 60 19
42 57 15
47 61 19
51 64 21
59 71 25
68 81 29
65 77 25
67 78 34
78 85 40
71 81 34
68 76 32
71 75 34
53 66 24
61 67 29
69 72 31
71 73 34
67 69 33
66 69 32
56 60 22
63 66 29
56 63 21
54 61 27
44 55 27
11 19 51
0 0 41
0 0 42
0 0 42
0 0 42
0 0 42
0 0 42
0 0 42
0 0 42
0 0 42
0 0 42
0 0 42
0 0 42
0 0 42
0 0 42
0 0 42
0 0 42
0 0 42
0 0 42
0 0 42
0 0 42
0 0 42
0 0 42
0 0 42
0 0 42
0 0 42
0 0 42
0 0 42
0 0 42
0 0 42
0 0 42
0 0 42
0 0 42
0 0 42
0 0 42
0 0 42
0 0 42
0 0 42
0 0 42
0 0 42
0 0 42
0 0 42
0 0 42
0 0 42
0 0 42
0 0 42
0 0 42
0 0 42
0 0 42
0 0 42
0 0 42
0 0 42
0 0 42
0 0 42
0 0 42
0 0 42
0 0 42
0 0 42
0 0 42
0 0 42
0 0 42
0 0 42
0 0 42
0 0 42
0 0 42
0 0 42
0 0 42
0 0 42
0 0 42
0 0 42
0 0 42
0 0 42
0 0 42
0 0 42
0 0 42
0 0 42
0 0 42
0 0 42
0 0 42
0 0 42
0 0 44
0 0 46
0 0 47
0 0 49
0 0 48
0 0 44
0 0 48
0 0 54
0 10 68
9 16 74
115 94 77
140 108 77
161 135 91
131 113 72
106 88 61
92 86 55
110 97 68
116 100 70
121 104 73
121 102 71
131 111 81
121 106 77
123 111 80
125 113 75
123 119 80
103 101 67
102 95 67
104 92 68
88 79 53
89 80 54
97 82 58
85 78 48
77 76 42
62 66 31
65 68 36
63 67 34
41 47 39
0 0 43
0 0 42
0 0 42
0 0 43
0 0 45
22 22 50
41 40 50
0 0 43
0 0 42
0 0 42
155 163 176
229 240 255
229 240 255
229 240 255
229 240 255
229 240 255
229 240 255
229 240 255
229 240 255
229 240 255
229 240 255
229 240 255
229 240 255
229 240 255
229 240 255
229 240 255
229 240 255
229 240 255
229 240 255
229 240 255
229 240 255
229 240 255
229 240 255
229 240 255
229 240 255
229 240 255
229 240 255
229 240 255
229 240 255
229 240 255
229 240 255
229 240 255
229 240 255
229 240 255
229 240 255
229 240 255
229 240 255
229 240 255
229 240 255
229 240 255
229 240 255
229 240 255
229 240 255
229 240 255
229 240 255
229 240 255
229 240 255
229 240 255
229 240 255
229 240 255
229 240 255
229 240 255
229 240 255
229 240 255
229 240 255
229 240 255
229 240 255
229 240 255
229 240 255
229 240 255
229 240 255
229 240 255
229 240 255
229 240 255
229 240 255
229 240 255
229 240 255
229 240 255
229 240 255
229 240 255
229 240 255
229 240 255
229 240 255
229 240 255
229 240 255
229 240 255
229 240 255
229 240 255
229 240 255
229 240 255
229 240 255
229 240 255
229 240 255
229 240 255
229 240 255
229 240 255
229 240 255
229 240 255
229 240 255
229 240 255
229 240 255
229 240 255
229 240 255
229 240 255
229 240 255
229 240 255
229 240 255
229 240 255
229 240 255
229 240 255
229 240 255
229 240 255
229 240 255
229 240 255
229 240 255
229 240 255
229 240 255
229 240 255
229 240 255
229 240 255
229 240 255
229 240 255
229 240 255
229 240 255
229 240 255
229 240 255
229 240 255
229 240 255
229 240 255
229 240 255
229 240 255
229 240 255
229 240 255
229 240 255
229 240 255
229 240 255
229 240 255
229 240 255
229 240 255
229 240 255
229 240 255
229 240 255
229 240 255
229 240 255
229 240 255
229 240 255
229 240 255
229 240 255
229 240 255
229 240 255
229 240 255
229 240 255
229 240 255
229 240 255
229 240 255
229 240 255
229 240 255
229 240 255
229 240 255
229 240 255
229 240 255
229 240 255
229 240 255
229 240 255
229 240 255
229 240 255
229 240 255
229 240 255
229 240 255
229 240 255
229 240 255
229 240 255
229 240 255
229 240 255
229 240 255
229 240 255
229 240 255
229 240 255
229 240 255
229 240 255
229 240 255
229 240 255
229 240 255
229 240 255
229 240 255
229 240 255
229 240 255
229 240 255
229 240 255
229 240 255
229 240 255
229 240 255
229 240 255
229 240 255
229 240 255
229 240 255
229 240 255
229 240 255
229 240 255
229 240 255
229 240 255
229 240 255
229 240 255
229 240 255
229 240 255
229 240 255
229 240 255
229 240 255
229 240 255
229 240 255
229 240 255
229 240 255
229 240 255
229 240 255
229 240 255
229 240 255
229 240 255
229 240 255
229 240 255
229 240 255
229 240 255
229 240 255
229 240 255
229 240 255
229 240 255
229 240 255
229 240 255
229 240 255
229 240 255
229 240 255
229 240 255
229 240 255
229 240 255
229 240 255
229 240 255
229 240 255
229 240 255
229 240 255
229 240 255
229 240 255
229 240 255
229 240 255
229 240 255
229 240 255
229 240 255
229 240 255
229 240 255
225 235 250
100 104 117
0 0 46
0 0 52
0 0 55
89 71 71
129 104 77
148 121 97
108 93 65
48 58 22
51 61 22
49 60 21
43 57 15
52 65 25
46 60 17
46 60 16
46 59 14
61 71 25
68 78 27
63 74 24
76 84 40
74 81 38
67 74 30
62 72 27
64 72 31
59 67 30
61 69 29
61 69 26
66 70 31
67 69 34
68 68 31
62 64 28
68 69 33
67 69 34
71 71 38
46 61 62
3 7 49
0 0 43
0 0 42
0 0 42
0 0 42
0 0 42
0 0 42
0 0 42
0 0 42
0 0 42
0 0 42
0 0 42
0 0 42
0 0 42
0 0 42
0 0 42
0 0 42
0 0 42
0 0 42
0 0 42
0 0 42
0 0 42
0 0 42
0 0 42
0 0 42
0 0 42
0 0 42
0 0 42
0 0 42
0 0 42
0 0 42
0 0 42
0 0 42
0 0 42
0 0 42
0 0 42
0 0 42
0 0 42
0 0 42
0 0 42
0 0 42
0 0 42
0 0 42
0 0 42
0 0 42
0 0 42
0 0 42
0 0 42
0 0 42
0 0 42
0 0 42
0 0 42
0 0 42
0 0 42
0 0 42
0 0 42
0 0 42
0 0 42
0 0 42
0 0 42
0 0 42
0 0 42
0 0 42
0 0 42
0 0 42
0 0 42
0 0 42
0 0 42
0 0 42
0 0 42
0 0 42
0 0 42
0 0 42
0 0 42
0 0 42
0 0 42
0 0 42
0 0 42
0 0 42
0 0 42
0 0 44
0 0 45
0 0 47
0 0 49
0 0 48
0 0 49
0 0 56
0 6 61
0 7 78
5 19 83
101 90 95
147 115 87
191 158 121
143 122 84
106 95 63
106 94 64
100 90 63
101 88 63
109 95 68
125 107 77
132 113 85
120 106 76
115 107 76
115 108 74
114 106 72
112 106 73
101 94 66
95 84 56
93 81 55
93 80 57
91 77 54
76 74 44
75 74 42
63 70 33
64 66 33
57 64 33
16 19 42
0 0 43
0 0 44
0 0 42
0 0 43
0 0 44
0 0 45
0 0 42
0 0 42
0 0 42
72 76 90
228 239 254
229 240 255
229 240 255
229 240 255
229 240 255
229 240 255
229 240 255
229 240 255
229 240 255
229 240 255
229 240 255
229 240 255
229 240 255
229 240 255
229 240 255
229 240 255
229 240 255
229 240 255
229 240 255
229 240 255
229 240 255
229 240 255
229 240 255
229 240 255
229 240 255
229 240 255
229 240 255
229 240 255
229 240 255
229 240 255
229 240 255
229 240 255
229 240 255
229 240 255
229 240 255
229 240 255
229 240 255
229 240 255
229 240 255
229 240 255
229 240 255
229 240 255
229 240 255
229 240 255
229 240 255
229 240 255
229 240 255
229 240 255
229 240 255
229 240 255
229 240 255
229 240 255
229 240 255
229 240 255
229 240 255
229 240 255
229 240 255
229 240 255
229 240 255
229 240 255
229 240 255
229 240 255
229 240 255
229 240 255
229 240 255
229 240 255
229 240 255
229 240 255
229 240 255
229 240 255
229 240 255
229 240 255
229 240 255
229 240 255
229 240 255
229 240 255
229 240 255
229 240 255
229 240 255
229 240 255
229 240 255
229 240 255
229 240 255
229 240 255
229 240 255
229 240 255
229 240 255
229 240 255
229 240 255
229 240 255
229 240 255
229 240 255
229 240 255
229 240 255
229 240 255
229 240 255
229 240 255
229 240 255
229 240 255
229 240 255
229 240 255
229 240 255
229 240 255
229 240 255
229 240 255
229 240 255
229 240 255
229 240 255
229 240 255
229 240 255
229 240 255
229 240 255
229 240 255
229 240 255
229 240 255
229 240 255
229 240 255
229 240 255
229 240 255
229 240 255
229 240 255
229 240 255
229 240 255
229 240 255
229 240 255
229 240 255
229 240 255
229 240 255
229 240 255
229 240 255
229 240 255
229 240 255
229 240 255
229 240 255
229 240 255
229 240 255
229 240 255
229 240 255
229 240 255
229 240 255
229 240 255
229 240 255
229 240 255
229 240 255
229 240 255
229 240 255
229 240 255
229 240 255
229 240 255
229 240 255
229 240 255
229 240 255
229 240 255
229 240 255
229 240 255
229 240 255
229 240 255
229 240 255
229 240 255
229 240 255
229 240 255
229 240 255
229 240 255
229 240 255
229 240 255
229 240 255
229 240 255
229 240 255
229 240 255
229 240 255
229 240 255
229 240 255
229 240 255
229 240 255
229 240 255
229 240 255
229 240 255
229 240 255
229 240 255
229 240 255
229 240 255
229 240 255
229 240 255
229 240 255
229 240 255
229 240 255
229 240 255
229 240 255
229 240 255
229 240 255
229 240 255
229 240 255
229 240 255
229 240 255
229 240 255
229 240 255
229 240 255
229 240 255
229 240 255
229 240 255
229 240 255
229 240 255
229 240 255
229 240 255
229 240 255
229 240 255
229 240 255
229 240 255
229 240 255
229 240 255
229 240 255
229 240 255
229 240 255
229 240 255
229 240 255
229 240 255
229 240 255
229 240 255
229 240 255
229 240 255
229 240 255
229 240 255
229 240 255
229 240 255
229 240 255
229 240 255
229 240 255
229 240 255
229 240 255
229 240 255
229 240 255
229 240 255
229 240 255
229 240 255
229 240 255
229 240 255
229 240 255
229 240 255
205 215 229
0 0 43
0 0 48
0 0 58
24 22 63
136 113 86
143 119 100
143 117 92
70 68 38
54 63 23
48 57 16
45 55 16
40 54 12
39 57 11
42 60 15
45 62 16
46 61 13
63 73 27
70 79 30
74 83 37
64 74 30
51 64 23
50 63 18
58 68 24
59 67 28
64 71 27
63 69 29
61 66 27
56 63 25
53 59 24
53 61 21
57 65 27
59 67 26
65 74 24
52 63 61
0 0 54
0 0 43
0 0 42
0 0 42
0 0 42
0 0 42
0 0 42
0 0 42
0 0 42
0 0 42
0 0 42
0 0 42
0 0 42
0 0 42
0 0 42
0 0 42
0 0 42
0 0 42
0 0 42
0 0 42
0 0 42
0 0 42
0 0 42
0 0 42
0 0 42
0 0 42
0 0 42
0 0 42
0 0 42
0 0 42
0 0 42
0 0 42
0 0 42
0 0 42
0 0 42
0 0 42
0 0 42
0 0 42
0 0 42
0 0 42
0 0 42
0 0 42
0 0 42
0 0 42
0 0 42
0 0 42
0 0 42
0 0 42
0 0 42
0 0 42
0 0 42
0 0 42
0 0 42
0 0 42
0 0 42
0 0 42
0 0 42
0 0 42
0 0 42
0 0 42
0 0 42
0 0 42
0 0 42
0 0 42
0 0 42
0 0 42
0 0 42
0 0 42
0 0 42
0 0 42
0 0 42
0 0 42
0 0 42
0 0 42
0 0 42
0 0 42
0 0 42
0 0 42
0 0 42
0 0 42
0 0 43
0 0 45
0 0 46
0 0 48
0 0 48
0 0 52
0 4 60
0 10 71
0 10 73
0 18 80
56 61 98
192 178 140
212 187 137
152 132 88
111 101 71
103 91 62
105 93 68
108 93 66
116 98 69
129 112 83
135 119 88
122 109 80
121 111 82
112 103 70
112 104 68
117 109 77
102 91 63
95 83 57
93 79 54
94 80 58
85 75 49
77 73 44
76 75 39
68 73 41
59 68 41
13 17 42
0 0 46
0 0 45
0 0 45
0 0 44
0 0 44
0 0 44
0 0 43
0 0 43
0 0 42
0 0 42
204 213 228
229 240 255
229 240 255
229 240 255
229 240 255
229 240 255
229 240 255
229 240 255
229 240 255
229 240 255
229 240 255
229 240 255
229 240 255
229 240 255
229 240 255
229 240 255
229 240 255
229 240 255
229 240 255
229 240 255
229 240 255
229 240 255
229 240 255
229 240 255
229 240 255
229 240 255
229 240 255
229 240 255
229 240 255
229 240 255
229 240 255
229 240 255
229 240 255
229 240 255
229 240 255
229 240 255
229 240 255
229 240 255
229 240 255
229 240 255
229 240 255
229 240 255
229 240 255
229 240 255
229 240 255
229 240 255
229 240 255
229 240 255
229 240 255
229 240 255
229 240 255
229 240 255
229 240 255
229 240 255
229 240 255
229 240 255
229 240 255
229 240 255
229 240 255
229 240 255
229 240 255
229 240 255
229 240 255
229 240 255
229 240 255
229 240 255
229 240 255
229 240 255
229 240 255
229 240 255
229 240 255
229 240 255
229 240 255
229 240 255
229 240 255
229 240 255
229 240 255
229 240 255
229 240 255
229 240 255
229 240 255
229 240 255
229 240 255
229 240 255
229 240 255
229 240 255
229 240 255
229 240 255
229 240 255
229 240 255
229 240 255
229 240 255
229 240 255
229 240 255
229 240 255
229 240 255
229 240 255
229 240 255
229 240 255
229 240 255
229 240 255
229 240 255
229 240 255
229 240 255
229 240 255
229 240 255
229 240 255
229 240 255
229 240 255
229 240 255
229 240 255
229 240 255
229 240 255
229 240 255
229 240 255
229 240 255
229 240 255
229 240 255
229 240 255
229 240 255
229 240 255
229 240 255
229 240 255
229 240 255
229 240 255
229 240 255
229 240 255
229 240 255
229 240 255
229 240 255
229 240 255
229 240 255
229 240 255
229 240 255
229 240 255
229 240 255
229 240 255
229 240 255
229 240 255
229 240 255
229 240 255
229 240 255
229 240 255
229 240 255
229 240 255
229 240 255
229 240 255
229 240 255
229 240 255
229 240 255
229 240 255
229 240 255
229 240 255
229 240 255
229 240 255
229 240 255
229 240 255
229 240 255
229 240 255
229 240 255
229 240 255
229 240 255
229 240 255
229 240 255
229 240 255
229 240 255
229 240 255
229 240 255
229 240 255
229 240 255
229 240 255
229 240 255
229 240 255
229 240 255
229 240 255
229 240 255
229 240 255
229 240 255
229 240 255
229 240 255
229 240 255
229 240 255
229 240 255
229 240 255
229 240 255
229 240 255
229 240 255
229 240 255
229 240 255
229 240 255
229 240 255
229 240 255
229 240 255
229 240 255
229 240 255
229 240 255
229 240 255
229 240 255
229 240 255
229 240 255
229 240 255
229 240 255
229 240 255
229 240 255
229 240 255
229 240 255
229 240 255
229 240 255
229 240 255
229 240 255
229 240 255
229 240 255
229 240 255
229 240 255
229 240 255
229 240 255
229 240 255
229 240 255
229 240 255
229 240 255
229 240 255
229 240 255
229 240 255
229 240 255
229 240 255
229 240 255
229 240 255
229 240 255
229 240 255
229 240 255
229 240 255
229 240 255
229 240 255
229 240 255
229 240 255
229 240 255
229 240 255
229 240 255
229 240 255
229 240 255
132 138 151
0 0 45
0 0 52
0 0 62
110 94 84
140 120 104
154 134 113
108 96 67
55 64 25
50 60 20
44 55 15
47 57 19
38 54 13
41 57 14
46 63 17
42 60 12
45 61 16
56 69 24
62 74 29
55 68 22
52 68 23
48 64 22
54 66 20
58 67 24
60 68 26
62 73 29
51 62 21
54 63 20
52 59 25
39 55 24
42 61 39
42 60 21
37 52 55
16 22 64
0 0 53
0 0 43
0 0 42
0 0 42
0 0 42
0 0 42
0 0 42
0 0 42
0 0 42
0 0 42
0 0 42
0 0 42
0 0 42
0 0 42
0 0 42
0 0 42
0 0 42
0 0 42
0 0 42
0 0 42
0 0 42
0 0 42
0 0 42
0 0 42
0 0 42
0 0 42
0 0 42
0 0 42
0 0 42
0 0 42
0 0 42
0 0 42
0 0 42
0 0 42
0 0 42
0 0 42
0 0 42
0 0 42
0 0 42
0 0 42
0 0 42
0 0 42
0 0 42
0 0 42
0 0 42
0 0 42
0 0 42
0 0 42
0 0 42
0 0 42
0 0 42
0 0 42
0 0 42
0 0 42
0 0 42
0 0 42
0 0 42
0 0 42
0 0 42
0 0 42
0 0 42
0 0 42
0 0 42
0 0 42
0 0 42
0 0 42
0 0 42
0 0 42
0 0 42
0 0 42
0 0 42
0 0 42
0 0 42
0 0 42
0 0 42
0 0 42
0 0 42
0 0 42
0 0 42
0 0 42
0 0 43
0 0 44
0 0 45
0 0 48
0 0 48
0 0 51
0 2 57
0 3 63
0 0 67
0 14 77
28 46 100
165 163 140
207 177 141
163 141 101
110 100 71
107 93 64
120 102 75
123 102 75
130 106 78
129 112 82
127 109 77
124 110 77
120 109 79
111 102 69
107 98 67
102 93 64
89 83 54
81 75 48
78 70 47
92 81 55
87 77 51
71 71 39
65 69 37
43 49 40
4 6 47
0 0 45
0 0 44
0 0 45
0 0 45
0 0 44
0 0 44
0 0 44
0 0 41
0 0 42
0 0 42
141 148 161
229 240 255
229 240 255
229 240 255
229 240 255
229 240 255
229 240 255
229 240 255
229 240 255
229 240 255
229 240 255
229 240 255
229 240 255
229 240 255
229 240 255
229 240 255
229 240 255
229 240 255
229 240 255
229 240 255
229 240 255
229 240 255
229 240 255
229 240 255
229 240 255
229 240 255
229 240 255
229 240 255
229 240 255
229 240 255
229 240 255
229 240 255
229 240 255
229 240 255
229 240 255
229 240 255
229 240 255
229 240 255
229 240 255
229 240 255
229 240 255
229 240 255
229 240 255
229 240 255
229 240 255
229 240 255
229 240 255
229 240 255
229 240 255
229 240 255
229 240 255
229 240 255
229 240 255
229 240 255
229 240 255
229 240 255
229 240 255
229 240 255
229 240 255
229 240 255
229 240 255
229 240 255
229 240 255
229 240 255
229 240 255
229 240 255
229 240 255
229 240 255
229 240 255
229 240 255
229 240 255
229 240 255
229 240 255
229 240 255
229 240 255
229 240 255
229 240 255
229 240 255
229 240 255
229 240 255
229 240 255
229 240 255
229 240 255
229 240 255
229 240 255
229 240 255
229 240 255
229 240 255
229 240 255
229 240 255
229 240 255
229 240 255
229 240 255
229 240 255
229 240 255
229 240 255
229 240 255
229 240 255
229 240 255
229 240 255
229 240 255
229 240 255
229 240 255
229 240 255
229 240 255
229 240 255
229 240 255
229 240 255
229 240 255
229 240 255
229 240 255
229 240 255
229 240 255
229 240 255
229 240 255
229 240 255
229 240 255
229 240 255
229 240 255
229 240 255
229 240 255
229 240 255
229 240 255
229 240 255
229 240 255
229 240 255
229 240 255
229 240 255
229 240 255
229 240 255
229 240 255
229 240 255
229 240 255
229 240 255
229 240 255
229 240 255
229 240 255
229 240 255
229 240 255
229 240 255
229 240 255
229 240 255
229 240 255
229 240 255
229 240 255
229 240 255
229 240 255
229 240 255
229 240 255
229 240 255
229 240 255
229 240 255
229 240 255
229 240 255
229 240 255
229 240 255
229 240 255
229 240 255
229 240 255
229 240 255
229 240 255
229 240 255
229 240 255
229 240 255
229 240 255
229 240 255
229 240 255
229 240 255
229 240 255
229 240 255
229 240 255
229 240 255
229 240 255
229 240 255
229 240 255
229 240 255
229 240 255
229 240 255
229 240 255
229 240 255
229 240 255
229 240 255
229 240 255
229 240 255
229 240 255
229 240 255
229 240 255
229 240 255
229 240 255
229 240 255
229 240 255
229 240 255
229 240 255
229 240 255
229 240 255
229 240 255
229 240 255
229 240 255
229 240 255
229 240 255
229 240 255
229 240 255
229 240 255
229 240 255
229 240 255
229 240 255
229 240 255
229 240 255
229 240 255
229 240 255
229 240 255
229 240 255
229 240 255
229 240 255
229 240 255
229 240 255
229 240 255
229 240 255
229 240 255
229 240 255
229 240 255
229 240 255
229 240 255
229 240 255
229 240 255
229 240 255
229 240 255
229 240 255
229 240 255
229 240 255
230 240 255
230 240 255
230 240 255
230 240 255
230 240 255
230 240 255
230 240 255
230 240 255
230 240 255
230 240 255
230 240 255
223 233 248
69 72 87
0 0 47
0 0 56
41 35 66
134 116 95
143 124 107
114 99 69
59 70 31
51 61 22
51 61 23
50 57 22
47 59 21
47 62 22
50 63 21
51 62 19
46 60 18
47 61 19
51 65 22
49 63 18
50 65 19
42 55 10
42 55 15
43 55 12
45 55 13
40 51 16
44 56 23
36 48 38
16 28 45
6 10 50
14 20 54
10 14 50
7 11 48
0 0 48
0 0 45
0 0 39
0 0 43
0 0 42
0 0 42
0 0 42
0 0 42
0 0 42
0 0 42
0 0 42
0 0 42
0 0 42
0 0 42
0 0 42
0 0 42
0 0 42
0 0 42
0 0 42
0 0 42
0 0 42
0 0 42
0 0 42
0 0 42
0 0 42
0 0 42
0 0 42
0 0 42
0 0 42
0 0 42
0 0 42
0 0 42
0 0 42
0 0 42
0 0 42
0 0 42
0 0 42
0 0 42
0 0 42
0 0 42
0 0 42
0 0 42
0 0 42
0 0 42
0 0 42
0 0 42
0 0 42
0 0 42
0 0 42
0 0 42
0 0 42
0 0 42
0 0 42
0 0 42
0 0 42
0 0 42
0 0 42
0 0 42
0 0 42
0 0 42
0 0 42
0 0 42
0 0 42
0 0 42
0 0 42
0 0 42
0 0 42
0 0 42
0 0 42
0 0 42
0 0 42
0 0 42
0 0 42
0 0 42
0 0 42
0 0 42
0 0 42
0 0 42
0 0 42
0 0 42
0 0 42
0 0 42
0 0 42
0 0 44
0 0 46
0 0 48
0 0 50
0 0 55
0 0 62
0 0 68
0 17 78
0 29 91
183 170 137
209 191 149
152 132 94
122 106 77
118 99 69
127 105 76
136 110 82
142 114 85
144 122 88
146 126 92
134 120 85
125 110 78
110 99 66
103 94 67
83 81 51
70 69 40
74 70 44
84 77 54
87 74 50
65 60 30
67 70 35
45 55 50
0 0 45
0 0 45
0 0 45
0 0 45
0 0 45
0 0 42
0 0 41
0 0 44
0 0 42
0 0 42
0 0 42
82 86 100
224 234 249
230 240 255
230 240 255
230 240 255
230 240 255
230 240 255
230 240 255
230 240 255
230 240 255
230 240 255
230 240 255
230 240 255
230 240 255
230 240 255
229 240 255
229 240 255
229 240 255
229 240 255
229 240 255
229 240 255
229 240 255
229 240 255
229 240 255
229 240 255
229 240 255
229 240 255
229 240 255
229 240 255
229 240 255
229 240 255
229 240 255
229 240 255
229 240 255
229 240 255
229 240 255
229 240 255
229 240 255
229 240 255
229 240 255
229 240 255
229 240 255
229 240 255
229 240 255
229 240 255
229 240 255
229 240 255
229 240 255
229 240 255
229 240 255
229 240 255
229 240 255
229 240 255
229 240 255
229 240 255
229 240 255
229 240 255
229 240 255
229 240 255
229 240 255
229 240 255
229 240 255
229 240 255
229 240 255
229 240 255
229 240 255
229 240 255
229 240 255
229 240 255
229 240 255
229 240 255
229 240 255
229 240 255
229 240 255
229 240 255
229 240 255
229 240 255
229 240 255
229 240 255
229 240 255
229 240 255
229 240 255
229 240 255
229 240 255
229 240 255
229 240 255
229 240 255
229 240 255
229 240 255
229 240 255
229 240 255
229 240 255
229 240 255
229 240 255
229 240 255
229 240 255
229 240 255
229 240 255
229 240 255
229 240 255
229 240 255
229 240 255
229 240 255
229 240 255
229 240 255
229 240 255
229 240 255
229 240 255
229 240 255
229 240 255
229 240 255
229 240 255
229 240 255
229 240 255
229 240 255
229 240 255
229 240 255
229 240 255
229 240 255
229 240 255
229 240 255
229 240 255
229 240 255
229 240 255
229 240 255
229 240 255
229 240 255
229 240 255
229 240 255
229 240 255
229 240 255
229 240 255
229 240 255
229 240 255
229 240 255
229 240 255
229 240 255
229 240 255
229 240 255
229 240 255
229 240 255
229 240 255
229 240 255
229 240 255
229 240 255
229 240 255
229 240 255
229 240 255
229 240 255
229 240 255
229 240 255
229 240 255
229 240 255
229 240 255
229 240 255
229 240 255
229 240 255
229 240 255
229 240 255
229 240 255
229 240 255
229 240 255
229 240 255
229 240 255
229 240 255
229 240 255
229 240 255
229 240 255
229 240 255
229 240 255
229 240 255
229 240 255
229 240 255
229 240 255
229 240 255
229 240 255
229 240 255
229 240 255
229 240 255
229 240 255
229 240 255
229 240 255
229 240 255
229 240 255
229 240 255
229 240 255
229 240 255
229 240 255
229 240 255
229 240 255
229 240 255
229 240 255
229 240 255
229 240 255
229 240 255
229 240 255
229 240 255
229 240 255
229 240 255
229 240 255
229 240 255
229 240 255
229 240 255
229 240 255
230 240 255
230 240 255
230 240 255
230 240 255
230 240 255
230 240 255
230 240 255
230 240 255
230 240 255
230 240 255
230 240 255
230 240 255
230 240 255
230 240 255
230 240 255
230 240 255
230 240 255
230 240 255
230 240 255
230 240 255
230 240 255
230 240 255
230 240 255
230 240 255
230 240 255
230 240 255
230 240 255
230 240 255
230 240 255
230 240 255
230 240 255
230 240 255
230 240 255
230 240 255
230 240 255
230 240 255
230 240 255
230 240 255
230 240 255
210 220 235
23 24 51
0 0 52
0 0 62
96 82 74
134 112 94
130 108 84
105 96 67
60 68 29
55 63 26
60 67 32
62 71 34
54 65 26
47 59 19
51 61 21
47 59 16
47 61 19
38 52 9
48 62 20
49 63 21
43 54 11
48 59 21
35 48 7
25 44 0
24 48 21
7 22 65
1 4 60
0 0 58
0 0 49
0 0 44
0 0 47
0 0 44
0 0 49
0 0 42
0 0 38
0 0 43
0 0 42
0 0 42
0 0 42
0 0 42
0 0 42
0 0 42
0 0 42
0 0 42
0 0 42
0 0 42
0 0 42
0 0 42
0 0 42
0 0 42
0 0 42
0 0 42
0 0 42
0 0 42
0 0 42
0 0 42
0 0 42
0 0 42
0 0 42
0 0 42
0 0 42
0 0 42
0 0 42
0 0 42
0 0 42
0 0 42
0 0 42
0 0 42
0 0 42
0 0 42
0 0 42
0 0 42
0 0 42
0 0 42
0 0 42
0 0 42
0 0 42
0 0 42
0 0 42
0 0 42
0 0 42
0 0 42
0 0 42
0 0 42
0 0 42
0 0 42
0 0 42
0 0 42
0 0 42
0 0 42
0 0 42
0 0 42
0 0 42
0 0 42
0 0 42
0 0 42
0 0 42
0 0 42
0 0 42
0 0 42
0 0 42
0 0 42
0 0 42
0 0 42
0 0 42
0 0 42
0 0 42
0 0 42
0 0 42
0 0 42
0 0 42
0 0 42
0 0 42
0 0 42
0 0 42
0 0 45
0 0 46
0 0 49
0 0 50
0 0 55
0 0 61
0 12 72
0 21 84
63 62 95
203 166 114
210 160 123
154 127 94
140 116 87
136 113 83
137 108 77
146 110 80
157 124 90
165 138 103
151 128 94
138 120 86
122 108 75
109 98 69
94 85 58
76 71 43
76 72 45
84 76 49
93 78 54
88 76 51
66 66 39
62 68 33
14 21 48
0 0 45
0 0 45
0 0 45
0 0 44
0 0 42
0 0 42
0 0 42
0 0 43
0 0 42
0 0 42
0 0 42
207 216 231
230 240 255
230 240 255
230 240 255
230 240 255
230 240 255
230 240 255
230 240 255
230 240 255
230 240 255
230 240 255
230 240 255
230 240 255
230 240 255
230 240 255
230 240 255
230 240 255
230 240 255
230 240 255
230 240 255
230 240 255
230 240 255
230 240 255
230 240 255
230 240 255
230 240 255
230 240 255
230 240 255
230 240 255
230 240 255
230 240 255
230 240 255
230 240 255
230 240 255
230 240 255
230 240 255
230 240 255
230 240 255
230 240 255
230 240 255
229 240 255
229 240 255
229 240 255
229 240 255
229 240 255
229 240 255
229 240 255
229 240 255
229 240 255
229 240 255
229 240 255
229 240 255
229 240 255
229 240 255
229 240 255
229 240 255
229 240 255
229 240 255
229 240 255
229 240 255
229 240 255
229 240 255
229 240 255
229 240 255
229 240 255
229 240 255
229 240 255
229 240 255
229 240 255
229 240 255
229 240 255
229 240 255
229 240 255
229 240 255
229 240 255
229 240 255
229 240 255
229 240 255
229 240 255
229 240 255
229 240 255
229 240 255
229 240 255
229 240 255
229 240 255
229 240 255
229 240 255
229 240 255
229 240 255
229 240 255
229 240 255
229 240 255
229 240 255
229 240 255
229 240 255
229 240 255
229 240 255
229 240 255
229 240 255
229 240 255
229 240 255
229 240 255
229 240 255
229 240 255
229 240 255
229 240 255
229 240 255
229 240 255
229 240 255
229 240 255
229 240 255
229 240 255
229 240 255
229 240 255
229 240 255
229 240 255
229 240 255
229 240 255
229 240 255
229 240 255
229 240 255
229 240 255
229 240 255
229 240 255
229 240 255
229 240 255
229 240 255
229 240 255
229 240 255
229 240 255
229 240 255
229 240 255
229 240 255
229 240 255
229 240 255
229 240 255
229 240 255
229 240 255
229 240 255
229 240 255
229 240 255
229 240 255
229 240 255
229 240 255
229 240 255
229 240 255
229 240 255
229 240 255
229 240 255
229 240 255
229 240 255
229 240 255
229 240 255
229 240 255
229 240 255
229 240 255
229 240 255
229 240 255
229 240 255
229 240 255
229 240 255
229 240 255
229 240 255
229 240 255
229 240 255
229 240 255
229 240 255
229 240 255
229 240 255
229 240 255
229 240 255
229 240 255
229 240 255
229 240 255
229 240 255
229 240 255
229 240 255
229 240 255
229 240 255
229 240 255
229 240 255
230 240 255
230 240 255
230 240 255
230 240 255
230 240 255
230 240 255
230 240 255
230 240 255
230 240 255
230 240 255
230 240 255
230 240 255
230 240 255
230 240 255
230 240 255
230 240 255
230 240 255
230 240 255
230 240 255
230 240 255
230 240 255
230 240 255
230 240 255
230 240 255
230 240 255
230 240 255
230 240 255
230 240 255
230 240 255
230 240 255
230 240 255
230 240 255
230 240 255
230 240 255
230 240 255
230 240 255
230 240 255
230 240 255
230 240 255
230 240 255
230 240 255
230 240 255
230 240 255
230 240 255
230 240 255
230 240 255
230 240 255
230 240 255
230 240 255
230 240 255
230 240 255
230 240 255
230 240 255
230 240 255
230 240 255
230 240 255
230 240 255
230 240 255
230 240 255
230 240 255
230 240 255
230 240 255
230 240 255
159 166 180
0 0 49
0 0 55
16 15 64
134 118 100
116 98 75
106 91 66
58 65 32
63 68 34
59 66 30
65 69 35
48 61 21
50 61 22
50 59 21
51 61 23
47 62 21
35 49 5
48 60 20
52 63 22
36 47 7
42 52 14
46 55 18
27 49 8
11 34 57
0 2 55
0 0 50
0 0 44
0 0 42
0 0 46
0 0 46
0 0 39
0 0 44
0 0 40
0 0 40
0 0 42
0 0 42
0 0 42
0 0 42
0 0 42
0 0 42
0 0 42
0 0 42
0 0 42
0 0 42
0 0 42
0 0 42
0 0 42
0 0 42
0 0 42
0 0 42
0 0 42
0 0 42
0 0 42
0 0 42
0 0 42
0 0 42
0 0 42
0 0 42
0 0 42
0 0 42
0 0 42
0 0 42
0 0 42
0 0 42
0 0 42
0 0 42
0 0 42
0 0 42
0 0 42
0 0 42
0 0 42
0 0 42
0 0 42
0 0 42
0 0 42
0 0 42
0 0 42
0 0 42
0 0 42
0 0 42
0 0 42
0 0 42
0 0 42
0 0 42
0 0 42
0 0 42
0 0 42
0 0 42
0 0 42
0 0 42
0 0 42
0 0 42
0 0 42
0 0 42
0 0 42
0 0 42
0 0 42
0 0 42
0 0 42
0 0 42
0 0 42
0 0 42
0 0 42
0 0 42
0 0 42
0 0 42
0 0 42
0 0 42
0 0 42
0 0 42
0 0 42
0 0 42
0 0 45
0 0 45
0 0 45
0 0 45
0 0 47
0 0 50
0 0 54
0 0 61
0 12 73
0 17 81
81 79 103
207 151 104
191 135 99
139 116 82
123 98 72
143 118 90
151 116 85
159 117 85
182 145 107
172 143 106
152 128 98
137 117 87
115 103 73
108 94 68
107 94 66
98 83 59
89 76 51
97 84 56
100 83 59
76 67 41
68 72 35
41 48 36
0 0 47
0 0 45
0 0 45
0 0 45
0 0 45
0 0 42
0 0 42
0 0 42
0 0 42
0 0 42
0 0 42
159 166 179
230 240 255
230 240 255
230 240 255
230 240 255
230 240 255
230 240 255
230 240 255
230 240 255
230 240 255
230 240 255
230 240 255
230 240 255
230 240 255
230 240 255
230 240 255
230 240 255
230 240 255
230 240 255
230 240 255
230 240 255
230 240 255
230 240 255
230 240 255
230 240 255
230 240 255
230 240 255
230 240 255
230 240 255
230 240 255
230 240 255
230 240 255
230 240 255
230 240 255
230 240 255
230 240 255
230 240 255
230 240 255
230 240 255
230 240 255
230 240 255
230 240 255
230 240 255
230 240 255
230 240 255
230 240 255
230 240 255
230 240 255
230 240 255
230 240 255
230 240 255
230 240 255
230 240 255
230 240 255
230 240 255
230 240 255
230 240 255
230 240 255
230 240 255
230 240 255
230 240 255
230 240 255
230 240 255
229 240 255
229 240 255
229 240 255
229 240 255
229 240 255
229 240 255
229 240 255
229 240 255
229 240 255
229 240 255
229 240 255
229 240 255
229 240 255
229 240 255
229 240 255
229 240 255
229 240 255
229 240 255
229 240 255
229 240 255
229 240 255
229 240 255
229 240 255
229 240 255
229 240 255
229 240 255
229 240 255
229 240 255
229 240 255
229 240 255
229 240 255
229 240 255
229 240 255
229 240 255
229 240 255
229 240 255
229 240 255
229 240 255
229 240 255
229 240 255
229 240 255
229 240 255
229 240 255
229 240 255
229 240 255
229 240 255
229 240 255
229 240 255
229 240 255
229 240 255
229 240 255
229 240 255
229 240 255
229 240 255
229 240 255
229 240 255
229 240 255
229 240 255
229 240 255
229 240 255
229 240 255
229 240 255
229 240 255
229 240 255
229 240 255
229 240 255
229 240 255
229 240 255
229 240 255
229 240 255
229 240 255
229 240 255
229 240 255
229 240 255
229 240 255
229 240 255
229 240 255
229 240 255
229 240 255
229 240 255
229 240 255
229 240 255
229 240 255
229 240 255
229 240 255
229 240 255
229 240 255
229 240 255
229 240 255
229 240 255
229 240 255
229 240 255
229 240 255
229 240 255
229 240 255
229 240 255
229 240 255
229 240 255
229 240 255
229 240 255
229 240 255
229 240 255
230 240 255
230 240 255
230 240 255
230 240 255
230 240 255
230 240 255
230 240 255
230 240 255
230 240 255
230 240 255
230 240 255
230 240 255
230 240 255
230 240 255
230 240 255
230 240 255
230 240 255
230 240 255
230 240 255
230 240 255
230 240 255
230 240 255
230 240 255
230 240 255
230 240 255
230 240 255
230 240 255
230 240 255
230 240 255
230 240 255
230 240 255
230 240 255
230 240 255
230 240 255
230 240 255
230 240 255
230 240 255
230 240 255
230 240 255
230 240 255
230 240 255
230 240 255
230 240 255
230 240 255
230 240 255
230 240 255
230 240 255
230 240 255
230 240 255
230 240 255
230 240 255
230 240 255
230 240 255
230 240 255
230 240 255
230 240 255
230 240 255
230 240 255
230 240 255
230 240 255
230 240 255
230 240 255
230 240 255
230 240 255
230 240 255
230 240 255
230 240 255
230 240 255
230 240 255
230 240 255
230 240 255
230 240 255
230 240 255
230 240 255
230 240 255
230 240 255
230 240 255
230 240 255
230 240 255
230 240 255
227 238 253
110 115 129
0 0 54
0 0 62
66 61 63
127 112 91
124 98 74
74 73 45
68 72 34
56 63 27
68 72 37
39 51 10
49 61 20
48 58 19
43 53 16
49 61 18
37 50 5
39 53 13
51 61 22
45 54 17
38 47 8
40 50 14
29 44 11
10 27 60
0 0 52
0 0 46
0 0 45
0 0 45
0 0 44
0 0 41
0 0 45
0 0 41
0 0 39
0 0 43
0 0 41
0 0 41
0 0 42
0 0 42
0 0 42
0 0 42
0 0 42
0 0 42
0 0 42
0 0 42
0 0 42
0 0 42
0 0 42
0 0 42
0 0 42
0 0 42
0 0 42
0 0 42
0 0 42
0 0 42
0 0 42
0 0 42
0 0 42
0 0 42
0 0 42
0 0 42
0 0 42
0 0 42
0 0 42
0 0 42
0 0 42
0 0 42
0 0 42
0 0 42
0 0 42
0 0 42
0 0 42
0 0 42
0 0 42
0 0 42
0 0 42
0 0 42
0 0 42
0 0 42
0 0 42
0 0 42
0 0 42
0 0 42
0 0 42
0 0 42
0 0 42
0 0 42
0 0 42
0 0 42
0 0 42
0 0 42
0 0 42
0 0 42
0 0 42
0 0 42
0 0 42
0 0 42
0 0 42
0 0 42
0 0 42
0 0 42
0 0 42
0 0 42
0 0 42
0 0 42
0 0 42
0 0 42
0 0 42
0 0 42
0 0 42
0 0 42
0 0 42
0 0 43
0 0 45
0 0 45
0 0 45
0 0 45
0 0 48
0 0 51
0 0 57
0 0 62
0 1 70
0 11 74
79 74 90
201 155 106
167 127 97
142 111 84
135 108 85
159 135 99
163 124 91
162 115 81
182 140 100
185 152 114
154 126 91
134 114 82
120 102 74
112 95 68
114 94 66
98 83 56
99 87 59
105 89 62
93 79 52
76 69 39
58 65 32
11 14 45
0 0 45
0 0 45
0 0 45
0 0 45
0 0 44
0 0 42
0 0 42
0 0 42
0 0 42
0 0 42
117 122 135
229 239 254
230 240 255
230 240 255
230 240 255
230 240 255
230 240 255
230 240 255
230 240 255
230 240 255
230 240 255
230 240 255
230 240 255
230 240 255
230 240 255
230 240 255
230 240 255
230 240 255
230 240 255
230 240 255
230 240 255
230 240 255
230 240 255
230 240 255
230 240 255
230 240 255
230 240 255
230 240 255
230 240 255
230 240 255
230 240 255
230 240 255
230 240 255
230 240 255
230 240 255
230 240 255
230 240 255
230 240 255
230 240 255
230 240 255
230 240 255
230 240 255
230 240 255
230 240 255
230 240 255
230 240 255
230 240 255
230 240 255
230 240 255
230 240 255
230 240 255
230 240 255
230 240 255
230 240 255
230 240 255
230 240 255
230 240 255
230 240 255
230 240 255
230 240 255
230 240 255
230 240 255
230 240 255
230 240 255
230 240 255
230 240 255
230 240 255
230 240 255
230 240 255
230 240 255
230 240 255
230 240 255
230 240 255
230 240 255
230 240 255
230 240 255
230 240 255
230 240 255
230 240 255
230 240 255
230 240 255
230 240 255
229 240 255
229 240 255
229 240 255
229 240 255
229 240 255
229 240 255
229 240 255
229 240 255
229 240 255
229 240 255
229 240 255
229 240 255
229 240 255
229 240 255
229 240 255
229 240 255
229 240 255
229 240 255
229 240 255
229 240 255
229 240 255
229 240 255
229 240 255
229 240 255
229 240 255
229 240 255
229 240 255
229 240 255
229 240 255
229 240 255
229 240 255
229 240 255
229 240 255
229 240 255
229 240 255
229 240 255
229 240 255
229 240 255
229 240 255
229 240 255
229 240 255
229 240 255
229 240 255
229 240 255
229 240 255
229 240 255
229 240 255
229 240 255
229 240 255
229 240 255
229 240 255
229 240 255
229 240 255
229 240 255
229 240 255
229 240 255
229 240 255
229 240 255
229 240 255
229 240 255
229 240 255
229 240 255
229 240 255
229 240 255
229 240 255
229 240 255
229 240 255
230 240 255
230 240 255
230 240 255
230 240 255
230 240 255
230 240 255
230 240 255
230 240 255
230 240 255
230 240 255
230 240 255
230 240 255
230 240 255
230 240 255
230 240 255
230 240 255
230 240 255
230 240 255
230 240 255
230 240 255
230 240 255
230 240 255
230 240 255
230 240 255
230 240 255
230 240 255
230 240 255
230 240 255
230 240 255
230 240 255
230 240 255
230 240 255
230 240 255
230 240 255
230 240 255
230 240 255
230 240 255
230 240 255
230 240 255
230 240 255
230 240 255
230 240 255
230 240 255
230 240 255
230 240 255
230 240 255
230 240 255
230 240 255
230 240 255
230 240 255
230 240 255
230 240 255
230 240 255
230 240 255
230 240 255
230 240 255
230 240 255
230 240 255
230 240 255
230 240 255
230 240 255
230 240 255
230 240 255
230 240 255
230 240 255
230 240 255
230 240 255
230 240 255
230 240 255
230 240 255
230 240 255
230 240 255
230 240 255
230 240 255
230 240 255
230 240 255
230 240 255
230 240 255
230 240 255
230 240 255
230 240 255
230 240 255
230 240 255
230 240 255
230 240 255
230 240 255
230 240 255
230 240 255
230 240 255
230 240 255
230 240 255
230 240 255
230 240 255
230 240 255
230 240 255
230 240 255
230 240 255
230 240 255
220 231 245
83 86 103
0 0 61
13 15 68
116 103 90
129 107 79
98 84 61
84 79 43
66 67 34
56 65 31
55 62 27
55 66 29
52 60 23
39 47 12
48 55 18
53 62 21
53 65 24
52 65 26
50 61 21
45 53 15
39 49 10
34 51 8
20 38 54
0 6 55
0 0 48
0 0 45
0 0 45
0 0 45
0 0 43
0 0 42
0 0 42
0 0 42
0 0 42
0 0 42
0 0 42
0 0 42
0 0 42
0 0 42
0 0 42
0 0 42
0 0 42
0 0 42
0 0 42
0 0 42
0 0 42
0 0 42
0 0 42
0 0 42
0 0 42
0 0 42
0 0 42
0 0 42
0 0 42
0 0 42
0 0 42
0 0 42
0 0 42
0 0 42
0 0 42
0 0 42
0 0 42
0 0 42
0 0 42
0 0 42
0 0 42
0 0 42
0 0 42
0 0 42
0 0 42
0 0 42
0 0 42
0 0 42
0 0 42
0 0 42
0 0 42
0 0 42
0 0 42
0 0 42
0 0 42
0 0 42
0 0 42
0 0 42
0 0 42
0 0 42
0 0 42
0 0 42
0 0 42
0 0 42
0 0 42
0 0 42
0 0 42
0 0 42
0 0 42
0 0 42
0 0 42
0 0 42
0 0 42
0 0 42
0 0 42
0 0 42
0 0 42
0 0 42
0 0 42
0 0 42
0 0 42
0 0 42
0 0 42
0 0 42
0 0 42
0 0 42
0 0 42
0 0 42
0 0 44
0 0 45
0 0 45
0 0 47
0 0 51
0 0 56
0 0 62
0 0 67
0 13 72
116 101 99
210 161 110
173 127 92
139 113 82
139 115 89
147 128 94
155 120 87
156 114 78
175 130 94
165 130 92
141 114 80
125 105 77
95 81 55
113 96 65
116 100 69
106 91 62
106 89 62
98 81 55
89 78 49
70 70 43
26 31 42
0 0 42
0 0 44
0 0 45
0 0 45
0 0 45
0 0 42
0 0 42
0 0 42
0 0 42
0 0 42
60 63 79
213 223 237
230 240 255
230 240 255
230 240 255
230 240 255
230 240 255
230 240 255
230 240 255
230 240 255
230 240 255
230 240 255
230 240 255
230 240 255
230 240 255
230 240 255
230 240 255
230 240 255
230 240 255
230 240 255
230 240 255
230 240 255
230 240 255
230 240 255
230 240 255
230 240 255
230 240 255
230 240 255
230 240 255
230 240 255
230 240 255
230 240 255
230 240 255
230 240 255
230 240 255
230 240 255
230 240 255
230 240 255
230 240 255
230 240 255
230 240 255
230 240 255
230 240 255
230 240 255
230 240 255
230 240 255
230 240 255
230 240 255
230 240 255
230 240 255
230 240 255
230 240 255
230 240 255
230 240 255
230 240 255
230 240 255
230 240 255
230 240 255
230 240 255
230 240 255
230 240 255
230 240 255
230 240 255
230 240 255
230 240 255
230 240 255
230 240 255
230 240 255
230 240 255
230 240 255
230 240 255
230 240 255
230 240 255
230 240 255
230 240 255
230 240 255
230 240 255
230 240 255
230 240 255
230 240 255
230 240 255
230 240 255
230 240 255
230 240 255
230 240 255
230 240 255
230 240 255
230 240 255
230 240 255
230 240 255
230 240 255
230 240 255
230 240 255
230 240 255
230 240 255
230 240 255
230 240 255
230 240 255
230 240 255
230 240 255
229 240 255
229 240 255
229 240 255
229 240 255
229 240 255
229 240 255
229 240 255
229 240 255
229 240 255
229 240 255
229 240 255
229 240 255
229 240 255
229 240 255
229 240 255
229 240 255
229 240 255
229 240 255
229 240 255
229 240 255
229 240 255
229 240 255
229 240 255
229 240 255
229 240 255
229 240 255
229 240 255
229 240 255
229 240 255
229 240 255
229 240 255
229 240 255
229 240 255
229 240 255
230 240 255
230 240 255
230 240 255
230 240 255
230 240 255
230 240 255
230 240 255
230 240 255
230 240 255
230 240 255
230 240 255
230 240 255
230 240 255
230 240 255
230 240 255
230 240 255
230 240 255
230 240 255
230 240 255
230 240 255
230 240 255
230 240 255
230 240 255
230 240 255
230 240 255
230 240 255
230 240 255
230 240 255
230 240 255
230 240 255
230 240 255
230 240 255
230 240 255
230 240 255
230 240 255
230 240 255
230 240 255
230 240 255
230 240 255
230 240 255
230 240 255
230 240 255
230 240 255
230 240 255
230 240 255
230 240 255
230 240 255
230 240 255
230 240 255
230 240 255
230 240 255
230 240 255
230 240 255
230 240 255
230 240 255
230 240 255
230 240 255
230 240 255
230 240 255
230 240 255
230 240 255
230 240 255
230 240 255
230 240 255
230 240 255
230 240 255
230 240 255
230 240 255
230 240 255
230 240 255
230 240 255
230 240 255
230 240 255
230 240 255
230 240 255
230 240 255
230 240 255
230 240 255
230 240 255
230 240 255
230 240 255
230 240 255
230 240 255
230 240 255
230 240 255
230 240 255
230 240 255
230 240 255
230 240 255
230 240 255
230 240 255
230 240 255
230 240 255
230 240 255
230 240 255
230 240 255
230 240 255
230 240 255
230 240 255
230 240 255
230 240 255
230 240 255
230 240 255
230 240 255
230 240 255
230 240 255
230 240 255
230 240 255
230 240 255
230 240 255
230 240 255
230 240 255
230 240 255
230 240 255
230 240 255
187 195 209
0 0 53
0 0 66
29 30 67
128 117 100
111 97 72
79 75 46
66 67 35
53 60 27
66 74 38
61 69 32
53 62 24
64 71 34
55 60 25
68 72 31
63 73 31
55 71 26
53 74 25
53 64 24
48 53 17
42 50 17
29 49 20
9 24 58
0 0 48
0 0 44
0 0 45
0 0 44
0 0 45
0 0 45
0 0 44
0 0 42
0 0 42
0 0 42
0 0 42
0 0 42
0 0 42
0 0 42
0 0 42
0 0 42
0 0 42
0 0 42
0 0 42
0 0 42
0 0 42
0 0 42
0 0 42
0 0 42
0 0 42
0 0 42
0 0 42
0 0 42
0 0 42
0 0 42
0 0 42
0 0 42
0 0 42
0 0 42
0 0 42
0 0 42
0 0 42
0 0 42
0 0 42
0 0 42
0 0 42
0 0 42
0 0 42
0 0 42
0 0 42
0 0 42
0 0 42
0 0 42
0 0 42
0 0 42
0 0 42
0 0 42
0 0 42
0 0 42
0 0 42
0 0 42
0 0 42
0 0 42
0 0 42
0 0 42
0 0 42
0 0 42
0 0 42
0 0 42
0 0 42
0 0 42
0 0 42
0 0 42
0 0 42
0 0 42
0 0 42
0 0 42
0 0 42
0 0 42
0 0 42
0 0 42
0 0 42
0 0 42
0 0 42
0 0 42
0 0 42
0 0 42
0 0 42
0 0 42
0 0 42
0 0 42
0 0 42
0 0 42
0 0 42
0 0 43
0 0 45
0 0 45
0 0 50
0 0 53
0 0 56
0 0 62
0 13 79
111 106 106
223 196 149
188 144 109
159 129 97
141 119 86
135 109 82
152 119 86
161 122 88
164 122 89
158 123 87
105 84 59
90 79 56
95 86 57
119 101 69
111 96 66
101 89 59
92 78 50
82 74 45
60 63 37
23 29 52
0 0 44
0 0 43
0 0 42
0 0 45
0 0 45
0 0 43
0 0 42
0 0 42
0 0 42
0 0 42
0 0 42
196 205 219
230 240 255
230 240 255
230 240 255
230 240 255
230 240 255
230 240 255
230 240 255
230 240 255
230 240 255
230 240 255
230 240 255
230 240 255
230 240 255
230 240 255
230 240 255
230 240 255
230 240 255
230 240 255
230 240 255
230 240 255
230 240 255
230 240 255
230 240 255
230 240 255
230 240 255
230 240 255
230 240 255
230 240 255
230 240 255
230 240 255
230 240 255
230 240 255
230 240 255
230 240 255
230 240 255
230 240 255
230 240 255
230 240 255
230 240 255
230 240 255
230 240 255
230 240 255
230 240 255
230 240 255
230 240 255
230 240 255
230 240 255
230 240 255
230 240 255
230 240 255
230 240 255
230 240 255
230 240 255
230 240 255
230 240 255
230 240 255
230 240 255
230 240 255
230 240 255
230 240 255
230 240 255
230 240 255
230 240 255
230 240 255
230 240 255
230 240 255
230 240 255
230 240 255
230 240 255
230 240 255
230 240 255
230 240 255
230 240 255
230 240 255
230 240 255
230 240 255
230 240 255
230 240 255
230 240 255
230 240 255
230 240 255
230 240 255
230 240 255
230 240 255
230 240 255
230 240 255
230 240 255
230 240 255
230 240 255
230 240 255
230 240 255
230 240 255
230 240 255
230 240 255
230 240 255
230 240 255
230 240 255
230 240 255
230 240 255
230 240 255
230 240 255
230 240 255
230 240 255
230 240 255
230 240 255
230 240 255
230 240 255
230 240 255
230 240 255
230 240 255
230 240 255
230 240 255
230 240 255
230 240 255
230 240 255
229 240 255
229 240 255
229 240 255
229 240 255
229 240 255
229 240 255
229 240 255
229 240 255
229 240 255
230 240 255
230 240 255
230 240 255
230 240 255
230 240 255
230 240 255
230 240 255
230 240 255
230 240 255
230 240 255
230 240 255
230 240 255
230 240 255
230 240 255
230 240 255
230 240 255
230 240 255
230 240 255
230 240 255
230 240 255
230 240 255
230 240 255
230 240 255
230 240 255
230 240 255
230 240 255
230 240 255
230 240 255
230 240 255
230 240 255
230 240 255
230 240 255
230 240 255
230 240 255
230 240 255
230 240 255
230 240 255
230 240 255
230 240 255
230 240 255
230 240 255
230 240 255
230 240 255
230 240 255
230 240 255
230 240 255
230 240 255
230 240 255
230 240 255
230 240 255
230 240 255
230 240 255
230 240 255
230 240 255
230 240 255
230 240 255
230 240 255
230 240 255
230 240 255
230 240 255
230 240 255
230 240 255
230 240 255
230 240 255
230 240 255
230 240 255
230 240 255
230 240 255
230 240 255
230 240 255
230 240 255
230 240 255
230 240 255
230 240 255
230 240 255
230 240 255
230 240 255
230 240 255
230 240 255
230 240 255
230 240 255
230 240 255
230 240 255
230 240 255
230 240 255
230 240 255
230 240 255
230 240 255
230 240 255
230 240 255
230 240 255
230 240 255
230 240 255
230 240 255
230 240 255
230 240 255
230 240 255
230 240 255
230 240 255
230 240 255
230 240 255
230 240 255
230 240 255
230 240 255
230 240 255
230 240 255
230 240 255
230 240 255
230 240 255
230 240 255
230 240 255
230 240 255
230 240 255
230 240 255
230 240 255
230 240 255
230 240 255
230 240 255
230 240 255
230 240 255
230 240 255
230 240 255
230 240 255
230 240 255
230 240 255
188 197 211
0 0 57
0 13 74
73 74 82
131 119 104
118 103 76
70 68 40
85 84 49
70 78 38
72 80 42
56 66 28
61 68 31
66 68 30
66 68 31
71 73 34
65 75 32
55 72 29
47 57 20
48 58 23
49 54 18
36 52 16
17 32 52
0 0 52
0 0 43
0 0 44
0 0 44
0 0 42
0 0 45
0 0 45
0 0 43
0 0 42
0 0 42
0 0 42
0 0 42
0 0 42
0 0 42
0 0 42
0 0 42
0 0 42
0 0 42
0 0 42
0 0 42
0 0 42
0 0 42
0 0 42
0 0 42
0 0 42
0 0 42
0 0 42
0 0 42
0 0 42
0 0 42
0 0 42
0 0 42
0 0 42
0 0 42
0 0 42
0 0 42
0 0 42
0 0 42
0 0 42
0 0 42
0 0 42
0 0 42
0 0 42
0 0 42
0 0 42
0 0 42
0 0 42
0 0 42
0 0 42
0 0 42
0 0 42
0 0 42
0 0 42
0 0 42
0 0 42
0 0 42
0 0 42
0 0 42
0 0 42
0 0 42
0 0 42
0 0 42
0 0 42
0 0 42
0 0 42
0 0 42
0 0 42
0 0 42
0 0 42
0 0 42
0 0 42
0 0 42
0 0 42
0 0 42
0 0 42
0 0 42
0 0 42
0 0 42
0 0 42
0 0 42
0 0 42
0 0 42
0 0 42
0 0 42
0 0 42
0 0 42
0 0 42
0 0 42
0 0 42
0 0 43
0 0 45
0 0 45
0 0 47
0 0 49
0 0 53
0 0 58
0 8 64
125 105 96
211 166 115
157 130 98
157 130 96
161 131 92
137 107 79
154 118 84
154 118 86
150 113 79
141 109 78
94 80 57
94 85 61
106 90 60
107 92 62
101 89 60
88 74 48
79 68 41
58 61 37
21 27 44
0 0 45
0 0 44
0 0 43
0 0 45
0 0 43
0 0 42
0 0 42
0 0 42
0 0 42
0 0 43
0 0 43
172 180 193
230 240 255
230 240 255
230 240 255
230 240 255
230 240 255
230 240 255
230 240 255
230 240 255
230 240 255
230 240 255
230 240 255
230 240 255
230 240 255
230 240 255
230 240 255
230 240 255
230 240 255
230 240 255
230 240 255
230 240 255
230 240 255
230 240 255
230 240 255
230 240 255
230 240 255
230 240 255
230 240 255
230 240 255
230 240 255
230 240 255
230 240 255
230 240 255
230 240 255
230 240 255
230 240 255
230 240 255
230 240 255
230 240 255
230 240 255
230 240 255
230 240 255
230 240 255
230 240 255
230 240 255
230 240 255
230 240 255
230 240 255
230 240 255
230 240 255
230 240 255
230 240 255
230 240 255
230 240 255
230 240 255
230 240 255
230 240 255
230 240 255
230 240 255
230 240 255
230 240 255
230 240 255
230 240 255
230 240 255
230 240 255
230 240 255
230 240 255
230 240 255
230 240 255
230 240 255
230 240 255
230 240 255
230 240 255
230 240 255
230 240 255
230 240 255
230 240 255
230 240 255
230 240 255
230 240 255
230 240 255
230 240 255
230 240 255
230 240 255
230 240 255
230 240 255
230 240 255
230 240 255
230 240 255
230 240 255
230 240 255
230 240 255
230 240 255
230 240 255
230 240 255
230 240 255
230 240 255
230 240 255
230 240 255
230 240 255
230 240 255
230 240 255
230 240 255
230 240 255
230 240 255
230 240 255
230 240 255
230 240 255
230 240 255
230 240 255
230 240 255
230 240 255
230 240 255
230 240 255
230 240 255
230 240 255
230 240 255
230 240 255
230 240 255
230 240 255
230 240 255
230 240 255
230 240 255
230 240 255
230 240 255
230 240 255
230 240 255
230 240 255
230 240 255
230 240 255
230 240 255
230 240 255
230 240 255
230 240 255
230 240 255
230 240 255
230 240 255
230 240 255
230 240 255
230 240 255
230 240 255
230 240 255
230 240 255
230 240 255
230 240 255
230 240 255
230 240 255
230 240 255
230 240 255
230 240 255
230 240 255
230 240 255
230 240 255
230 240 255
230 240 255
230 240 255
230 240 255
230 240 255
230 240 255
230 240 255
230 240 255
230 240 255
230 240 255
230 240 255
230 240 255
230 240 255
230 240 255
230 240 255
230 240 255
230 240 255
230 240 255
230 240 255
230 240 255
230 240 255
230 240 255
230 240 255
230 240 255
230 240 255
230 240 255
230 240 255
230 240 255
230 240 255
230 240 255
230 240 255
230 240 255
230 240 255
230 240 255
230 240 255
230 240 255
230 240 255
230 240 255
230 240 255
230 240 255
230 240 255
230 240 255
230 240 255
230 240 255
230 240 255
230 240 255
230 240 255
230 240 255
230 240 255
230 240 255
230 240 255
230 240 255
230 240 255
230 240 255
230 240 255
230 240 255
230 240 255
230 240 255
230 240 255
230 240 255
230 240 255
230 240 255
230 240 255
230 240 255
230 240 255
230 240 255
230 240 255
230 240 255
230 240 255
230 240 255
230 240 255
230 240 255
230 240 255
230 240 255
230 240 255
230 240 255
230 240 255
230 240 255
230 240 255
230 240 255
230 240 255
230 240 255
230 240 255
230 240 255
230 240 255
230 240 255
230 240 255
230 240 255
230 240 255
230 240 255
230 240 255
230 240 255
230 240 255
230 240 255
230 240 255
230 240 255
230 240 255
230 240 255
228 238 253
138 144 159
0 12 69
6 25 83
95 98 93
112 102 84
84 76 50
78 73 44
89 89 52
78 86 47
68 76 39
57 68 32
65 71 33
74 75 36
69 72 33
66 69 30
59 68 25
49 57 17
45 58 13
42 51 17
34 50 30
10 21 62
0 0 48
0 0 45
0 0 45
0 0 45
0 0 44
0 0 43
0 0 44
0 0 44
0 0 42
0 0 42
0 0 42
0 0 42
0 0 42
0 0 42
0 0 42
0 0 42
0 0 42
0 0 42
0 0 42
0 0 42
0 0 42
0 0 42
0 0 42
0 0 42
0 0 42
0 0 42
0 0 42
0 0 42
0 0 42
0 0 42
0 0 42
0 0 42
0 0 42
0 0 42
0 0 42
0 0 42
0 0 42
0 0 42
0 0 42
0 0 42
0 0 42
0 0 42
0 0 42
0 0 42
0 0 42
0 0 42
0 0 42
0 0 42
0 0 42
0 0 42
0 0 42
0 0 42
0 0 42
0 0 42
0 0 42
0 0 42
0 0 42
0 0 42
0 0 42
0 0 42
0 0 42
0 0 42
0 0 42
0 0 42
0 0 42
0 0 42
0 0 42
0 0 42
0 0 42
0 0 42
0 0 42
0 0 42
0 0 42
0 0 42
0 0 42
0 0 42
0 0 42
0 0 42
0 0 42
0 0 42
0 0 42
0 0 42
0 0 42
0 0 42
0 0 42
0 0 42
0 0 42
0 0 42
0 0 43
0 0 44
0 0 45
0 0 44
0 0 45
0 0 49
0 0 56
0 0 57
0 0 63
98 88 93
193 150 99
140 118 88
153 132 92
173 144 103
162 132 96
161 127 95
149 115 85
135 105 76
108 90 63
107 88 66
111 91 64
103 87 57
96 84 56
90 77 49
87 73 44
66 64 36
33 39 44
0 0 45
0 0 45
0 0 44
0 0 45
0 0 45
0 0 43
0 0 42
0 0 42
0 0 42
0 0 44
0 0 45
152 159 173
229 239 254
230 240 255
230 240 255
230 240 255
230 240 255
230 240 255
230 240 255
230 240 255
230 240 255
230 240 255
230 240 255
230 240 255
230 240 255
230 240 255
230 240 255
230 240 255
230 240 255
230 240 255
230 240 255
230 240 255
230 240 255
230 240 255
230 240 255
230 240 255
230 240 255
230 240 255
230 240 255
230 240 255
230 240 255
230 240 255
230 240 255
230 240 255
230 240 255
230 240 255
230 240 255
230 240 255
230 240 255
230 240 255
230 240 255
230 240 255
230 240 255
230 240 255
230 240 255
230 240 255
230 240 255
230 240 255
230 240 255
230 240 255
230 240 255
230 240 255
230 240 255
230 240 255
230 240 255
230 240 255
230 240 255
230 240 255
230 240 255
230 240 255
230 240 255
230 240 255
230 240 255
230 240 255
230 240 255
230 240 255
230 240 255
230 240 255
230 240 255
230 240 255
230 240 255
230 240 255
230 240 255
230 240 255
230 240 255
230 240 255
230 240 255
230 240 255
230 240 255
230 240 255
230 240 255
230 240 255
230 240 255
230 240 255
230 240 255
230 240 255
230 240 255
230 240 255
230 240 255
230 240 255
230 240 255
230 240 255
230 240 255
230 240 255
230 240 255
230 240 255
230 240 255
230 240 255
230 240 255
230 240 255
230 240 255
230 240 255
230 240 255
230 240 255
230 240 255
230 240 255
230 240 255
230 240 255
230 240 255
230 240 255
230 240 255
230 240 255
230 240 255
230 240 255
230 240 255
230 240 255
230 240 255
230 240 255
230 240 255
230 240 255
230 240 255
230 240 255
230 240 255
230 240 255
230 240 255
230 240 255
230 240 255
230 240 255
230 240 255
230 240 255
230 240 255
230 240 255
230 240 255
230 240 255
230 240 255
230 240 255
230 240 255
230 240 255
230 240 255
230 240 255
230 240 255
230 240 255
230 240 255
230 240 255
230 240 255
230 240 255
230 240 255
230 240 255
230 240 255
230 240 255
230 240 255
230 240 255
230 240 255
230 240 255
230 240 255
230 240 255
230 240 255
230 240 255
230 240 255
230 240 255
230 240 255
230 240 255
230 240 255
230 240 255
230 240 255
230 240 255
230 240 255
230 240 255
230 240 255
230 240 255
230 240 255
230 240 255
230 240 255
230 240 255
230 240 255
230 240 255
230 240 255
230 240 255
230 240 255
230 240 255
230 240 255
230 240 255
230 240 255
230 240 255
230 240 255
230 240 255
230 240 255
230 240 255
230 240 255
230 240 255
230 240 255
230 240 255
230 240 255
230 240 255
230 240 255
230 240 255
230 240 255
230 240 255
230 240 255
230 240 255
230 240 255
230 240 255
230 240 255
230 240 255
230 240 255
230 240 255
230 240 255
230 240 255
230 240 255
230 240 255
230 240 255
230 240 255
230 240 255
230 240 255
230 240 255
230 240 255
230 240 255
230 240 255
230 240 255
230 240 255
230 240 255
230 240 255
230 240 255
230 240 255
230 240 255
230 240 255
230 240 255
230 240 255
230 240 255
230 240 255
230 240 255
230 240 255
230 240 255
230 240 255
230 240 255
230 240 255
230 240 255
230 240 255
230 240 255
230 240 255
230 240 255
230 240 255
230 240 255
230 240 255
230 240 255
230 240 255
230 240 255
230 240 255
230 240 255
230 240 255
230 240 255
230 240 255
230 240 255
230 240 255
228 238 253
117 122 139
0 16 76
28 40 65
136 138 138
83 77 52
79 74 46
97 90 59
83 87 53
77 84 46
69 77 37
61 70 33
70 75 35
72 78 39
60 67 30
61 69 28
55 68 23
49 62 18
49 73 51
30 55 58
0 4 65
0 0 51
0 0 45
0 0 45
0 0 45
0 0 45
0 0 44
0 0 43
0 0 45
0 0 44
0 0 42
0 0 42
0 0 41
0 0 42
0 0 42
0 0 42
0 0 42
0 0 42
0 0 42
0 0 42
0 0 42
0 0 42
0 0 42
0 0 42
0 0 42
0 0 42
0 0 42
0 0 42
0 0 42
0 0 42
0 0 42
0 0 42
0 0 42
0 0 42
0 0 42
0 0 42
0 0 42
0 0 42
0 0 42
0 0 42
0 0 42
0 0 42
0 0 42
0 0 42
0 0 42
0 0 42
0 0 42
0 0 42
0 0 42
0 0 42
0 0 42
0 0 42
0 0 42
0 0 42
0 0 42
0 0 42
0 0 42
0 0 42
0 0 42
0 0 42
0 0 42
0 0 42
0 0 42
0 0 42
0 0 42
0 0 42
0 0 42
0 0 42
0 0 42
0 0 42
0 0 42
0 0 42
0 0 42
0 0 42
0 0 42
0 0 42
0 0 42
0 0 42
0 0 42
0 0 42
0 0 42
0 0 42
0 0 42
0 0 42
0 0 42
0 0 42
0 0 42
0 0 42
0 0 42
0 0 44
0 0 45
0 0 45
0 0 45
0 0 44
0 0 49
0 0 59
0 0 65
0 7 61
20 23 73
123 104 95
147 116 85
170 134 96
174 137 103
171 131 93
171 135 102
154 122 89
126 98 69
126 101 73
117 96 65
104 92 61
100 89 61
93 81 53
88 75 47
84 76 45
37 39 40
0 0 45
0 0 45
0 0 45
0 0 45
0 0 45
0 0 45
0 0 44
0 0 43
0 0 42
0 0 43
0 0 45
117 122 136
228 238 253
230 240 255
230 240 255
230 240 255
230 240 255
230 240 255
230 240 255
230 240 255
230 240 255
230 240 255
230 240 255
230 240 255
230 240 255
230 240 255
230 240 255
230 240 255
230 240 255
230 240 255
230 240 255
230 240 255
230 240 255
230 240 255
230 240 255
230 240 255
230 240 255
230 240 255
230 240 255
230 240 255
230 240 255
230 240 255
230 240 255
230 240 255
230 240 255
230 240 255
230 240 255
230 240 255
230 240 255
230 240 255
230 240 255
230 240 255
230 240 255
230 240 255
230 240 255
230 240 255
230 240 255
230 240 255
230 240 255
230 240 255
230 240 255
230 240 255
230 240 255
230 240 255
230 240 255
230 240 255
230 240 255
230 240 255
230 240 255
230 240 255
230 240 255
230 240 255
230 240 255
230 240 255
230 240 255
230 240 255
230 240 255
230 240 255
230 240 255
230 240 255
230 240 255
230 240 255
230 240 255
230 240 255
230 240 255
230 240 255
230 240 255
230 240 255
230 240 255
230 240 255
230 240 255
230 240 255
230 240 255
230 240 255
230 240 255
230 240 255
230 240 255
230 240 255
230 240 255
230 240 255
230 240 255
230 240 255
230 240 255
230 240 255
230 240 255
230 240 255
230 240 255
230 240 255
230 240 255
230 240 255
230 240 255
230 240 255
230 240 255
230 240 255
230 240 255
230 240 255
230 240 255
230 240 255
230 240 255
230 240 255
230 240 255
230 240 255
230 240 255
230 240 255
230 240 255
230 240 255
230 240 255
230 240 255
230 240 255
230 240 255
230 240 255
230 240 255
230 240 255
230 240 255
230 240 255
230 240 255
230 240 255
230 240 255
230 240 255
230 240 255
230 240 255
230 240 255
230 240 255
230 240 255
230 240 255
230 240 255
230 240 255
230 240 255
230 240 255
230 240 255
230 240 255
230 240 255
230 240 255
230 240 255
230 240 255
230 240 255
230 240 255
230 240 255
230 240 255
230 240 255
230 240 255
230 240 255
230 240 255
230 240 255
230 240 255
230 240 255
230 240 255
230 240 255
230 240 255
230 240 255
230 240 255
230 240 255
230 240 255
230 240 255
230 240 255
230 240 255
230 240 255
230 240 255
230 240 255
230 240 255
230 240 255
230 240 255
230 240 255
230 240 255
230 240 255
230 240 255
230 240 255
230 240 255
230 240 255
230 240 255
230 240 255
230 240 255
230 240 255
230 240 255
230 240 255
230 240 255
230 240 255
230 240 255
230 240 255
230 240 255
230 240 255
230 240 255
230 240 255
230 240 255
230 240 255
230 240 255
230 240 255
230 240 255
230 240 255
230 240 255
230 240 255
230 240 255
230 240 255
230 240 255
230 240 255
230 240 255
230 240 255
230 240 255
230 240 255
230 240 255
230 240 255
230 240 255
230 240 255
230 240 255
230 240 255
230 240 255
230 240 255
230 240 255
230 240 255
230 240 255
230 240 255
230 240 255
230 240 255
230 240 255
230 240 255
230 240 255
230 241 255
230 241 255
230 241 255
230 241 255
230 241 255
230 241 255
230 241 255
230 241 255
230 241 255
230 241 255
230 241 255
230 241 255
230 241 255
230 241 255
230 241 255
230 241 255
230 241 255
230 241 255
230 241 255
230 241 255
230 241 255
230 241 255
230 241 255
230 241 255
230 241 255
230 241 255
230 241 255
230 241 255
230 241 255
230 241 255
219 229 244
60 63 87
0 12 74
80 86 84
135 134 127
78 73 48
94 85 55
93 87 56
83 85 50
73 80 40
67 76 34
65 75 33
68 77 32
59 70 29
61 73 32
55 68 25
54 65 28
46 82 76
24 80 90
2 11 67
0 0 43
0 0 45
0 0 45
0 0 45
0 0 45
0 0 45
0 0 45
0 0 45
0 0 45
0 0 44
0 0 42
0 0 42
0 0 42
0 0 42
0 0 42
0 0 42
0 0 42
0 0 42
0 0 42
0 0 42
0 0 42
0 0 42
0 0 42
0 0 42
0 0 42
0 0 42
0 0 42
0 0 42
0 0 42
0 0 42
0 0 42
0 0 42
0 0 42
0 0 42
0 0 42
0 0 42
0 0 42
0 0 42
0 0 42
0 0 42
0 0 42
0 0 42
0 0 42
0 0 42
0 0 42
0 0 42
0 0 42
0 0 42
0 0 42
0 0 42
0 0 42
0 0 42
0 0 42
0 0 42
0 0 42
0 0 42
0 0 42
0 0 42
0 0 42
0 0 42
0 0 42
0 0 42
0 0 42
0 0 42
0 0 42
0 0 42
0 0 42
0 0 42
0 0 42
0 0 42
0 0 42
0 0 42
0 0 42
0 0 42
0 0 42
0 0 42
0 0 42
0 0 42
0 0 42
0 0 42
0 0 42
0 0 42
0 0 42
0 0 42
0 0 42
0 0 42
0 0 44
0 0 45
0 0 45
0 0 45
0 0 45
0 0 43
0 0 43
0 0 50
0 0 56
0 0 62
0 12 80
0 23 79
71 63 93
140 108 76
163 118 86
149 114 81
128 114 77
135 117 79
139 116 83
130 103 75
121 98 68
111 93 66
101 88 62
94 83 57
90 78 48
77 73 44
26 28 45
0 0 46
0 0 45
0 0 45
0 0 45
0 0 45
0 0 45
0 0 45
0 0 45
0 0 44
0 0 43
0 0 45
72 76 91
219 229 244
230 241 255
230 241 255
230 241 255
230 241 255
230 241 255
230 241 255
230 241 255
230 241 255
230 241 255
230 241 255
230 241 255
230 241 255
230 241 255
230 241 255
230 241 255
230 241 255
230 241 255
230 241 255
230 241 255
230 241 255
230 241 255
230 241 255
230 241 255
230 241 255
230 241 255
230 241 255
230 241 255
230 241 255
230 241 255
230 241 255
230 240 255
230 240 255
230 240 255
230 240 255
230 240 255
230 240 255
230 240 255
230 240 255
230 240 255
230 240 255
230 240 255
230 240 255
230 240 255
230 240 255
230 240 255
230 240 255
230 240 255
230 240 255
230 240 255
230 240 255
230 240 255
230 240 255
230 240 255
230 240 255
230 240 255
230 240 255
230 240 255
230 240 255
230 240 255
230 240 255
230 240 255
230 240 255
230 240 255
230 240 255
230 240 255
230 240 255
230 240 255
230 240 255
230 240 255
230 240 255
230 240 255
230 240 255
230 240 255
230 240 255
230 240 255
230 240 255
230 240 255
230 240 255
230 240 255
230 240 255
230 240 255
230 240 255
230 240 255
230 240 255
230 240 255
230 240 255
230 240 255
230 240 255
230 240 255
230 240 255
230 240 255
230 240 255
230 240 255
230 240 255
230 240 255
230 240 255
230 240 255
230 240 255
230 240 255
230 240 255
230 240 255
230 240 255
230 240 255
230 240 255
230 240 255
230 240 255
230 240 255
230 240 255
230 240 255
230 240 255
230 240 255
230 240 255
230 240 255
230 240 255
230 240 255
230 240 255
230 240 255
230 240 255
230 240 255
230 240 255
230 240 255
230 240 255
230 240 255
230 240 255
230 240 255
230 240 255
230 240 255
230 240 255
230 240 255
230 240 255
230 240 255
230 240 255
230 240 255
230 240 255
230 240 255
230 240 255
230 240 255
230 240 255
230 240 255
230 240 255
230 240 255
230 240 255
230 240 255
230 240 255
230 240 255
230 240 255
230 240 255
230 240 255
230 240 255
230 240 255
230 240 255
230 240 255
230 240 255
230 240 255
230 240 255
230 240 255
230 240 255
230 240 255
230 240 255
230 240 255
230 240 255
230 240 255
230 240 255
230 240 255
230 240 255
230 240 255
230 240 255
230 240 255
230 240 255
230 240 255
230 240 255
230 240 255
230 240 255
230 240 255
230 240 255
230 240 255
230 240 255
230 240 255
230 240 255
230 240 255
230 240 255
230 240 255
230 240 255
230 240 255
230 240 255
230 240 255
230 240 255
230 240 255
230 240 255
230 240 255
230 240 255
230 240 255
230 240 255
230 240 255
230 240 255
230 240 255
230 240 255
230 240 255
230 240 255
230 240 255
230 240 255
230 240 255
230 241 255
230 241 255
230 241 255
230 241 255
230 241 255
230 241 255
230 241 255
230 241 255
230 241 255
230 241 255
230 241 255
230 241 255
230 241 255
230 241 255
230 241 255
230 241 255
230 241 255
230 241 255
230 241 255
230 241 255
230 241 255
230 241 255
230 241 255
230 241 255
230 241 255
230 241 255
230 241 255
230 241 255
230 241 255
230 241 255
230 241 255
230 241 255
230 241 255
230 241 255
230 241 255
230 241 255
230 241 255
230 241 255
230 241 255
230 241 255
230 241 255
230 241 255
230 241 255
230 241 255
230 241 255
230 241 255
230 241 255
230 241 255
230 241 255
230 241 255
230 241 255
230 241 255
230 241 255
217 227 242
61 63 88
15 24 69
126 132 130
108 100 79
83 77 50
89 84 53
76 77 42
77 80 42
66 75 33
57 69 30
60 74 30
66 76 36
54 66 24
57 70 29
56 66 25
40 82 77
14 58 92
0 6 63
0 0 46
0 0 46
0 0 45
0 0 45
0 0 45
0 0 45
0 0 45
0 0 45
0 0 45
0 0 45
0 0 44
0 0 42
0 0 42
0 0 42
0 0 42
0 0 42
0 0 42
0 0 42
0 0 42
0 0 42
0 0 42
0 0 42
0 0 42
0 0 42
0 0 42
0 0 42
0 0 42
0 0 42
0 0 42
0 0 42
0 0 42
0 0 42
0 0 42
0 0 42
0 0 42
0 0 42
0 0 42
0 0 42
0 0 42
0 0 42
0 0 42
0 0 42
0 0 42
0 0 42
0 0 42
0 0 42
0 0 42
0 0 42
0 0 42
0 0 42
0 0 42
0 0 42
0 0 42
0 0 42
0 0 42
0 0 42
0 0 42
0 0 42
0 0 42
0 0 42
0 0 42
0 0 42
0 0 42
0 0 42
0 0 42
0 0 42
0 0 42
0 0 42
0 0 42
0 0 42
0 0 42
0 0 42
0 0 42
0 0 42
0 0 42
0 0 42
0 0 42
0 0 42
0 0 42
0 0 42
0 0 42
0 0 42
0 0 42
0 0 42
0 0 44
0 0 45
0 0 45
0 0 45
0 0 45
0 0 45
0 0 45
0 0 44
0 0 46
0 0 49
0 0 56
0 8 65
0 17 77
0 26 88
67 63 87
115 97 68
132 99 67
123 105 71
128 111 77
120 100 68
121 99 71
117 97 69
104 87 58
108 92 64
99 83 59
89 77 48
73 70 47
26 27 43
0 0 45
0 0 45
0 0 45
0 0 45
0 0 45
0 0 45
0 0 45
0 0 45
0 0 45
0 0 45
0 0 44
69 72 88
217 227 241
230 241 255
230 241 255
230 241 255
230 241 255
230 241 255
230 241 255
230 241 255
230 241 255
230 241 255
230 241 255
230 241 255
230 241 255
230 241 255
230 241 255
230 241 255
230 241 255
230 241 255
230 241 255
230 241 255
230 241 255
230 241 255
230 241 255
230 241 255
230 241 255
230 241 255
230 241 255
230 241 255
230 241 255
230 241 255
230 241 255
230 241 255
230 241 255
230 241 255
230 241 255
230 241 255
230 241 255
230 241 255
230 241 255
230 241 255
230 241 255
230 241 255
230 241 255
230 241 255
230 241 255
230 241 255
230 241 255
230 241 255
230 241 255
230 241 255
230 241 255
230 241 255
230 241 255
230 241 255
230 240 255
230 240 255
230 240 255
230 240 255
230 240 255
230 240 255
230 240 255
230 240 255
230 240 255
230 240 255
230 240 255
230 240 255
230 240 255
230 240 255
230 240 255
230 240 255
230 240 255
230 240 255
230 240 255
230 240 255
230 240 255
230 240 255
230 240 255
230 240 255
230 240 255
230 240 255
230 240 255
230 240 255
230 240 255
230 240 255
230 240 255
230 240 255
230 240 255
230 240 255
230 240 255
230 240 255
230 240 255
230 240 255
230 240 255
230 240 255
230 240 255
230 240 255
230 240 255
230 240 255
230 240 255
230 240 255
230 240 255
230 240 255
230 240 255
230 240 255
230 240 255
230 240 255
230 240 255
230 240 255
230 240 255
230 240 255
230 240 255
230 240 255
230 240 255
230 240 255
230 240 255
230 240 255
230 240 255
230 240 255
230 240 255
230 240 255
230 240 255
230 240 255
230 240 255
230 240 255
230 240 255
230 240 255
230 240 255
230 240 255
230 240 255
230 240 255
230 240 255
230 240 255
230 240 255
230 240 255
230 240 255
230 240 255
230 240 255
230 240 255
230 240 255
230 240 255
230 240 255
230 240 255
230 240 255
230 240 255
230 240 255
230 240 255
230 240 255
230 240 255
230 240 255
230 240 255
230 240 255
230 240 255
230 240 255
230 240 255
230 240 255
230 240 255
230 240 255
230 240 255
230 240 255
230 240 255
230 240 255
230 240 255
230 240 255
230 240 255
230 240 255
230 240 255
230 240 255
230 240 255
230 240 255
230 240 255
230 240 255
230 240 255
230 240 255
230 240 255
230 240 255
230 240 255
230 240 255
230 240 255
230 240 255
230 240 255
230 240 255
230 240 255
230 240 255
230 240 255
230 241 255
230 241 255
230 241 255
230 241 255
230 241 255
230 241 255
230 241 255
230 241 255
230 241 255
230 241 255
230 241 255
230 241 255
230 241 255
230 241 255
230 241 255
230 241 255
230 241 255
230 241 255
230 241 255
230 241 255
230 241 255
230 241 255
230 241 255
230 241 255
230 241 255
230 241 255
230 241 255
230 241 255
230 241 255
230 241 255
230 241 255
230 241 255
230 241 255
230 241 255
230 241 255
230 241 255
230 241 255
230 241 255
230 241 255
230 241 255
230 241 255
230 241 255
230 241 255
230 241 255
230 241 255
230 241 255
230 241 255
230 241 255
230 241 255
230 241 255
230 241 255
230 241 255
230 241 255
230 241 255
230 241 255
230 241 255
230 241 255
230 241 255
230 241 255
230 241 255
230 241 255
230 241 255
230 241 255
230 241 255
230 241 255
230 241 255
230 241 255
230 241 255
230 241 255
230 241 255
230 241 255
230 241 255
230 241 255
230 241 255
198 207 221
32 34 71
34 43 55
157 156 155
98 87 58
85 78 50
75 77 42
62 70 33
63 70 31
63 73 31
52 72 35
70 79 37
72 79 35
62 75 33
54 67 26
41 62 54
3 38 97
0 9 68
0 0 47
0 0 43
0 0 45
0 0 45
0 0 45
0 0 45
0 0 45
0 0 43
0 0 44
0 0 45
0 0 45
0 0 44
0 0 43
0 0 42
0 0 42
0 0 42
0 0 42
0 0 42
0 0 42
0 0 42
0 0 42
0 0 42
0 0 42
0 0 42
0 0 42
0 0 42
0 0 42
0 0 42
0 0 42
0 0 42
0 0 42
0 0 42
0 0 42
0 0 42
0 0 42
0 0 42
0 0 42
0 0 42
0 0 42
0 0 42
0 0 42
0 0 42
0 0 42
0 0 42
0 0 42
0 0 42
0 0 42
0 0 42
0 0 42
0 0 42
0 0 42
0 0 42
0 0 42
0 0 42
0 0 42
0 0 42
0 0 42
0 0 42
0 0 42
0 0 42
0 0 42
0 0 42
0 0 42
0 0 42
0 0 42
0 0 42
0 0 42
0 0 42
0 0 42
0 0 42
0 0 42
0 0 42
0 0 42
0 0 42
0 0 42
0 0 42
0 0 42
0 0 42
0 0 42
0 0 42
0 0 42
0 0 42
0 0 42
0 0 43
0 0 45
0 0 45
0 0 45
0 0 45
0 0 45
0 0 45
0 0 45
0 0 45
0 0 47
0 0 46
0 0 49
0 0 55
0 8 66
0 22 84
45 52 84
122 101 73
105 88 56
103 90 61
117 99 73
112 93 66
108 89 62
107 91 62
89 80 49
83 78 45
66 70 35
42 51 43
10 14 46
0 0 43
0 0 47
0 0 46
0 0 47
0 0 45
0 0 45
0 0 45
0 0 45
0 0 45
0 0 45
0 0 46
61 63 80
202 211 225
230 241 255
230 241 255
230 241 255
230 241 255
230 241 255
230 241 255
230 241 255
230 241 255
230 241 255
230 241 255
230 241 255
230 241 255
230 241 255
230 241 255
230 241 255
230 241 255
230 241 255
230 241 255
230 241 255
230 241 255
230 241 255
230 241 255
230 241 255
230 241 255
230 241 255
230 241 255
230 241 255
230 241 255
230 241 255
230 241 255
230 241 255
230 241 255
230 241 255
230 241 255
230 241 255
230 241 255
230 241 255
230 241 255
230 241 255
230 241 255
230 241 255
230 241 255
230 241 255
230 241 255
230 241 255
230 241 255
230 241 255
230 241 255
230 241 255
230 241 255
230 241 255
230 241 255
230 241 255
230 241 255
230 241 255
230 241 255
230 241 255
230 241 255
230 241 255
230 241 255
230 241 255
230 241 255
230 241 255
230 241 255
230 241 255
230 241 255
230 241 255
230 241 255
230 241 255
230 241 255
230 241 255
230 241 255
230 241 255
230 241 255
230 240 255
230 240 255
230 240 255
230 240 255
230 240 255
230 240 255
230 240 255
230 240 255
230 240 255
230 240 255
230 240 255
230 240 255
230 240 255
230 240 255
230 240 255
230 240 255
230 240 255
230 240 255
230 240 255
230 240 255
230 240 255
230 240 255
230 240 255
230 240 255
230 240 255
230 240 255
230 240 255
230 240 255
230 240 255
230 240 255
230 240 255
230 240 255
230 240 255
230 240 255
230 240 255
230 240 255
230 240 255
230 240 255
230 240 255
230 240 255
230 240 255
230 240 255
230 240 255
230 240 255
230 240 255
230 240 255
230 240 255
230 240 255
230 240 255
230 240 255
230 240 255
230 240 255
230 240 255
230 240 255
230 240 255
230 240 255
230 240 255
230 240 255
230 240 255
230 240 255
230 240 255
230 240 255
230 240 255
230 240 255
230 240 255
230 240 255
230 240 255
230 240 255
230 240 255
230 240 255
230 240 255
230 240 255
230 240 255
230 240 255
230 240 255
230 240 255
230 240 255
230 240 255
230 240 255
230 240 255
230 240 255
230 240 255
230 240 255
230 240 255
230 240 255
230 240 255
230 240 255
230 240 255
230 240 255
230 240 255
230 240 255
230 240 255
230 240 255
230 241 255
230 241 255
230 241 255
230 241 255
230 241 255
230 241 255
230 241 255
230 241 255
230 241 255
230 241 255
230 241 255
230 241 255
230 241 255
230 241 255
230 241 255
230 241 255
230 241 255
230 241 255
230 241 255
230 241 255
230 241 255
230 241 255
230 241 255
230 241 255
230 241 255
230 241 255
230 241 255
230 241 255
230 241 255
230 241 255
230 241 255
230 241 255
230 241 255
230 241 255
230 241 255
230 241 255
230 241 255
230 241 255
230 241 255
230 241 255
230 241 255
230 241 255
230 241 255
230 241 255
230 241 255
230 241 255
230 241 255
230 241 255
230 241 255
230 241 255
230 241 255
230 241 255
230 241 255
230 241 255
230 241 255
230 241 255
230 241 255
230 241 255
230 241 255
230 241 255
230 241 255
230 241 255
230 241 255
230 241 255
230 241 255
230 241 255
230 241 255
230 241 255
230 241 255
230 241 255
230 241 255
230 241 255
230 241 255
230 241 255
230 241 255
230 241 255
230 241 255
230 241 255
230 241 255
230 241 255
230 241 255
230 241 255
230 241 255
230 241 255
230 241 255
230 241 255
230 241 255
230 241 255
230 241 255
230 241 255
230 241 255
230 241 255
203 212 227
61 64 91
73 76 80
110 102 83
87 79 52
76 72 44
69 74 39
60 69 31
54 64 23
59 70 30
54 88 77
56 85 70
60 73 30
52 67 26
37 61 58
0 44 97
0 11 74
0 0 51
0 0 45
0 0 45
0 0 45
0 0 45
0 0 45
0 0 45
0 0 45
0 0 45
0 0 45
0 0 45
0 0 45
0 0 45
0 0 45
0 0 44
0 0 42
0 0 42
0 0 42
0 0 42
0 0 42
0 0 42
0 0 42
0 0 42
0 0 42
0 0 42
0 0 42
0 0 42
0 0 42
0 0 42
0 0 42
0 0 42
0 0 42
0 0 42
0 0 42
0 0 42
0 0 42
0 0 42
0 0 42
0 0 42
0 0 42
0 0 42
0 0 42
0 0 42
0 0 42
0 0 42
0 0 42
0 0 42
0 0 42
0 0 42
0 0 42
0 0 42
0 0 42
0 0 42
0 0 42
0 0 42
0 0 42
0 0 42
0 0 42
0 0 42
0 0 42
0 0 42
0 0 42
0 0 42
0 0 42
0 0 42
0 0 42
0 0 42
0 0 42
0 0 42
0 0 42
0 0 42
0 0 42
0 0 42
0 0 42
0 0 42
0 0 42
0 0 42
0 0 42
0 0 42
0 0 42
0 0 42
0 0 42
0 0 42
0 0 42
0 0 42
0 0 44
0 0 45
0 0 45
0 0 45
0 0 45
0 0 43
0 0 45
0 0 48
0 0 49
0 0 53
0 0 57
0 0 66
0 19 83
15 38 93
92 82 50
117 103 73
92 80 52
107 94 64
114 99 67
116 100 69
103 91 59
75 73 41
58 67 43
30 34 49
5 5 45
0 0 46
0 0 47
0 0 48
0 0 47
0 0 45
0 0 45
0 0 45
0 0 45
0 0 45
0 0 45
0 0 46
32 34 59
205 214 228
230 241 255
230 241 255
230 241 255
230 241 255
230 241 255
230 241 255
230 241 255
230 241 255
230 241 255
230 241 255
230 241 255
230 241 255
230 241 255
230 241 255
230 241 255
230 241 255
230 241 255
230 241 255
230 241 255
230 241 255
230 241 255
230 241 255
230 241 255
230 241 255
230 241 255
230 241 255
230 241 255
230 241 255
230 241 255
230 241 255
230 241 255
230 241 255
230 241 255
230 241 255
230 241 255
230 241 255
230 241 255
230 241 255
230 241 255
230 241 255
230 241 255
230 241 255
230 241 255
230 241 255
230 241 255
230 241 255
230 241 255
230 241 255
230 241 255
230 241 255
230 241 255
230 241 255
230 241 255
230 241 255
230 241 255
230 241 255
230 241 255
230 241 255
230 241 255
230 241 255
230 241 255
230 241 255
230 241 255
230 241 255
230 241 255
230 241 255
230 241 255
230 241 255
230 241 255
230 241 255
230 241 255
230 241 255
230 241 255
230 241 255
230 241 255
230 241 255
230 241 255
230 241 255
230 241 255
230 241 255
230 241 255
230 241 255
230 241 255
230 241 255
230 241 255
230 241 255
230 241 255
230 241 255
230 241 255
230 241 255
230 241 255
230 241 255
230 240 255
230 240 255
230 240 255
230 240 255
230 240 255
230 240 255
230 240 255
230 240 255
230 240 255
230 240 255
230 240 255
230 240 255
230 240 255
230 240 255
230 240 255
230 240 255
230 240 255
230 240 255
230 240 255
230 240 255
230 240 255
230 240 255
230 240 255
230 240 255
230 240 255
230 240 255
230 240 255
230 240 255
230 240 255
230 240 255
230 240 255
230 240 255
230 240 255
230 240 255
230 240 255
230 240 255
230 240 255
230 240 255
230 240 255
230 240 255
230 240 255
230 240 255
230 240 255
230 240 255
230 240 255
230 240 255
230 240 255
230 240 255
230 240 255
230 240 255
230 240 255
230 240 255
230 240 255
230 240 255
230 240 255
230 240 255
230 240 255
230 240 255
230 240 255
230 240 255
230 240 255
230 241 255
230 241 255
230 241 255
230 241 255
230 241 255
230 241 255
230 241 255
230 241 255
230 241 255
230 241 255
230 241 255
230 241 255
230 241 255
230 241 255
230 241 255
230 241 255
230 241 255
230 241 255
230 241 255
230 241 255
230 241 255
230 241 255
230 241 255
230 241 255
230 241 255
230 241 255
230 241 255
230 241 255
230 241 255
230 241 255
230 241 255
230 241 255
230 241 255
230 241 255
230 241 255
230 241 255
230 241 255
230 241 255
230 241 255
230 241 255
230 241 255
230 241 255
230 241 255
230 241 255
230 241 255
230 241 255
230 241 255
230 241 255
230 241 255
230 241 255
230 241 255
230 241 255
230 241 255
230 241 255
230 241 255
230 241 255
230 241 255
230 241 255
230 241 255
230 241 255
230 241 255
230 241 255
230 241 255
230 241 255
230 241 255
230 241 255
230 241 255
230 241 255
230 241 255
230 241 255
230 241 255
230 241 255
230 241 255
230 241 255
230 241 255
230 241 255
230 241 255
230 241 255
230 241 255
230 241 255
230 241 255
230 241 255
230 241 255
230 241 255
230 241 255
230 241 255
230 241 255
230 241 255
230 241 255
230 241 255
230 241 255
230 241 255
230 241 255
230 241 255
230 241 255
230 241 255
230 241 255
230 241 255
230 241 255
230 241 255
230 241 255
230 241 255
230 241 255
230 241 255
230 241 255
230 241 255
230 241 255
230 241 255
194 203 217
40 43 74
78 81 77
105 96 75
86 77 50
72 69 40
73 76 42
60 68 31
49 59 20
52 62 23
38 74 82
30 85 104
43 75 81
28 68 86
0 33 94
0 10 67
0 0 52
0 0 47
0 0 47
0 0 47
0 0 47
0 0 46
0 0 46
0 0 46
0 0 45
0 0 45
0 0 45
0 0 45
0 0 45
0 0 45
0 0 45
0 0 44
0 0 42
0 0 44
0 0 43
0 0 42
0 0 42
0 0 42
0 0 42
0 0 42
0 0 42
0 0 42
0 0 42
0 0 42
0 0 42
0 0 42
0 0 42
0 0 42
0 0 42
0 0 42
0 0 42
0 0 42
0 0 42
0 0 42
0 0 42
0 0 42
0 0 42
0 0 42
0 0 42
0 0 42
0 0 42
0 0 42
0 0 42
0 0 42
0 0 42
0 0 42
0 0 42
0 0 42
0 0 42
0 0 42
0 0 42
0 0 42
0 0 42
0 0 42
0 0 42
0 0 42
0 0 42
0 0 42
0 0 42
0 0 42
0 0 42
0 0 42
0 0 42
0 0 42
0 0 42
0 0 42
0 0 42
0 0 42
0 0 42
0 0 42
0 0 42
0 0 42
0 0 42
0 0 42
0 0 42
0 0 42
0 0 42
0 0 42
0 0 42
0 0 42
0 0 42
0 0 43
0 0 45
0 0 45
0 0 45
0 0 45
0 0 45
0 0 47
0 0 50
0 0 56
0 0 57
0 0 62
0 7 70
5 22 86
53 69 57
74 72 36
105 90 62
94 82 57
93 83 55
80 73 44
63 58 44
53 56 48
24 39 64
0 7 51
0 0 46
0 0 46
0 0 48
0 0 48
0 0 47
0 0 45
0 0 45
0 0 45
0 0 45
0 0 45
0 0 45
0 0 47
0 0 47
199 208 222
230 241 255
230 241 255
230 241 255
230 241 255
230 241 255
230 241 255
230 241 255
230 241 255
230 241 255
230 241 255
230 241 255
230 241 255
230 241 255
230 241 255
230 241 255
230 241 255
230 241 255
230 241 255
230 241 255
230 241 255
230 241 255
230 241 255
230 241 255
230 241 255
230 241 255
230 241 255
230 241 255
230 241 255
230 241 255
230 241 255
230 241 255
230 241 255
230 241 255
230 241 255
230 241 255
230 241 255
230 241 255
230 241 255
230 241 255
230 241 255
230 241 255
230 241 255
230 241 255
230 241 255
230 241 255
230 241 255
230 241 255
230 241 255
230 241 255
230 241 255
230 241 255
230 241 255
230 241 255
230 241 255
230 241 255
230 241 255
230 241 255
230 241 255
230 241 255
230 241 255
230 241 255
230 241 255
230 241 255
230 241 255
230 241 255
230 241 255
230 241 255
230 241 255
230 241 255
230 241 255
230 241 255
230 241 255
230 241 255
230 241 255
230 241 255
230 241 255
230 241 255
230 241 255
230 241 255
230 241 255
230 241 255
230 241 255
230 241 255
230 241 255
230 241 255
230 241 255
230 241 255
230 241 255
230 241 255
230 241 255
230 241 255
230 241 255
230 241 255
230 241 255
230 241 255
230 241 255
230 241 255
230 241 255
230 241 255
230 241 255
230 241 255
230 241 255
230 241 255
230 241 255
230 241 255
230 241 255
230 241 255
230 241 255
230 240 255
230 240 255
230 240 255
230 240 255
230 240 255
230 240 255
230 240 255
230 240 255
230 240 255
230 240 255
230 240 255
230 240 255
230 240 255
230 240 255
230 240 255
230 240 255
230 240 255
230 240 255
230 240 255
230 240 255
230 240 255
230 240 255
230 240 255
230 240 255
230 240 255
230 240 255
230 240 255
230 240 255
230 240 255
230 240 255
230 240 255
230 240 255
230 241 255
230 241 255
230 241 255
230 241 255
230 241 255
230 241 255
230 241 255
230 241 255
230 241 255
230 241 255
230 241 255
230 241 255
230 241 255
230 241 255
230 241 255
230 241 255
230 241 255
230 241 255
230 241 255
230 241 255
230 241 255
230 241 255
230 241 255
230 241 255
230 241 255
230 241 255
230 241 255
230 241 255
230 241 255
230 241 255
230 241 255
230 241 255
230 241 255
230 241 255
230 241 255
230 241 255
230 241 255
230 241 255
230 241 255
230 241 255
230 241 255
230 241 255
230 241 255
230 241 255
230 241 255
230 241 255
230 241 255
230 241 255
230 241 255
230 241 255
230 241 255
230 241 255
230 241 255
230 241 255
230 241 255
230 241 255
230 241 255
230 241 255
230 241 255
230 241 255
230 241 255
230 241 255
230 241 255
230 241 255
230 241 255
230 241 255
230 241 255
230 241 255
230 241 255
230 241 255
230 241 255
230 241 255
230 241 255
230 241 255
230 241 255
230 241 255
230 241 255
230 241 255
230 241 255
230 241 255
230 241 255
230 241 255
230 241 255
230 241 255
230 241 255
230 241 255
230 241 255
230 241 255
230 241 255
230 241 255
230 241 255
230 241 255
230 241 255
230 241 255
230 241 255
230 241 255
230 241 255
230 241 255
230 241 255
230 241 255
230 241 255
230 241 255
230 241 255
230 241 255
230 241 255
230 241 255
230 241 255
230 241 255
230 241 255
230 241 255
230 241 255
230 241 255
230 241 255
230 241 255
230 241 255
230 241 255
230 241 255
230 241 255
230 241 255
230 241 255
230 241 255
230 241 255
230 241 255
199 208 223
41 45 75
82 83 76
97 84 58
75 69 43
66 67 39
69 71 35
67 73 36
53 63 25
44 57 17
34 98 108
4 78 123
0 46 109
0 28 89
0 6 64
0 0 50
0 0 49
0 0 49
0 0 48
0 0 47
0 0 48
0 0 49
0 0 49
0 0 49
0 0 46
0 0 45
0 0 45
0 0 45
0 0 45
0 0 45
0 0 45
0 0 44
0 0 45
0 0 45
0 0 43
0 0 42
0 0 43
0 0 44
0 0 44
0 0 43
0 0 42
0 0 42
0 0 42
0 0 42
0 0 42
0 0 42
0 0 42
0 0 42
0 0 42
0 0 42
0 0 42
0 0 42
0 0 42
0 0 42
0 0 42
0 0 42
0 0 42
0 0 42
0 0 42
0 0 42
0 0 42
0 0 42
0 0 42
0 0 42
0 0 42
0 0 42
0 0 42
0 0 42
0 0 42
0 0 42
0 0 42
0 0 42
0 0 42
0 0 42
0 0 42
0 0 42
0 0 42
0 0 42
0 0 42
0 0 42
0 0 42
0 0 42
0 0 42
0 0 42
0 0 42
0 0 42
0 0 42
0 0 42
0 0 42
0 0 42
0 0 42
0 0 42
0 0 42
0 0 42
0 0 42
0 0 42
0 0 42
0 0 42
0 0 43
0 0 45
0 0 45
0 0 47
0 0 48
0 0 48
0 0 47
0 0 48
0 0 52
0 0 52
0 0 54
0 0 56
0 0 59
0 5 64
11 27 82
48 69 36
71 71 36
83 78 48
71 71 57
35 46 69
10 18 60
0 4 55
0 3 55
0 0 50
0 0 45
0 0 47
0 0 48
0 0 48
0 0 48
0 0 46
0 0 45
0 0 46
0 0 47
0 0 46
0 0 47
0 0 49
46 48 70
198 207 221
230 241 255
230 241 255
230 241 255
230 241 255
230 241 255
230 241 255
230 241 255
230 241 255
230 241 255
230 241 255
230 241 255
230 241 255
230 241 255
230 241 255
230 241 255
230 241 255
230 241 255
230 241 255
230 241 255
230 241 255
230 241 255
230 241 255
230 241 255
230 241 255
230 241 255
230 241 255
230 241 255
230 241 255
230 241 255
230 241 255
230 241 255
230 241 255
230 241 255
230 241 255
230 241 255
230 241 255
230 241 255
230 241 255
230 241 255
230 241 255
230 241 255
230 241 255
230 241 255
230 241 255
230 241 255
230 241 255
230 241 255
230 241 255
230 241 255
230 241 255
230 241 255
230 241 255
230 241 255
230 241 255
230 241 255
230 241 255
230 241 255
230 241 255
230 241 255
230 241 255
230 241 255
230 241 255
230 241 255
230 241 255
230 241 255
230 241 255
230 241 255
230 241 255
230 241 255
230 241 255
230 241 255
230 241 255
230 241 255
230 241 255
230 241 255
230 241 255
230 241 255
230 241 255
230 241 255
230 241 255
230 241 255
230 241 255
230 241 255
230 241 255
230 241 255
230 241 255
230 241 255
230 241 255
230 241 255
230 241 255
230 241 255
230 241 255
230 241 255
230 241 255
230 241 255
230 241 255
230 241 255
230 241 255
230 241 255
230 241 255
230 241 255
230 241 255
230 241 255
230 241 255
230 241 255
230 241 255
230 241 255
230 241 255
230 241 255
230 241 255
230 241 255
230 241 255
230 241 255
230 241 255
230 241 255
230 241 255
230 241 255
230 241 255
230 241 255
230 241 255
230 241 255
230 241 255
230 241 255
230 241 255
230 240 255
230 240 255
230 240 255
230 240 255
230 240 255
230 240 255
230 240 255
230 240 255
230 241 255
230 241 255
230 241 255
230 241 255
230 241 255
230 241 255
230 241 255
230 241 255
230 241 255
230 241 255
230 241 255
230 241 255
230 241 255
230 241 255
230 241 255
230 241 255
230 241 255
230 241 255
230 241 255
230 241 255
230 241 255
230 241 255
230 241 255
230 241 255
230 241 255
230 241 255
230 241 255
230 241 255
230 241 255
230 241 255
230 241 255
230 241 255
230 241 255
230 241 255
230 241 255
230 241 255
230 241 255
230 241 255
230 241 255
230 241 255
230 241 255
230 241 255
230 241 255
230 241 255
230 241 255
230 241 255
230 241 255
230 241 255
230 241 255
230 241 255
230 241 255
230 241 255
230 241 255
230 241 255
230 241 255
230 241 255
230 241 255
230 241 255
230 241 255
230 241 255
230 241 255
230 241 255
230 241 255
230 241 255
230 241 255
230 241 255
230 241 255
230 241 255
230 241 255
230 241 255
230 241 255
230 241 255
230 241 255
230 241 255
230 241 255
230 241 255
230 241 255
230 241 255
230 241 255
230 241 255
230 241 255
230 241 255
230 241 255
230 241 255
230 241 255
230 241 255
230 241 255
230 241 255
230 241 255
230 241 255
230 241 255
230 241 255
230 241 255
230 241 255
230 241 255
230 241 255
230 241 255
230 241 255
230 241 255
230 241 255
230 241 255
230 241 255
230 241 255
230 241 255
230 241 255
230 241 255
230 241 255
230 241 255
230 241 255
230 241 255
230 241 255
230 241 255
230 241 255
230 241 255
230 241 255
230 241 255
230 241 255
230 241 255
230 241 255
230 241 255
230 241 255
230 241 255
230 241 255
230 241 255
230 241 255
230 241 255
230 241 255
230 241 255
230 241 255
230 241 255
230 241 255
230 241 255
230 241 255
191 200 214
52 56 80
81 83 70
88 79 52
75 69 44
62 65 34
70 77 38
65 73 33
57 68 30
49 62 24
32 57 76
0 36 96
0 18 76
0 0 63
0 0 51
0 0 48
0 0 51
0 0 53
0 0 51
0 0 49
0 0 50
0 0 52
0 0 51
0 0 48
0 0 46
0 0 47
0 0 46
0 0 45
0 0 45
0 0 45
0 0 45
0 0 45
0 0 45
0 0 45
0 0 43
0 0 43
0 0 45
0 0 45
0 0 45
0 0 45
0 0 44
0 0 44
0 0 44
0 0 44
0 0 43
0 0 42
0 0 42
0 0 42
0 0 42
0 0 42
0 0 42
0 0 42
0 0 42
0 0 42
0 0 42
0 0 42
0 0 42
0 0 42
0 0 42
0 0 42
0 0 42
0 0 42
0 0 42
0 0 42
0 0 42
0 0 42
0 0 42
0 0 42
0 0 42
0 0 42
0 0 42
0 0 42
0 0 42
0 0 42
0 0 42
0 0 42
0 0 42
0 0 42
0 0 42
0 0 42
0 0 42
0 0 42
0 0 42
0 0 42
0 0 42
0 0 42
0 0 42
0 0 42
0 0 42
0 0 42
0 0 42
0 0 42
0 0 42
0 0 42
0 0 42
0 0 42
0 0 42
0 0 44
0 0 45
0 0 46
0 0 46
0 0 48
0 0 48
0 0 48
0 0 50
0 0 53
0 0 55
0 0 57
0 0 60
0 0 63
0 1 62
4 16 69
21 32 66
51 57 49
28 32 72
0 12 70
0 0 53
0 0 51
0 0 47
0 0 44
0 0 47
0 0 46
0 0 46
0 0 48
0 0 48
0 0 49
0 0 46
0 0 46
0 0 48
0 0 48
0 0 48
0 0 51
46 48 72
198 207 221
230 241 255
230 241 255
230 241 255
230 241 255
230 241 255
230 241 255
230 241 255
230 241 255
230 241 255
230 241 255
230 241 255
230 241 255
230 241 255
230 241 255
230 241 255
230 241 255
230 241 255
230 241 255
230 241 255
230 241 255
230 241 255
230 241 255
230 241 255
230 241 255
230 241 255
230 241 255
230 241 255
230 241 255
230 241 255
230 241 255
230 241 255
230 241 255
230 241 255
230 241 255
230 241 255
230 241 255
230 241 255
230 241 255
230 241 255
230 241 255
230 241 255
230 241 255
230 241 255
230 241 255
230 241 255
230 241 255
230 241 255
230 241 255
230 241 255
230 241 255
230 241 255
230 241 255
230 241 255
230 241 255
230 241 255
230 241 255
230 241 255
230 241 255
230 241 255
230 241 255
230 241 255
230 241 255
230 241 255
230 241 255
230 241 255
230 241 255
230 241 255
230 241 255
230 241 255
230 241 255
230 241 255
230 241 255
230 241 255
230 241 255
230 241 255
230 241 255
230 241 255
230 241 255
230 241 255
230 241 255
230 241 255
230 241 255
230 241 255
230 241 255
230 241 255
230 241 255
230 241 255
230 241 255
230 241 255
230 241 255
230 241 255
230 241 255
230 241 255
230 241 255
230 241 255
230 241 255
230 241 255
230 241 255
230 241 255
230 241 255
230 241 255
230 241 255
230 241 255
230 241 255
230 241 255
230 241 255
230 241 255
230 241 255
230 241 255
230 241 255
230 241 255
230 241 255
230 241 255
230 241 255
230 241 255
230 241 255
230 241 255
230 241 255
230 241 255
230 241 255
230 241 255
230 241 255
230 241 255
230 241 255
230 241 255
230 241 255
230 241 255
230 241 255
230 241 255
230 241 255
230 241 255
230 241 255
230 241 255
230 241 255
230 241 255
230 241 255
230 241 255
230 241 255
230 241 255
230 241 255
230 241 255
230 241 255
230 241 255
230 241 255
230 241 255
230 241 255
230 241 255
230 241 255
230 241 255
230 241 255
230 241 255
230 241 255
230 241 255
230 241 255
230 241 255
230 241 255
230 241 255
230 241 255
230 241 255
230 241 255
230 241 255
230 241 255
230 241 255
230 241 255
230 241 255
230 241 255
230 241 255
230 241 255
230 241 255
230 241 255
230 241 255
230 241 255
230 241 255
230 241 255
230 241 255
230 241 255
230 241 255
230 241 255
230 241 255
230 241 255
230 241 255
230 241 255
230 241 255
230 241 255
230 241 255
230 241 255
230 241 255
230 241 255
230 241 255
230 241 255
230 241 255
230 241 255
230 241 255
230 241 255
230 241 255
230 241 255
230 241 255
230 241 255
230 241 255
230 241 255
230 241 255
230 241 255
230 241 255
230 241 255
230 241 255
230 241 255
230 241 255
230 241 255
230 241 255
230 241 255
230 241 255
230 241 255
230 241 255
230 241 255
230 241 255
230 241 255
230 241 255
230 241 255
230 241 255
230 241 255
230 241 255
230 241 255
230 241 255
230 241 255
230 241 255
230 241 255
230 241 255
230 241 255
230 241 255
230 241 255
230 241 255
230 241 255
230 241 255
230 241 255
230 241 255
230 241 255
230 241 255
230 241 255
230 241 255
230 241 255
230 241 255
230 241 255
230 241 255
230 241 255
230 241 255
230 241 255
230 241 255
230 241 255
230 241 255
230 241 255
230 241 255
230 241 255
230 241 255
230 241 255
230 241 255
230 241 255
230 241 255
230 241 255
230 241 255
230 241 255
230 241 255
230 241 255
230 241 255
230 241 255
230 241 255
230 241 255
230 241 255
198 207 222
67 72 91
84 84 75
91 76 50
78 71 45
57 62 34
67 77 44
62 70 44
61 68 29
43 63 48
0 35 98
0 15 75
0 0 67
0 0 56
0 0 53
0 0 50
0 0 51
0 0 53
0 0 52
0 0 50
0 0 50
0 0 52
0 0 51
0 0 50
0 0 48
0 0 48
0 0 48
0 0 47
0 0 46
0 0 45
0 0 45
0 0 45
0 0 45
0 0 45
0 0 43
0 0 43
0 0 44
0 0 45
0 0 45
0 0 45
0 0 45
0 0 45
0 0 45
0 0 45
0 0 44
0 0 42
0 0 42
0 0 42
0 0 42
0 0 42
0 0 42
0 0 42
0 0 42
0 0 42
0 0 42
0 0 42
0 0 42
0 0 42
0 0 42
0 0 42
0 0 42
0 0 42
0 0 42
0 0 42
0 0 42
0 0 42
0 0 42
0 0 42
0 0 42
0 0 42
0 0 42
0 0 42
0 0 42
0 0 42
0 0 42
0 0 42
0 0 42
0 0 42
0 0 42
0 0 42
0 0 42
0 0 42
0 0 42
0 0 42
0 0 42
0 0 42
0 0 44
0 0 43
0 0 44
0 0 44
0 0 44
0 0 44
0 0 45
0 0 45
0 0 43
0 0 45
0 0 45
0 0 45
0 0 46
0 0 45
0 0 47
0 0 48
0 0 48
0 0 50
0 0 53
0 0 56
0 0 54
0 0 58
0 0 60
0 0 56
0 0 57
0 0 55
0 0 55
0 0 53
0 2 55
0 0 48
0 0 47
0 0 48
0 0 47
0 0 47
0 0 46
0 0 47
0 0 48
0 0 50
0 0 49
0 0 47
0 0 49
0 0 48
0 0 48
0 0 54
32 34 66
205 214 229
230 241 255
230 241 255
230 241 255
230 241 255
230 241 255
230 241 255
230 241 255
230 241 255
230 241 255
230 241 255
230 241 255
230 241 255
230 241 255
230 241 255
230 241 255
230 241 255
230 241 255
230 241 255
230 241 255
230 241 255
230 241 255
230 241 255
230 241 255
230 241 255
230 241 255
230 241 255
230 241 255
230 241 255
230 241 255
230 241 255
230 241 255
230 241 255
230 241 255
230 241 255
230 241 255
230 241 255
230 241 255
230 241 255
230 241 255
230 241 255
230 241 255
230 241 255
230 241 255
230 241 255
230 241 255
230 241 255
230 241 255
230 241 255
230 241 255
230 241 255
230 241 255
230 241 255
230 241 255
230 241 255
230 241 255
230 241 255
230 241 255
230 241 255
230 241 255
230 241 255
230 241 255
230 241 255
230 241 255
230 241 255
230 241 255
230 241 255
230 241 255
230 241 255
230 241 255
230 241 255
230 241 255
230 241 255
230 241 255
230 241 255
230 241 255
230 241 255
230 241 255
230 241 255
230 241 255
230 241 255
230 241 255
230 241 255
230 241 255
230 241 255
230 241 255
230 241 255
230 241 255
230 241 255
230 241 255
230 241 255
230 241 255
230 241 255
230 241 255
230 241 255
230 241 255
230 241 255
230 241 255
230 241 255
230 241 255
230 241 255
230 241 255
230 241 255
230 241 255
230 241 255
230 241 255
230 241 255
230 241 255
230 241 255
230 241 255
230 241 255
230 241 255
230 241 255
230 241 255
230 241 255
230 241 255
230 241 255
230 241 255
230 241 255
230 241 255
230 241 255
230 241 255
230 241 255
230 241 255
230 241 255
230 241 255
230 241 255
230 241 255
230 241 255
230 241 255
230 241 255
230 241 255
230 241 255
230 241 255
230 241 255
230 241 255
230 241 255
230 241 255
230 241 255
230 241 255
230 241 255
230 241 255
230 241 255
230 241 255
230 241 255
230 241 255
230 241 255
230 241 255
230 241 255
230 241 255
230 241 255
230 241 255
230 241 255
230 241 255
230 241 255
230 241 255
230 241 255
230 241 255
230 241 255
230 241 255
230 241 255
230 241 255
230 241 255
230 241 255
230 241 255
230 241 255
230 241 255
230 241 255
230 241 255
230 241 255
230 241 255
230 241 255
230 241 255
230 241 255
230 241 255
230 241 255
230 241 255
230 241 255
230 241 255
230 241 255
230 241 255
230 241 255
230 241 255
230 241 255
230 241 255
230 241 255
230 241 255
230 241 255
230 241 255
230 241 255
230 241 255
230 241 255
230 241 255
230 241 255
230 241 255
230 241 255
230 241 255
230 241 255
230 241 255
230 241 255
230 241 255
230 241 255
230 241 255
230 241 255
230 241 255
230 241 255
230 241 255
230 241 255
230 241 255
230 241 255
230 241 255
230 241 255
230 241 255
230 241 255
230 241 255
230 241 255
230 241 255
230 241 255
230 241 255
230 241 255
230 241 255
230 241 255
230 241 255
230 241 255
230 241 255
230 241 255
230 241 255
230 241 255
230 241 255
230 241 255
230 241 255
230 241 255
230 241 255
230 241 255
230 241 255
230 241 255
230 241 255
230 241 255
230 241 255
230 241 255
230 241 255
230 241 255
230 241 255
230 241 255
230 241 255
230 241 255
230 241 255
230 241 255
230 241 255
230 241 255
230 241 255
230 241 255
230 241 255
230 241 255
230 241 255
230 241 255
230 241 255
230 241 255
230 241 255
230 241 255
230 241 255
230 241 255
230 241 255
230 241 255
230 241 255
230 241 255
230 241 255
230 241 255
230 241 255
230 241 255
202 211 226
65 70 93
100 99 91
90 76 48
79 72 44
60 65 35
38 68 89
18 38 82
21 39 84
0 24 84
0 12 75
0 4 69
0 0 61
0 0 57
0 0 58
0 0 54
0 0 51
0 0 55
0 0 55
0 0 53
0 0 52
0 0 53
0 0 53
0 0 52
0 0 52
0 0 52
0 0 52
0 0 51
0 0 46
0 0 47
0 0 47
0 0 45
0 0 45
0 0 44
0 0 43
0 0 44
0 0 45
0 0 45
0 0 45
0 0 45
0 0 45
0 0 45
0 0 45
0 0 45
0 0 43
0 0 42
0 0 43
0 0 43
0 0 43
0 0 43
0 0 42
0 0 42
0 0 42
0 0 42
0 0 42
0 0 42
0 0 43
0 0 42
0 0 42
0 0 45
0 0 45
0 0 45
0 0 45
0 0 43
0 0 42
0 0 42
0 0 42
0 0 42
0 0 42
0 0 42
0 0 42
0 0 42
0 0 42
0 0 42
0 0 43
0 0 42
0 0 42
0 0 43
0 0 43
0 0 43
0 0 43
0 0 43
0 0 43
0 0 43
0 0 43
0 0 44
0 0 43
0 0 44
0 0 44
0 0 45
0 0 45
0 0 45
0 0 45
0 0 45
0 0 45
0 0 45
0 0 47
0 0 48
0 0 48
0 0 48
0 0 49
0 0 50
0 0 50
0 0 53
0 0 55
0 0 52
0 0 55
0 0 55
0 0 48
0 0 51
0 0 53
0 0 51
0 0 50
0 0 48
0 0 48
0 0 49
0 0 51
0 0 52
0 0 51
0 0 48
0 0 47
0 0 49
0 0 50
0 0 47
0 0 47
0 0 48
0 0 50
0 0 55
65 68 90
203 213 227
230 241 255
230 241 255
230 241 255
230 241 255
230 241 255
230 241 255
230 241 255
230 241 255
230 241 255
230 241 255
230 241 255
230 241 255
230 241 255
230 241 255
230 241 255
230 241 255
230 241 255
230 241 255
230 241 255
230 241 255
230 241 255
230 241 255
230 241 255
230 241 255
230 241 255
230 241 255
230 241 255
230 241 255
230 241 255
230 241 255
230 241 255
230 241 255
230 241 255
230 241 255
230 241 255
230 241 255
230 241 255
230 241 255
230 241 255
230 241 255
230 241 255
230 241 255
230 241 255
230 241 255
230 241 255
230 241 255
230 241 255
230 241 255
230 241 255
230 241 255
230 241 255
230 241 255
230 241 255
230 241 255
230 241 255
230 241 255
230 241 255
230 241 255
230 241 255
230 241 255
230 241 255
230 241 255
230 241 255
230 241 255
230 241 255
230 241 255
230 241 255
230 241 255
230 241 255
230 241 255
230 241 255
230 241 255
230 241 255
230 241 255
230 241 255
230 241 255
230 241 255
230 241 255
230 241 255
230 241 255
230 241 255
230 241 255
230 241 255
230 241 255
230 241 255
230 241 255
230 241 255
230 241 255
230 241 255
230 241 255
230 241 255
230 241 255
230 241 255
230 241 255
230 241 255
230 241 255
230 241 255
230 241 255
230 241 255
230 241 255
230 241 255
230 241 255
230 241 255
230 241 255
230 241 255
230 241 255
230 241 255
230 241 255
230 241 255
230 241 255
230 241 255
230 241 255
230 241 255
230 241 255
230 241 255
230 241 255
230 241 255
230 241 255
230 241 255
230 241 255
230 241 255
230 241 255
230 241 255
230 241 255
230 241 255
230 241 255
230 241 255
230 241 255
230 241 255
230 241 255
230 241 255
230 241 255
230 241 255
230 241 255
230 241 255
230 241 255
230 241 255
230 241 255
230 241 255
230 241 255
230 241 255
230 241 255
230 241 255
230 241 255
230 241 255
230 241 255
230 241 255
230 241 255
230 241 255
230 241 255
230 241 255
230 241 255
230 241 255
230 241 255
230 241 255
230 241 255
230 241 255
230 241 255
230 241 255
230 241 255
230 241 255
230 241 255
230 241 255
230 241 255
230 241 255
230 241 255
230 241 255
230 241 255
230 241 255
230 241 255
230 241 255
230 241 255
230 241 255
230 241 255
230 241 255
230 241 255
230 241 255
230 241 255
230 241 255
230 241 255
230 241 255
230 241 255
230 241 255
230 241 255
230 241 255
230 241 255
230 241 255
230 241 255
230 241 255
230 241 255
230 241 255
230 241 255
230 241 255
230 241 255
230 241 255
230 241 255
230 241 255
230 241 255
230 241 255
230 241 255
230 241 255
230 241 255
230 241 255
230 241 255
230 241 255
230 241 255
230 241 255
230 241 255
230 241 255
230 241 255
230 241 255
230 241 255
230 241 255
230 241 255
230 241 255
230 241 255
230 241 255
230 241 255
230 241 255
230 241 255
230 241 255
230 241 255
230 241 255
230 241 255
230 241 255
230 241 255
230 241 255
230 241 255
230 241 255
230 241 255
230 241 255
230 241 255
230 241 255
230 241 255
230 241 255
230 241 255
230 241 255
230 241 255
230 241 255
230 241 255
230 241 255
230 241 255
230 241 255
230 241 255
230 241 255
230 241 255
230 241 255
230 241 255
230 241 255
230 241 255
230 241 255
230 241 255
230 241 255
230 241 255
230 241 255
230 241 255
230 241 255
230 241 255
230 241 255
230 241 255
230 241 255
230 241 255
230 241 255
230 241 255
230 241 255
230 241 255
230 241 255
230 241 255
230 241 255
231 241 255
231 241 255
206 215 230
76 81 103
94 91 81
97 86 59
79 70 55
47 60 63
17 38 86
0 22 85
0 20 83
0 15 77
0 9 70
0 0 64
0 0 59
0 0 59
0 0 62
0 0 58
0 0 58
0 0 60
0 0 60
0 0 58
0 0 57
0 0 58
0 0 57
0 0 55
0 0 56
0 0 57
0 0 57
0 0 53
0 0 49
0 0 48
0 0 47
0 0 45
0 0 45
0 0 45
0 0 45
0 0 45
0 0 45
0 0 45
0 0 45
0 0 45
0 0 45
0 0 45
0 0 45
0 0 45
0 0 43
0 0 44
0 0 45
0 0 45
0 0 45
0 0 45
0 0 45
0 0 44
0 0 44
0 0 44
0 0 42
0 0 43
0 0 43
0 0 42
0 0 45
0 0 45
0 0 45
0 0 45
0 0 43
0 0 44
0 0 45
0 0 45
0 0 44
0 0 43
0 0 45
0 0 44
0 0 43
0 0 44
0 0 45
0 0 45
0 0 43
0 0 44
0 0 45
0 0 45
0 0 45
0 0 45
0 0 45
0 0 45
0 0 45
0 0 45
0 0 45
0 0 45
0 0 45
0 0 45
0 0 47
0 0 47
0 0 47
0 0 47
0 0 47
0 0 46
0 0 47
0 0 48
0 0 48
0 0 48
0 0 48
0 0 50
0 0 50
0 0 51
0 0 54
0 0 53
0 0 53
0 0 52
0 0 47
0 0 50
0 0 51
0 0 50
0 0 48
0 0 48
0 0 48
0 0 48
0 0 51
0 0 52
0 0 50
0 0 52
0 0 49
0 0 48
0 0 49
0 0 48
0 0 48
0 0 49
0 0 53
0 0 55
100 105 123
214 223 238
231 241 255
230 241 255
230 241 255
230 241 255
230 241 255
230 241 255
230 241 255
230 241 255
230 241 255
230 241 255
230 241 255
230 241 255
230 241 255
230 241 255
230 241 255
230 241 255
230 241 255
230 241 255
230 241 255
230 241 255
230 241 255
230 241 255
230 241 255
230 241 255
230 241 255
230 241 255
230 241 255
230 241 255
230 241 255
230 241 255
230 241 255
230 241 255
230 241 255
230 241 255
230 241 255
230 241 255
230 241 255
230 241 255
230 241 255
230 241 255
230 241 255
230 241 255
230 241 255
230 241 255
230 241 255
230 241 255
230 241 255
230 241 255
230 241 255
230 241 255
230 241 255
230 241 255
230 241 255
230 241 255
230 241 255
230 241 255
230 241 255
230 241 255
230 241 255
230 241 255
230 241 255
230 241 255
230 241 255
230 241 255
230 241 255
230 241 255
230 241 255
230 241 255
230 241 255
230 241 255
230 241 255
230 241 255
230 241 255
230 241 255
230 241 255
230 241 255
230 241 255
230 241 255
230 241 255
230 241 255
230 241 255
230 241 255
230 241 255
230 241 255
230 241 255
230 241 255
230 241 255
230 241 255
230 241 255
230 241 255
230 241 255
230 241 255
230 241 255
230 241 255
230 241 255
230 241 255
230 241 255
230 241 255
230 241 255
230 241 255
230 241 255
230 241 255
230 241 255
230 241 255
230 241 255
230 241 255
230 241 255
230 241 255
230 241 255
230 241 255
230 241 255
230 241 255
230 241 255
230 241 255
230 241 255
230 241 255
230 241 255
230 241 255
230 241 255
230 241 255
230 241 255
230 241 255
230 241 255
230 241 255
230 241 255
230 241 255
230 241 255
230 241 255
230 241 255
230 241 255
230 241 255
230 241 255
230 241 255
230 241 255
230 241 255
230 241 255
230 241 255
230 241 255
230 241 255
230 241 255
230 241 255
230 241 255
230 241 255
230 241 255
230 241 255
230 241 255
230 241 255
230 241 255
230 241 255
230 241 255
230 241 255
230 241 255
230 241 255
230 241 255
230 241 255
230 241 255
230 241 255
230 241 255
230 241 255
230 241 255
230 241 255
230 241 255
230 241 255
230 241 255
230 241 255
230 241 255
230 241 255
230 241 255
230 241 255
230 241 255
230 241 255
230 241 255
230 241 255
230 241 255
230 241 255
230 241 255
230 241 255
230 241 255
230 241 255
230 241 255
230 241 255
230 241 255
230 241 255
230 241 255
230 241 255
230 241 255
230 241 255
230 241 255
230 241 255
230 241 255
230 241 255
230 241 255
230 241 255
230 241 255
230 241 255
230 241 255
230 241 255
230 241 255
230 241 255
230 241 255
230 241 255
230 241 255
230 241 255
230 241 255
230 241 255
230 241 255
230 241 255
230 241 255
230 241 255
230 241 255
230 241 255
230 241 255
230 241 255
230 241 255
230 241 255
230 241 255
230 241 255
230 241 255
230 241 255
230 241 255
230 241 255
230 241 255
230 241 255
230 241 255
230 241 255
230 241 255
230 241 255
230 241 255
230 241 255
230 241 255
230 241 255
230 241 255
230 241 255
230 241 255
230 241 255
230 241 255
230 241 255
230 241 255
230 241 255
230 241 255
230 241 255
231 241 255
231 241 255
231 241 255
231 241 255
231 241 255
231 241 255
231 241 255
231 241 255
231 241 255
231 241 255
231 241 255
231 241 255
231 241 255
231 241 255
231 241 255
231 241 255
231 241 255
231 241 255
231 241 255
231 241 255
231 241 255
231 241 255
231 241 255
231 241 255
231 241 255
231 241 255
231 241 255
231 241 255
231 241 255
231 241 255
231 241 255
231 241 255
229 240 254
119 126 142
95 94 82
95 82 54
78 68 59
14 28 82
0 23 86
0 27 89
0 20 81
0 17 78
0 4 67
0 0 63
0 0 59
0 0 59
0 0 61
0 0 63
0 0 60
0 0 61
0 0 59
0 0 57
0 0 59
0 0 60
0 0 58
0 0 57
0 0 59
0 0 62
0 0 60
0 0 55
0 0 51
0 0 49
0 0 47
0 0 45
0 0 46
0 0 45
0 0 45
0 0 45
0 0 45
0 0 46
0 0 46
0 0 46
0 0 45
0 0 45
0 0 45
0 0 45
0 0 45
0 0 45
0 0 45
0 0 45
0 0 45
0 0 45
0 0 45
0 0 45
0 0 45
0 0 45
0 0 45
0 0 45
0 0 45
0 0 45
0 0 45
0 0 45
0 0 45
0 0 45
0 0 45
0 0 45
0 0 44
0 0 42
0 0 43
0 0 44
0 0 44
0 0 42
0 0 45
0 0 45
0 0 44
0 0 45
0 0 45
0 0 45
0 0 45
0 0 45
0 0 45
0 0 45
0 0 45
0 0 45
0 0 45
0 0 45
0 0 45
0 0 45
0 0 46
0 0 48
0 0 48
0 0 48
0 0 48
0 0 48
0 0 48
0 0 48
0 0 48
0 0 48
0 0 48
0 0 50
0 0 52
0 0 52
0 0 52
0 0 51
0 0 50
0 0 50
0 0 49
0 0 49
0 0 49
0 0 49
0 0 48
0 0 48
0 0 48
0 0 48
0 0 49
0 0 50
0 0 50
0 0 52
0 0 50
0 0 50
0 0 52
0 0 51
0 0 53
0 0 53
0 0 56
0 2 55
124 130 148
222 232 247
231 241 255
231 241 255
231 241 255
231 241 255
231 241 255
231 241 255
231 241 255
231 241 255
231 241 255
231 241 255
231 241 255
231 241 255
231 241 255
231 241 255
231 241 255
231 241 255
231 241 255
231 241 255
231 241 255
231 241 255
231 241 255
231 241 255
231 241 255
231 241 255
231 241 255
231 241 255
231 241 255
231 241 255
231 241 255
231 241 255
231 241 255
231 241 255
231 241 255
230 241 255
230 241 255
230 241 255
230 241 255
230 241 255
230 241 255
230 241 255
230 241 255
230 241 255
230 241 255
230 241 255
230 241 255
230 241 255
230 241 255
230 241 255
230 241 255
230 241 255
230 241 255
230 241 255
230 241 255
230 241 255
230 241 255
230 241 255
230 241 255
230 241 255
230 241 255
230 241 255
230 241 255
230 241 255
230 241 255
230 241 255
230 241 255
230 241 255
230 241 255
230 241 255
230 241 255
230 241 255
230 241 255
230 241 255
230 241 255
230 241 255
230 241 255
230 241 255
230 241 255
230 241 255
230 241 255
230 241 255
230 241 255
230 241 255
230 241 255
230 241 255
230 241 255
230 241 255
230 241 255
230 241 255
230 241 255
230 241 255
230 241 255
230 241 255
230 241 255
230 241 255
230 241 255
230 241 255
230 241 255
230 241 255
230 241 255
230 241 255
230 241 255
230 241 255
230 241 255
230 241 255
230 241 255
230 241 255
230 241 255
230 241 255
230 241 255
230 241 255
230 241 255
230 241 255
230 241 255
230 241 255
230 241 255
230 241 255
230 241 255
230 241 255
230 241 255
230 241 255
230 241 255
230 241 255
230 241 255
230 241 255
230 241 255
230 241 255
230 241 255
230 241 255
230 241 255
230 241 255
230 241 255
230 241 255
230 241 255
230 241 255
230 241 255
230 241 255
230 241 255
230 241 255
230 241 255
230 241 255
230 241 255
230 241 255
230 241 255
230 241 255
230 241 255
230 241 255
230 241 255
230 241 255
230 241 255
230 241 255
230 241 255
230 241 255
230 241 255
230 241 255
230 241 255
230 241 255
230 241 255
230 241 255
230 241 255
230 241 255
230 241 255
230 241 255
230 241 255
230 241 255
230 241 255
230 241 255
230 241 255
230 241 255
230 241 255
230 241 255
230 241 255
230 241 255
230 241 255
230 241 255
230 241 255
230 241 255
230 241 255
230 241 255
230 241 255
230 241 255
230 241 255
230 241 255
230 241 255
230 241 255
230 241 255
230 241 255
230 241 255
230 241 255
230 241 255
230 241 255
230 241 255
230 241 255
230 241 255
230 241 255
230 241 255
230 241 255
230 241 255
230 241 255
230 241 255
230 241 255
230 241 255
230 241 255
230 241 255
230 241 255
230 241 255
230 241 255
230 241 255
230 241 255
230 241 255
230 241 255
230 241 255
230 241 255
230 241 255
230 241 255
230 241 255
230 241 255
230 241 255
230 241 255
231 241 255
231 241 255
231 241 255
231 241 255
231 241 255
231 241 255
231 241 255
231 241 255
231 241 255
231 241 255
231 241 255
231 241 255
231 241 255
231 241 255
231 241 255
231 241 255
231 241 255
231 241 255
231 241 255
231 241 255
231 241 255
231 241 255
231 241 255
231 241 255
231 241 255
231 241 255
231 241 255
231 241 255
231 241 255
231 241 255
231 241 255
231 241 255
231 241 255
231 241 255
231 241 255
231 241 255
231 241 255
231 241 255
231 241 255
231 241 255
231 241 255
231 241 255
231 241 255
231 241 255
231 241 255
231 241 255
231 241 255
231 241 255
231 241 255
231 241 255
231 241 255
231 241 255
231 241 255
231 241 255
231 241 255
231 241 255
231 241 255
229 240 254
155 164 177
101 99 87
106 90 55
76 73 59
18 30 80
0 17 78
0 22 85
0 18 81
0 6 69
0 3 68
0 6 68
0 1 63
0 0 59
0 0 63
0 0 65
0 0 63
0 0 60
0 0 58
0 0 59
0 0 61
0 0 61
0 0 58
0 0 59
0 0 60
0 0 61
0 0 59
0 0 55
0 0 51
0 0 50
0 0 49
0 0 47
0 0 47
0 0 47
0 0 47
0 0 47
0 0 48
0 0 47
0 0 46
0 0 47
0 0 46
0 0 46
0 0 45
0 0 45
0 0 45
0 0 45
0 0 45
0 0 45
0 0 45
0 0 45
0 0 45
0 0 45
0 0 45
0 0 45
0 0 45
0 0 45
0 0 45
0 0 46
0 0 47
0 0 47
0 0 47
0 0 47
0 0 46
0 0 46
0 0 46
0 0 46
0 0 45
0 0 46
0 0 45
0 0 45
0 0 46
0 0 46
0 0 46
0 0 47
0 0 46
0 0 45
0 0 46
0 0 47
0 0 47
0 0 48
0 0 48
0 0 48
0 0 48
0 0 48
0 0 48
0 0 48
0 0 48
0 0 49
0 0 48
0 0 47
0 0 48
0 0 50
0 0 49
0 0 48
0 0 48
0 0 49
0 0 52
0 0 53
0 0 52
0 0 49
0 0 49
0 0 50
0 0 52
0 0 52
0 0 49
0 0 48
0 0 48
0 0 49
0 0 49
0 0 47
0 0 45
0 0 46
0 0 48
0 0 51
0 0 50
0 0 52
0 0 54
0 0 57
0 0 58
0 0 57
0 0 56
0 3 56
156 163 180
228 238 253
231 241 255
231 241 255
231 241 255
231 241 255
231 241 255
231 241 255
231 241 255
231 241 255
231 241 255
231 241 255
231 241 255
231 241 255
231 241 255
231 241 255
231 241 255
231 241 255
231 241 255
231 241 255
231 241 255
231 241 255
231 241 255
231 241 255
231 241 255
231 241 255
231 241 255
231 241 255
231 241 255
231 241 255
231 241 255
231 241 255
231 241 255
231 241 255
231 241 255
231 241 255
231 241 255
231 241 255
231 241 255
231 241 255
231 241 255
231 241 255
231 241 255
231 241 255
231 241 255
231 241 255
231 241 255
231 241 255
231 241 255
231 241 255
231 241 255
231 241 255
231 241 255
231 241 255
231 241 255
231 241 255
231 241 255
230 241 255
230 241 255
230 241 255
230 241 255
230 241 255
230 241 255
230 241 255
230 241 255
230 241 255
230 241 255
230 241 255
230 241 255
230 241 255
230 241 255
230 241 255
230 241 255
230 241 255
230 241 255
230 241 255
230 241 255
230 241 255
230 241 255
230 241 255
230 241 255
230 241 255
230 241 255
230 241 255
230 241 255
230 241 255
230 241 255
230 241 255
230 241 255
230 241 255
230 241 255
230 241 255
230 241 255
230 241 255
230 241 255
230 241 255
230 241 255
230 241 255
230 241 255
230 241 255
230 241 255
230 241 255
230 241 255
230 241 255
230 241 255
230 241 255
230 241 255
230 241 255
230 241 255
230 241 255
230 241 255
230 241 255
230 241 255
230 241 255
230 241 255
230 241 255
230 241 255
230 241 255
230 241 255
230 241 255
230 241 255
230 241 255
230 241 255
230 241 255
230 241 255
230 241 255
230 241 255
230 241 255
230 241 255
230 241 255
230 241 255
230 241 255
230 241 255
230 241 255
230 241 255
230 241 255
230 241 255
230 241 255
230 241 255
230 241 255
230 241 255
230 241 255
230 241 255
230 241 255
230 241 255
230 241 255
230 241 255
230 241 255
230 241 255
230 241 255
230 241 255
230 241 255
230 241 255
230 241 255
230 241 255
230 241 255
230 241 255
230 241 255
230 241 255
230 241 255
230 241 255
230 241 255
230 241 255
230 241 255
230 241 255
230 241 255
230 241 255
230 241 255
230 241 255
230 241 255
230 241 255
230 241 255
230 241 255
230 241 255
230 241 255
230 241 255
230 241 255
230 241 255
230 241 255
230 241 255
230 241 255
230 241 255
230 241 255
230 241 255
230 241 255
230 241 255
230 241 255
230 241 255
230 241 255
230 241 255
230 241 255
230 241 255
230 241 255
230 241 255
230 241 255
230 241 255
230 241 255
230 241 255
230 241 255
230 241 255
230 241 255
230 241 255
230 241 255
231 241 255
231 241 255
231 241 255
231 241 255
231 241 255
231 241 255
231 241 255
231 241 255
231 241 255
231 241 255
231 241 255
231 241 255
231 241 255
231 241 255
231 241 255
231 241 255
231 241 255
231 241 255
231 241 255
231 241 255
231 241 255
231 241 255
231 241 255
231 241 255
231 241 255
231 241 255
231 241 255
231 241 255
231 241 255
231 241 255
231 241 255
231 241 255
231 241 255
231 241 255
231 241 255
231 241 255
231 241 255
231 241 255
231 241 255
231 241 255
231 241 255
231 241 255
231 241 255
231 241 255
231 241 255
231 241 255
231 241 255
231 241 255
231 241 255
231 241 255
231 241 255
231 241 255
231 241 255
231 241 255
231 241 255
231 241 255
231 241 255
231 241 255
231 241 255
231 241 255
231 241 255
231 241 255
231 241 255
231 241 255
231 241 255
231 241 255
231 241 255
231 241 255
231 241 255
231 241 255
231 241 255
231 241 255
231 241 255
231 241 255
231 241 255
231 241 255
231 241 255
174 183 195
114 116 114
103 90 58
61 59 67
3 14 76
0 21 82
0 14 76
0 5 68
0 12 74
0 8 71
0 9 72
0 3 62
0 0 61
0 0 65
0 0 68
0 0 67
0 0 63
0 0 63
0 0 64
0 0 63
0 0 60
0 0 60
0 0 60
0 0 60
0 0 62
0 0 58
0 0 53
0 0 56
0 0 56
0 0 52
0 0 48
0 0 45
0 0 47
0 0 50
0 0 51
0 0 49
0 0 49
0 0 48
0 0 48
0 0 48
0 0 48
0 0 47
0 0 48
0 0 49
0 0 48
0 0 48
0 0 47
0 0 46
0 0 46
0 0 46
0 0 47
0 0 47
0 0 47
0 0 47
0 0 47
0 0 49
0 0 51
0 0 51
0 0 49
0 0 48
0 0 49
0 0 50
0 0 50
0 0 51
0 0 51
0 0 51
0 0 50
0 0 49
0 0 50
0 0 50
0 0 50
0 0 51
0 0 50
0 0 47
0 0 46
0 0 49
0 0 50
0 0 50
0 0 50
0 0 49
0 0 49
0 0 49
0 0 51
0 0 52
0 0 51
0 0 51
0 0 50
0 0 49
0 0 49
0 0 50
0 0 50
0 0 50
0 0 50
0 0 52
0 0 52
0 0 51
0 0 52
0 0 51
0 0 52
0 0 52
0 0 51
0 0 51
0 0 53
0 0 50
0 0 51
0 0 51
0 0 50
0 0 47
0 0 46
0 0 48
0 0 52
0 0 52
0 0 56
0 0 59
0 0 59
0 0 59
0 0 59
0 0 57
40 41 72
177 185 200
231 241 255
231 241 255
231 241 255
231 241 255
231 241 255
231 241 255
231 241 255
231 241 255
231 241 255
231 241 255
231 241 255
231 241 255
231 241 255
231 241 255
231 241 255
231 241 255
231 241 255
231 241 255
231 241 255
231 241 255
231 241 255
231 241 255
231 241 255
231 241 255
231 241 255
231 241 255
231 241 255
231 241 255
231 241 255
231 241 255
231 241 255
231 241 255
231 241 255
231 241 255
231 241 255
231 241 255
231 241 255
231 241 255
231 241 255
231 241 255
231 241 255
231 241 255
231 241 255
231 241 255
231 241 255
231 241 255
231 241 255
231 241 255
231 241 255
231 241 255
231 241 255
231 241 255
231 241 255
231 241 255
231 241 255
231 241 255
231 241 255
231 241 255
231 241 255
231 241 255
231 241 255
231 241 255
231 241 255
231 241 255
231 241 255
231 241 255
231 241 255
231 241 255
231 241 255
231 241 255
231 241 255
231 241 255
231 241 255
231 241 255
231 241 255
231 241 255
231 241 255
230 241 255
230 241 255
230 241 255
230 241 255
230 241 255
230 241 255
230 241 255
230 241 255
230 241 255
230 241 255
230 241 255
230 241 255
230 241 255
230 241 255
230 241 255
230 241 255
230 241 255
230 241 255
230 241 255
230 241 255
230 241 255
230 241 255
230 241 255
230 241 255
230 241 255
230 241 255
230 241 255
230 241 255
230 241 255
230 241 255
230 241 255
230 241 255
230 241 255
230 241 255
230 241 255
230 241 255
230 241 255
230 241 255
230 241 255
230 241 255
230 241 255
230 241 255
230 241 255
230 241 255
230 241 255
230 241 255
230 241 255
230 241 255
230 241 255
230 241 255
230 241 255
230 241 255
230 241 255
230 241 255
230 241 255
230 241 255
230 241 255
230 241 255
230 241 255
230 241 255
230 241 255
230 241 255
230 241 255
230 241 255
230 241 255
230 241 255
230 241 255
230 241 255
230 241 255
230 241 255
230 241 255
230 241 255
230 241 255
230 241 255
230 241 255
230 241 255
230 241 255
230 241 255
230 241 255
230 241 255
230 241 255
230 241 255
230 241 255
230 241 255
230 241 255
230 241 255
230 241 255
230 241 255
230 241 255
230 241 255
230 241 255
230 241 255
230 241 255
230 241 255
230 241 255
230 241 255
230 241 255
230 241 255
230 241 255
230 241 255
230 241 255
230 241 255
230 241 255
230 241 255
230 241 255
230 241 255
230 241 255
230 241 255
230 241 255
231 241 255
231 241 255
231 241 255
231 241 255
231 241 255
231 241 255
231 241 255
231 241 255
231 241 255
231 241 255
231 241 255
231 241 255
231 241 255
231 241 255
231 241 255
231 241 255
231 241 255
231 241 255
231 241 255
231 241 255
231 241 255
231 241 255
231 241 255
231 241 255
231 241 255
231 241 255
231 241 255
231 241 255
231 241 255
231 241 255
231 241 255
231 241 255
231 241 255
231 241 255
231 241 255
231 241 255
231 241 255
231 241 255
231 241 255
231 241 255
231 241 255
231 241 255
231 241 255
231 241 255
231 241 255
231 241 255
231 241 255
231 241 255
231 241 255
231 241 255
231 241 255
231 241 255
231 241 255
231 241 255
231 241 255
231 241 255
231 241 255
231 241 255
231 241 255
231 241 255
231 241 255
231 241 255
231 241 255
231 241 255
231 241 255
231 241 255
231 241 255
231 241 255
231 241 255
231 241 255
231 241 255
231 241 255
231 241 255
231 241 255
231 241 255
231 241 255
231 241 255
231 241 255
231 241 255
231 241 255
231 241 255
231 241 255
231 241 255
231 241 255
231 241 255
231 241 255
231 241 255
231 241 255
231 241 255
231 241 255
231 241 255
231 241 255
231 241 255
231 241 255
231 241 255
218 227 242
130 136 140
96 89 67
24 29 75
0 18 80
0 14 76
0 3 68
0 12 72
0 18 81
0 10 73
0 13 74
0 4 65
0 0 68
0 0 68
0 0 67
0 0 68
0 0 69
0 0 67
0 0 63
0 0 64
0 0 63
0 0 63
0 0 59
0 0 60
0 0 63
0 0 61
0 0 58
0 0 58
0 0 57
0 0 56
0 0 53
0 0 53
0 0 52
0 0 52
0 0 51
0 0 51
0 0 51
0 0 51
0 0 51
0 0 51
0 0 51
0 0 51
0 0 50
0 0 50
0 0 50
0 0 50
0 0 50
0 0 50
0 0 49
0 0 50
0 0 50
0 0 50
0 0 50
0 0 50
0 0 52
0 0 53
0 0 53
0 0 52
0 0 53
0 0 54
0 0 56
0 0 55
0 0 55
0 0 55
0 0 56
0 0 55
0 0 54
0 0 53
0 0 53
0 0 52
0 0 53
0 0 52
0 0 52
0 0 53
0 0 54
0 0 54
0 0 54
0 0 53
0 0 52
0 0 52
0 0 53
0 0 55
0 0 55
0 0 56
0 0 56
0 0 56
0 0 54
0 0 53
0 0 52
0 0 52
0 0 52
0 0 51
0 0 52
0 0 52
0 0 52
0 0 52
0 0 51
0 0 51
0 0 52
0 0 49
0 0 53
0 0 52
0 0 48
0 0 51
0 0 51
0 0 50
0 0 48
0 0 50
0 0 52
0 0 56
0 0 56
0 0 62
0 0 61
0 0 59
0 0 59
0 0 59
103 107 126
210 219 234
231 241 255
231 241 255
231 241 255
231 241 255
231 241 255
231 241 255
231 241 255
231 241 255
231 241 255
231 241 255
231 241 255
231 241 255
231 241 255
231 241 255
231 241 255
231 241 255
231 241 255
231 241 255
231 241 255
231 241 255
231 241 255
231 241 255
231 241 255
231 241 255
231 241 255
231 241 255
231 241 255
231 241 255
231 241 255
231 241 255
231 241 255
231 241 255
231 241 255
231 241 255
231 241 255
231 241 255
231 241 255
231 241 255
231 241 255
231 241 255
231 241 255
231 241 255
231 241 255
231 241 255
231 241 255
231 241 255
231 241 255
231 241 255
231 241 255
231 241 255
231 241 255
231 241 255
231 241 255
231 241 255
231 241 255
231 241 255
231 241 255
231 241 255
231 241 255
231 241 255
231 241 255
231 241 255
231 241 255
231 241 255
231 241 255
231 241 255
231 241 255
231 241 255
231 241 255
231 241 255
231 241 255
231 241 255
231 241 255
231 241 255
231 241 255
231 241 255
231 241 255
231 241 255
231 241 255
231 241 255
231 241 255
231 241 255
231 241 255
231 241 255
231 241 255
231 241 255
231 241 255
231 241 255
231 241 255
231 241 255
231 241 255
231 241 255
231 241 255
231 241 255
231 241 255
230 241 255
230 241 255
230 241 255
230 241 255
230 241 255
230 241 255
230 241 255
230 241 255
230 241 255
230 241 255
230 241 255
230 241 255
230 241 255
230 241 255
230 241 255
230 241 255
230 241 255
230 241 255
230 241 255
230 241 255
230 241 255
230 241 255
230 241 255
230 241 255
230 241 255
230 241 255
230 241 255
230 241 255
230 241 255
230 241 255
230 241 255
230 241 255
230 241 255
230 241 255
230 241 255
230 241 255
230 241 255
230 241 255
230 241 255
230 241 255
230 241 255
230 241 255
230 241 255
230 241 255
230 241 255
230 241 255
230 241 255
230 241 255
230 241 255
230 241 255
230 241 255
230 241 255
230 241 255
230 241 255
230 241 255
230 241 255
230 241 255
230 241 255
230 241 255
230 241 255
230 241 255
230 241 255
230 241 255
230 241 255
230 241 255
230 241 255
230 241 255
230 241 255
230 241 255
230 241 255
230 241 255
230 241 255
230 241 255
230 241 255
230 241 255
230 241 255
230 241 255
231 241 255
231 241 255
231 241 255
231 241 255
231 241 255
231 241 255
231 241 255
231 241 255
231 241 255
231 241 255
231 241 255
231 241 255
231 241 255
231 241 255
231 241 255
231 241 255
231 241 255
231 241 255
231 241 255
231 241 255
231 241 255
231 241 255
231 241 255
231 241 255
231 241 255
231 241 255
231 241 255
231 241 255
231 241 255
231 241 255
231 241 255
231 241 255
231 241 255
231 241 255
231 241 255
231 241 255
231 241 255
231 241 255
231 241 255
231 241 255
231 241 255
231 241 255
231 241 255
231 241 255
231 241 255
231 241 255
231 241 255
231 241 255
231 241 255
231 241 255
231 241 255
231 241 255
231 241 255
231 241 255
231 241 255
231 241 255
231 241 255
231 241 255
231 241 255
231 241 255
231 241 255
231 241 255
231 241 255
231 241 255
231 241 255
231 241 255
231 241 255
231 241 255
231 241 255
231 241 255
231 241 255
231 241 255
231 241 255
231 241 255
231 241 255
231 241 255
231 241 255
231 241 255
231 241 255
231 241 255
231 241 255
231 241 255
231 241 255
231 241 255
231 241 255
231 241 255
231 241 255
231 241 255
231 241 255
231 241 255
231 241 255
231 241 255
231 241 255
231 241 255
231 241 255
231 241 255
231 241 255
231 241 255
231 241 255
231 241 255
231 241 255
231 241 255
231 241 255
231 241 255
231 241 255
231 241 255
231 241 255
231 241 255
231 241 255
231 241 255
231 241 255
224 234 248
174 181 189
107 100 86
41 39 73
0 12 73
0 14 75
0 6 66
0 14 75
0 15 78
0 15 75
0 6 71
0 10 70
0 8 73
0 9 72
0 6 71
0 6 70
0 0 69
0 2 68
0 2 67
0 0 67
0 0 66
0 0 66
0 0 65
0 0 66
0 0 68
0 0 68
0 0 66
0 0 63
0 0 61
0 0 62
0 0 59
0 0 59
0 0 55
0 0 53
0 0 55
0 0 54
0 0 55
0 0 56
0 0 55
0 0 56
0 0 55
0 0 53
0 0 53
0 0 54
0 0 52
0 0 52
0 0 51
0 0 52
0 0 52
0 0 53
0 0 52
0 0 52
0 0 52
0 0 54
0 0 57
0 0 55
0 0 54
0 0 53
0 0 56
0 0 57
0 0 58
0 0 60
0 0 60
0 0 59
0 0 58
0 0 58
0 0 58
0 0 58
0 0 58
0 0 57
0 0 57
0 0 58
0 0 57
0 0 57
0 0 57
0 0 58
0 0 57
0 0 58
0 0 58
0 0 58
0 0 57
0 0 58
0 0 59
0 0 58
0 0 58
0 0 57
0 0 58
0 0 56
0 0 54
0 0 53
0 0 52
0 0 53
0 0 53
0 0 53
0 0 54
0 0 54
0 0 54
0 0 53
0 0 52
0 0 52
0 0 49
0 0 52
0 0 56
0 0 53
0 0 52
0 0 51
0 0 51
0 0 54
0 0 57
0 0 63
0 0 63
0 0 59
0 0 59
0 0 59
126 132 148
223 232 247
231 241 255
231 241 255
231 241 255
231 241 255
231 241 255
231 241 255
231 241 255
231 241 255
231 241 255
231 241 255
231 241 255
231 241 255
231 241 255
231 241 255
231 241 255
231 241 255
231 241 255
231 241 255
231 241 255
231 241 255
231 241 255
231 241 255
231 241 255
231 241 255
231 241 255
231 241 255
231 241 255
231 241 255
231 241 255
231 241 255
231 241 255
231 241 255
231 241 255
231 241 255
231 241 255
231 241 255
231 241 255
231 241 255
231 241 255
231 241 255
231 241 255
231 241 255
231 241 255
231 241 255
231 241 255
231 241 255
231 241 255
231 241 255
231 241 255
231 241 255
231 241 255
231 241 255
231 241 255
231 241 255
231 241 255
231 241 255
231 241 255
231 241 255
231 241 255
231 241 255
231 241 255
231 241 255
231 241 255
231 241 255
231 241 255
231 241 255
231 241 255
231 241 255
231 241 255
231 241 255
231 241 255
231 241 255
231 241 255
231 241 255
231 241 255
231 241 255
231 241 255
231 241 255
231 241 255
231 241 255
231 241 255
231 241 255
231 241 255
231 241 255
231 241 255
231 241 255
231 241 255
231 241 255
231 241 255
231 241 255
231 241 255
231 241 255
231 241 255
231 241 255
231 241 255
231 241 255
231 241 255
231 241 255
231 241 255
231 241 255
231 241 255
231 241 255
231 241 255
231 241 255
231 241 255
231 241 255
231 241 255
231 241 255
231 241 255
231 241 255
231 241 255
231 241 255
230 241 255
230 241 255
230 241 255
230 241 255
230 241 255
230 241 255
230 241 255
230 241 255
230 241 255
230 241 255
230 241 255
230 241 255
230 241 255
230 241 255
230 241 255
230 241 255
230 241 255
230 241 255
230 241 255
230 241 255
230 241 255
230 241 255
230 241 255
230 241 255
230 241 255
230 241 255
230 241 255
230 241 255
230 241 255
230 241 255
230 241 255
230 241 255
230 241 255
230 241 255
230 241 255
230 241 255
230 241 255
230 241 255
230 241 255
230 241 255
230 241 255
230 241 255
230 241 255
230 241 255
230 241 255
230 241 255
231 241 255
231 241 255
231 241 255
231 241 255
231 241 255
231 241 255
231 241 255
231 241 255
231 241 255
231 241 255
231 241 255
231 241 255
231 241 255
231 241 255
231 241 255
231 241 255
231 241 255
231 241 255
231 241 255
231 241 255
231 241 255
231 241 255
231 241 255
231 241 255
231 241 255
231 241 255
231 241 255
231 241 255
231 241 255
231 241 255
231 241 255
231 241 255
231 241 255
231 241 255
231 241 255
231 241 255
231 241 255
231 241 255
231 241 255
231 241 255
231 241 255
231 241 255
231 241 255
231 241 255
231 241 255
231 241 255
231 241 255
231 241 255
231 241 255
231 241 255
231 241 255
231 241 255
231 241 255
231 241 255
231 241 255
231 241 255
231 241 255
231 241 255
231 241 255
231 241 255
231 241 255
231 241 255
231 241 255
231 241 255
231 241 255
231 241 255
231 241 255
231 241 255
231 241 255
231 241 255
231 241 255
231 241 255
231 241 255
231 241 255
231 241 255
231 241 255
231 241 255
231 241 255
231 241 255
231 241 255
231 241 255
231 241 255
231 241 255
231 241 255
231 241 255
231 241 255
231 241 255
231 241 255
231 241 255
231 241 255
231 241 255
231 241 255
231 241 255
231 241 255
231 241 255
231 241 255
231 241 255
231 241 255
231 241 255
231 241 255
231 241 255
231 241 255
231 241 255
231 241 255
231 241 255
231 241 255
231 241 255
231 241 255
231 241 255
231 241 255
231 241 255
231 241 255
231 241 255
231 241 255
231 241 255
231 241 255
231 241 255
231 241 255
231 241 255
231 241 255
231 241 255
231 241 255
231 241 255
231 241 255
231 241 255
231 241 255
231 241 255
231 241 255
202 210 222
122 115 97
79 70 64
8 13 71
0 12 73
0 4 62
0 7 67
0 11 74
0 12 75
0 11 74
0 14 77
0 13 76
0 10 74
0 6 73
0 0 70
0 0 69
0 3 70
0 0 68
0 0 67
0 0 66
0 0 67
0 0 69
0 0 69
0 5 72
0 11 73
0 5 71
0 0 69
0 0 67
0 0 65
0 0 64
0 0 63
0 0 60
0 0 59
0 0 60
0 0 61
0 0 60
0 0 58
0 0 57
0 0 56
0 0 55
0 0 55
0 0 55
0 0 55
0 0 56
0 0 55
0 0 55
0 0 56
0 0 58
0 0 57
0 0 56
0 0 55
0 0 57
0 0 59
0 0 58
0 0 59
0 0 59
0 0 56
0 0 57
0 0 60
0 0 65
0 0 64
0 0 64
0 0 61
0 0 61
0 0 62
0 0 60
0 0 58
0 0 57
0 0 57
0 0 58
0 0 59
0 0 59
0 0 60
0 0 59
0 0 59
0 0 59
0 0 59
0 0 60
0 0 62
0 0 64
0 0 64
0 0 61
0 0 61
0 0 60
0 0 59
0 0 57
0 0 57
0 0 56
0 0 56
0 0 57
0 0 57
0 0 56
0 0 57
0 0 57
0 0 53
0 0 53
0 0 53
0 0 54
0 0 53
0 0 57
0 0 57
0 0 57
0 0 59
0 0 58
0 0 59
0 0 61
0 0 61
0 0 63
0 2 59
0 0 59
40 41 74
183 191 206
231 241 255
231 241 255
231 241 255
231 241 255
231 241 255
231 241 255
231 241 255
231 241 255
231 241 255
231 241 255
231 241 255
231 241 255
231 241 255
231 241 255
231 241 255
231 241 255
231 241 255
231 241 255
231 241 255
231 241 255
231 241 255
231 241 255
231 241 255
231 241 255
231 241 255
231 241 255
231 241 255
231 241 255
231 241 255
231 241 255
231 241 255
231 241 255
231 241 255
231 241 255
231 241 255
231 241 255
231 241 255
231 241 255
231 241 255
231 241 255
231 241 255
231 241 255
231 241 255
231 241 255
231 241 255
231 241 255
231 241 255
231 241 255
231 241 255
231 241 255
231 241 255
231 241 255
231 241 255
231 241 255
231 241 255
231 241 255
231 241 255
231 241 255
231 241 255
231 241 255
231 241 255
231 241 255
231 241 255
231 241 255
231 241 255
231 241 255
231 241 255
231 241 255
231 241 255
231 241 255
231 241 255
231 241 255
231 241 255
231 241 255
231 241 255
231 241 255
231 241 255
231 241 255
231 241 255
231 241 255
231 241 255
231 241 255
231 241 255
231 241 255
231 241 255
231 241 255
231 241 255
231 241 255
231 241 255
231 241 255
231 241 255
231 241 255
231 241 255
231 241 255
231 241 255
231 241 255
231 241 255
231 241 255
231 241 255
231 241 255
231 241 255
231 241 255
231 241 255
231 241 255
231 241 255
231 241 255
231 241 255
231 241 255
231 241 255
231 241 255
231 241 255
231 241 255
231 241 255
231 241 255
231 241 255
231 241 255
231 241 255
231 241 255
231 241 255
231 241 255
231 241 255
231 241 255
231 241 255
231 241 255
231 241 255
231 241 255
231 241 255
230 241 255
230 241 255
230 241 255
230 241 255
230 241 255
230 241 255
230 241 255
230 241 255
230 241 255
230 241 255
230 241 255
230 241 255
230 241 255
230 241 255
230 241 255
230 241 255
230 241 255
230 241 255
230 241 255
230 241 255
230 241 255
231 241 255
231 241 255
231 241 255
231 241 255
231 241 255
231 241 255
231 241 255
231 241 255
231 241 255
231 241 255
231 241 255
231 241 255
231 241 255
231 241 255
231 241 255
231 241 255
231 241 255
231 241 255
231 241 255
231 241 255
231 241 255
231 241 255
231 241 255
231 241 255
231 241 255
231 241 255
231 241 255
231 241 255
231 241 255
231 241 255
231 241 255
231 241 255
231 241 255
231 241 255
231 241 255
231 241 255
231 241 255
231 241 255
231 241 255
231 241 255
231 241 255
231 241 255
231 241 255
231 241 255
231 241 255
231 241 255
231 241 255
231 241 255
231 241 255
231 241 255
231 241 255
231 241 255
231 241 255
231 241 255
231 241 255
231 241 255
231 241 255
231 241 255
231 241 255
231 241 255
231 241 255
231 241 255
231 241 255
231 241 255
231 241 255
231 241 255
231 241 255
231 241 255
231 241 255
231 241 255
231 241 255
231 241 255
231 241 255
231 241 255
231 241 255
231 241 255
231 241 255
231 241 255
231 241 255
231 241 255
231 241 255
231 241 255
231 241 255
231 241 255
231 241 255
231 241 255
231 241 255
231 241 255
231 241 255
231 241 255
231 241 255
231 241 255
231 241 255
231 241 255
231 241 255
231 241 255
231 241 255
231 241 255
231 241 255
231 241 255
231 241 255
231 241 255
231 241 255
231 241 255
231 241 255
231 241 255
231 241 255
231 241 255
231 241 255
231 241 255
231 241 255
231 241 255
231 241 255
231 241 255
231 241 255
231 241 255
231 241 255
231 241 255
231 241 255
231 241 255
231 241 255
231 241 255
231 241 255
231 241 255
231 241 255
231 241 255
231 241 255
231 241 255
231 241 255
231 241 255
231 241 255
231 241 255
231 241 255
231 241 255
231 241 255
231 241 255
231 241 255
231 241 255
231 241 255
231 241 255
231 241 255
220 230 245
148 147 143
63 58 69
0 6 72
0 1 69
0 0 65
0 7 69
0 13 75
0 11 73
0 8 71
0 12 72
0 9 73
0 10 74
0 14 74
0 3 70
0 5 70
0 8 71
0 8 71
0 2 67
0 3 67
0 6 71
0 9 70
0 5 69
0 4 69
0 6 71
0 0 70
0 0 69
0 5 70
0 2 70
0 0 68
0 0 66
0 0 63
0 0 64
0 0 64
0 0 64
0 0 62
0 0 61
0 0 59
0 0 59
0 0 59
0 0 59
0 0 59
0 0 61
0 0 60
0 0 58
0 0 58
0 0 60
0 0 58
0 0 57
0 0 58
0 0 59
0 0 58
0 0 58
0 0 59
0 0 60
0 0 56
0 0 58
0 0 58
0 0 60
0 0 60
0 0 64
0 0 63
0 0 62
0 0 62
0 0 61
0 0 60
0 0 59
0 0 59
0 0 60
0 0 60
0 0 59
0 0 60
0 0 61
0 0 59
0 0 59
0 0 59
0 0 62
0 0 63
0 0 62
0 0 61
0 0 59
0 0 58
0 0 58
0 0 58
0 0 58
0 0 58
0 0 58
0 0 57
0 0 59
0 0 62
0 0 59
0 0 56
0 0 56
0 0 54
0 0 55
0 0 57
0 0 57
0 0 58
0 0 57
0 0 57
0 0 59
0 0 62
0 0 59
0 0 61
0 0 60
0 0 63
0 0 57
0 0 57
95 99 119
215 225 239
231 241 255
231 241 255
231 241 255
231 241 255
231 241 255
231 241 255
231 241 255
231 241 255
231 241 255
231 241 255
231 241 255
231 241 255
231 241 255
231 241 255
231 241 255
231 241 255
231 241 255
231 241 255
231 241 255
231 241 255
231 241 255
231 241 255
231 241 255
231 241 255
231 241 255
231 241 255
231 241 255
231 241 255
231 241 255
231 241 255
231 241 255
231 241 255
231 241 255
231 241 255
231 241 255
231 241 255
231 241 255
231 241 255
231 241 255
231 241 255
231 241 255
231 241 255
231 241 255
231 241 255
231 241 255
231 241 255
231 241 255
231 241 255
231 241 255
231 241 255
231 241 255
231 241 255
231 241 255
231 241 255
231 241 255
231 241 255
231 241 255
231 241 255
231 241 255
231 241 255
231 241 255
231 241 255
231 241 255
231 241 255
231 241 255
231 241 255
231 241 255
231 241 255
231 241 255
231 241 255
231 241 255
231 241 255
231 241 255
231 241 255
231 241 255
231 241 255
231 241 255
231 241 255
231 241 255
231 241 255
231 241 255
231 241 255
231 241 255
231 241 255
231 241 255
231 241 255
231 241 255
231 241 255
231 241 255
231 241 255
231 241 255
231 241 255
231 241 255
231 241 255
231 241 255
231 241 255
231 241 255
231 241 255
231 241 255
231 241 255
231 241 255
231 241 255
231 241 255
231 241 255
231 241 255
231 241 255
231 241 255
231 241 255
231 241 255
231 241 255
231 241 255
231 241 255
231 241 255
231 241 255
231 241 255
231 241 255
231 241 255
231 241 255
231 241 255
231 241 255
231 241 255
231 241 255
231 241 255
231 241 255
231 241 255
231 241 255
231 241 255
231 241 255
231 241 255
231 241 255
231 241 255
231 241 255
231 241 255
231 241 255
231 241 255
231 241 255
231 241 255
231 241 255
231 241 255
231 241 255
231 241 255
230 241 255
230 241 255
230 241 255
230 241 255
231 241 255
231 241 255
231 241 255
231 241 255
231 241 255
231 241 255
231 241 255
231 241 255
231 241 255
231 241 255
231 241 255
231 241 255
231 241 255
231 241 255
231 241 255
231 241 255
231 241 255
231 241 255
231 241 255
231 241 255
231 241 255
231 241 255
231 241 255
231 241 255
231 241 255
231 241 255
231 241 255
231 241 255
231 241 255
231 241 255
231 241 255
231 241 255
231 241 255
231 241 255
231 241 255
231 241 255
231 241 255
231 241 255
231 241 255
231 241 255
231 241 255
231 241 255
231 241 255
231 241 255
231 241 255
231 241 255
231 241 255
231 241 255
231 241 255
231 241 255
231 241 255
231 241 255
231 241 255
231 241 255
231 241 255
231 241 255
231 241 255
231 241 255
231 241 255
231 241 255
231 241 255
231 241 255
231 241 255
231 241 255
231 241 255
231 241 255
231 241 255
231 241 255
231 241 255
231 241 255
231 241 255
231 241 255
231 241 255
231 241 255
231 241 255
231 241 255
231 241 255
231 241 255
231 241 255
231 241 255
231 241 255
231 241 255
231 241 255
231 241 255
231 241 255
231 241 255
231 241 255
231 241 255
231 241 255
231 241 255
231 241 255
231 241 255
231 241 255
231 241 255
231 241 255
231 241 255
231 241 255
231 241 255
231 241 255
231 241 255
231 241 255
231 241 255
231 241 255
231 241 255
231 241 255
231 241 255
231 241 255
231 241 255
231 241 255
231 241 255
231 241 255
231 241 255
231 241 255
231 241 255
231 241 255
231 241 255
231 241 255
231 241 255
231 241 255
231 241 255
231 241 255
231 241 255
231 241 255
231 241 255
231 241 255
231 241 255
231 241 255
231 241 255
231 241 255
231 241 255
231 241 255
231 241 255
231 241 255
231 241 255
231 241 255
231 241 255
231 241 255
231 241 255
231 241 255
231 241 255
231 241 255
231 241 255
231 241 255
231 241 255
231 241 255
231 241 255
230 240 255
186 193 200
63 66 83
0 11 72
0 0 68
0 0 66
0 4 69
0 13 73
0 3 69
0 2 69
0 0 67
0 4 69
0 8 70
0 6 69
0 0 68
0 2 70
0 10 72
0 12 74
0 10 71
0 17 75
0 17 76
0 16 76
0 10 73
0 13 73
0 2 71
0 0 69
0 0 69
0 0 69
0 0 70
0 0 70
0 0 68
0 0 67
0 0 67
0 0 66
0 0 66
0 0 66
0 0 64
0 0 64
0 0 64
0 0 64
0 0 64
0 0 66
0 0 64
0 0 60
0 0 59
0 0 60
0 0 58
0 0 57
0 0 58
0 0 60
0 0 63
0 0 66
0 9 67
0 1 64
0 0 61
0 0 61
0 0 60
0 0 57
0 0 60
0 0 61
0 0 63
0 0 62
0 0 62
0 0 65
0 0 62
0 0 61
0 0 60
0 0 60
0 0 60
0 0 61
0 0 62
0 0 60
0 0 59
0 0 59
0 0 59
0 0 59
0 0 59
0 0 58
0 0 59
0 0 59
0 0 59
0 0 60
0 0 58
0 0 58
0 0 57
0 0 57
0 0 58
0 0 59
0 0 60
0 0 59
0 0 58
0 0 58
0 0 58
0 0 57
0 0 57
0 0 60
0 0 60
0 0 58
0 0 57
0 0 61
0 0 58
0 0 58
0 0 57
0 0 60
0 0 57
40 41 71
156 163 179
230 240 254
231 241 255
231 241 255
231 241 255
231 241 255
231 241 255
231 241 255
231 241 255
231 241 255
231 241 255
231 241 255
231 241 255
231 241 255
231 241 255
231 241 255
231 241 255
231 241 255
231 241 255
231 241 255
231 241 255
231 241 255
231 241 255
231 241 255
231 241 255
231 241 255
231 241 255
231 241 255
231 241 255
231 241 255
231 241 255
231 241 255
231 241 255
231 241 255
231 241 255
231 241 255
231 241 255
231 241 255
231 241 255
231 241 255
231 241 255
231 241 255
231 241 255
231 241 255
231 241 255
231 241 255
231 241 255
231 241 255
231 241 255
231 241 255
231 241 255
231 241 255
231 241 255
231 241 255
231 241 255
231 241 255
231 241 255
231 241 255
231 241 255
231 241 255
231 241 255
231 241 255
231 241 255
231 241 255
231 241 255
231 241 255
231 241 255
231 241 255
231 241 255
231 241 255
231 241 255
231 241 255
231 241 255
231 241 255
231 241 255
231 241 255
231 241 255
231 241 255
231 241 255
231 241 255
231 241 255
231 241 255
231 241 255
231 241 255
231 241 255
231 241 255
231 241 255
231 241 255
231 241 255
231 241 255
231 241 255
231 241 255
231 241 255
231 241 255
231 241 255
231 241 255
231 241 255
231 241 255
231 241 255
231 241 255
231 241 255
231 241 255
231 241 255
231 241 255
231 241 255
231 241 255
231 241 255
231 241 255
231 241 255
231 241 255
231 241 255
231 241 255
231 241 255
231 241 255
231 241 255
231 241 255
231 241 255
231 241 255
231 241 255
231 241 255
231 241 255
231 241 255
231 241 255
231 241 255
231 241 255
231 241 255
231 241 255
231 241 255
231 241 255
231 241 255
231 241 255
231 241 255
231 241 255
231 241 255
231 241 255
231 241 255
231 241 255
231 241 255
231 241 255
231 241 255
231 241 255
231 241 255
231 241 255
231 241 255
231 241 255
231 241 255
231 241 255
231 241 255
231 241 255
231 241 255
231 241 255
231 241 255
231 241 255
231 241 255
231 241 255
231 241 255
231 241 255
231 241 255
231 241 255
231 241 255
231 241 255
231 241 255
231 241 255
231 241 255
231 241 255
231 241 255
231 241 255
231 241 255
231 241 255
231 241 255
231 241 255
231 241 255
231 241 255
231 241 255
231 241 255
231 241 255
231 241 255
231 241 255
231 241 255
231 241 255
231 241 255
231 241 255
231 241 255
231 241 255
231 241 255
231 241 255
231 241 255
231 241 255
231 241 255
231 241 255
231 241 255
231 241 255
231 241 255
231 241 255
231 241 255
231 241 255
231 241 255
231 241 255
231 241 255
231 241 255
231 241 255
231 241 255
231 241 255
231 241 255
231 241 255
231 241 255
231 241 255
231 241 255
231 241 255
231 241 255
231 241 255
231 241 255
231 241 255
231 241 255
231 241 255
231 241 255
231 241 255
231 241 255
231 241 255
231 241 255
231 241 255
231 241 255
231 241 255
231 241 255
231 241 255
231 241 255
231 241 255
231 241 255
231 241 255
231 241 255
231 241 255
231 241 255
231 241 255
231 241 255
231 241 255
231 241 255
231 241 255
231 241 255
231 241 255
231 241 255
231 241 255
231 241 255
231 241 255
231 241 255
231 241 255
231 241 255
231 241 255
231 241 255
231 241 255
231 241 255
231 241 255
231 241 255
231 241 255
231 241 255
231 241 255
231 241 255
231 241 255
231 241 255
231 241 255
231 241 255
231 241 255
231 241 255
231 241 255
231 241 255
231 241 255
231 241 255
231 241 255
231 241 255
231 241 255
231 241 255
231 241 255
231 241 255
231 241 255
231 241 255
231 241 255
231 241 255
231 241 255
231 241 255
231 241 255
231 241 255
231 241 255
231 241 255
231 241 255
231 241 255
231 241 255
231 241 255
231 241 255
231 241 255
231 241 255
231 241 255
231 241 255
231 241 255
231 241 255
231 241 255
231 241 255
231 241 255
218 228 241
146 153 166
10 19 76
0 5 69
0 2 67
0 2 66
0 4 66
0 12 74
0 6 69
0 3 68
0 10 72
0 10 72
0 8 71
0 0 67
0 5 69
0 9 74
0 14 74
0 7 72
0 11 73
0 14 75
0 10 70
0 8 70
0 2 70
0 0 67
0 0 65
0 0 66
0 0 69
0 0 68
0 0 68
0 0 66
0 0 63
0 0 63
0 0 65
0 0 66
0 0 64
0 0 64
0 0 68
0 0 69
0 0 67
0 0 65
0 0 63
0 0 59
0 0 58
0 0 60
0 0 58
0 0 57
0 0 57
0 0 62
0 0 61
0 0 64
0 4 70
0 0 70
0 5 66
0 1 68
0 1 69
0 0 65
0 0 63
0 0 59
0 0 62
0 0 62
0 0 63
0 0 62
0 0 60
0 0 60
0 0 60
0 0 60
0 0 60
0 0 62
0 0 62
0 0 59
0 0 60
0 0 60
0 0 57
0 0 57
0 0 57
0 0 57
0 0 58
0 0 59
0 0 61
0 0 62
0 0 61
0 0 58
0 0 57
0 0 57
0 0 57
0 0 55
0 0 57
0 0 58
0 0 59
0 0 57
0 0 57
0 0 58
0 0 60
0 0 59
0 0 59
0 0 55
0 0 59
0 0 58
0 0 56
0 0 55
0 0 58
0 0 57
120 125 142
217 226 241
231 241 255
231 241 255
231 241 255
231 241 255
231 241 255
231 241 255
231 241 255
231 241 255
231 241 255
231 241 255
231 241 255
231 241 255
231 241 255
231 241 255
231 241 255
231 241 255
231 241 255
231 241 255
231 241 255
231 241 255
231 241 255
231 241 255
231 241 255
231 241 255
231 241 255
231 241 255
231 241 255
231 241 255
231 241 255
231 241 255
231 241 255
231 241 255
231 241 255
231 241 255
231 241 255
231 241 255
231 241 255
231 241 255
231 241 255
231 241 255
231 241 255
231 241 255
231 241 255
231 241 255
231 241 255
231 241 255
231 241 255
231 241 255
231 241 255
231 241 255
231 241 255
231 241 255
231 241 255
231 241 255
231 241 255
231 241 255
231 241 255
231 241 255
231 241 255
231 241 255
231 241 255
231 241 255
231 241 255
231 241 255
231 241 255
231 241 255
231 241 255
231 241 255
231 241 255
231 241 255
231 241 255
231 241 255
231 241 255
231 241 255
231 241 255
231 241 255
231 241 255
231 241 255
231 241 255
231 241 255
231 241 255
231 241 255
231 241 255
231 241 255
231 241 255
231 241 255
231 241 255
231 241 255
231 241 255
231 241 255
231 241 255
231 241 255
231 241 255
231 241 255
231 241 255
231 241 255
231 241 255
231 241 255
231 241 255
231 241 255
231 241 255
231 241 255
231 241 255
231 241 255
231 241 255
231 241 255
231 241 255
231 241 255
231 241 255
231 241 255
231 241 255
231 241 255
231 241 255
231 241 255
231 241 255
231 241 255
231 241 255
231 241 255
231 241 255
231 241 255
231 241 255
231 241 255
231 241 255
231 241 255
231 241 255
231 241 255
231 241 255
231 241 255
231 241 255
231 241 255
231 241 255
231 241 255
231 241 255
231 241 255
231 241 255
231 241 255
231 241 255
231 241 255
231 241 255
231 241 255
231 241 255
231 241 255
231 241 255
231 241 255
231 241 255
231 241 255
231 241 255
231 241 255
231 241 255
231 241 255
231 241 255
231 241 255
231 241 255
231 241 255
231 241 255
231 241 255
231 241 255
231 241 255
231 241 255
231 241 255
231 241 255
231 241 255
231 241 255
231 241 255
231 241 255
231 241 255
231 241 255
231 241 255
231 241 255
231 241 255
231 241 255
231 241 255
231 241 255
231 241 255
231 241 255
231 241 255
231 241 255
231 241 255
231 241 255
231 241 255
231 241 255
231 241 255
231 241 255
231 241 255
231 241 255
231 241 255
231 241 255
231 241 255
231 241 255
231 241 255
231 241 255
231 241 255
231 241 255
231 241 255
231 241 255
231 241 255
231 241 255
231 241 255
231 241 255
231 241 255
231 241 255
231 241 255
231 241 255
231 241 255
231 241 255
231 241 255
231 241 255
231 241 255
231 241 255
231 241 255
231 241 255
231 241 255
231 241 255
231 241 255
231 241 255
231 241 255
231 241 255
231 241 255
231 241 255
231 241 255
231 241 255
231 241 255
231 241 255
231 241 255
231 241 255
231 241 255
231 241 255
231 241 255
231 241 255
231 241 255
231 241 255
231 241 255
231 241 255
231 241 255
231 241 255
231 241 255
231 241 255
231 241 255
231 241 255
231 241 255
231 241 255
231 241 255
231 241 255
231 241 255
231 241 255
231 241 255
231 241 255
231 241 255
231 241 255
231 241 255
231 241 255
231 241 255
231 241 255
231 241 255
231 241 255
231 241 255
231 241 255
231 241 255
231 241 255
231 241 255
231 241 255
231 241 255
231 241 255
231 241 255
231 241 255
231 241 255
231 241 255
231 241 255
231 241 255
231 241 255
231 241 255
231 241 255
231 241 255
231 241 255
231 241 255
231 241 255
231 241 255
231 241 255
231 241 255
231 241 255
231 241 255
231 241 255
231 241 255
231 241 255
231 241 255
231 241 255
231 241 255
231 241 255
231 241 255
231 241 255
231 241 255
231 241 255
231 241 255
231 241 255
231 241 255
231 241 255
231 241 255
231 241 255
192 202 217
99 106 126
0 9 72
0 5 69
0 6 71
0 0 67
0 1 64
0 0 65
0 3 67
0 8 70
0 13 74
0 12 74
0 12 73
0 10 72
0 17 81
0 12 77
0 8 71
0 9 71
0 9 72
0 12 74
0 11 71
0 3 68
0 1 66
0 4 65
0 2 66
0 0 65
0 0 65
0 0 65
0 0 64
0 0 61
0 0 62
0 0 62
0 0 63
0 0 64
0 0 66
0 0 64
0 0 60
0 0 61
0 0 64
0 0 62
0 0 61
0 0 60
0 0 60
0 0 60
0 0 60
0 0 63
0 0 59
0 0 58
0 0 63
0 0 67
0 7 70
0 10 73
0 7 72
0 0 66
0 0 64
0 0 62
0 0 62
0 0 62
0 0 61
0 0 62
0 0 63
0 0 63
0 0 62
0 0 62
0 0 60
0 0 64
0 0 64
0 0 62
0 0 64
0 0 63
0 0 58
0 0 57
0 0 57
0 0 57
0 0 57
0 0 60
0 0 62
0 0 61
0 0 58
0 0 59
0 0 59
0 0 56
0 0 53
0 0 54
0 0 55
0 0 57
0 0 57
0 0 56
0 0 58
0 0 60
0 0 58
0 0 55
0 0 55
0 0 61
0 0 62
0 0 59
0 0 62
0 0 60
80 83 105
182 190 205
231 241 255
231 241 255
231 241 255
231 241 255
231 241 255
231 241 255
231 241 255
231 241 255
231 241 255
231 241 255
231 241 255
231 241 255
231 241 255
231 241 255
231 241 255
231 241 255
231 241 255
231 241 255
231 241 255
231 241 255
231 241 255
231 241 255
231 241 255
231 241 255
231 241 255
231 241 255
231 241 255
231 241 255
231 241 255
231 241 255
231 241 255
231 241 255
231 241 255
231 241 255
231 241 255
231 241 255
231 241 255
231 241 255
231 241 255
231 241 255
231 241 255
231 241 255
231 241 255
231 241 255
231 241 255
231 241 255
231 241 255
231 241 255
231 241 255
231 241 255
231 241 255
231 241 255
231 241 255
231 241 255
231 241 255
231 241 255
231 241 255
231 241 255
231 241 255
231 241 255
231 241 255
231 241 255
231 241 255
231 241 255
231 241 255
231 241 255
231 241 255
231 241 255
231 241 255
231 241 255
231 241 255
231 241 255
231 241 255
231 241 255
231 241 255
231 241 255
231 241 255
231 241 255
231 241 255
231 241 255
231 241 255
231 241 255
231 241 255
231 241 255
231 241 255
231 241 255
231 241 255
231 241 255
231 241 255
231 241 255
231 241 255
231 241 255
231 241 255
231 241 255
231 241 255
231 241 255
231 241 255
231 241 255
231 241 255
231 241 255
231 241 255
231 241 255
231 241 255
231 241 255
231 241 255
231 241 255
231 241 255
231 241 255
231 241 255
231 241 255
231 241 255
231 241 255
231 241 255
231 241 255
231 241 255
231 241 255
231 241 255
231 241 255
231 241 255
231 241 255
231 241 255
231 241 255
231 241 255
231 241 255
231 241 255
231 241 255
231 241 255
231 241 255
231 241 255
231 241 255
231 241 255
231 241 255
231 241 255
231 241 255
231 241 255
231 241 255
231 241 255
231 241 255
231 241 255
231 241 255
231 241 255
231 241 255
231 241 255
231 241 255
231 241 255
231 241 255
231 241 255
231 241 255
231 241 255
231 241 255
231 241 255
231 241 255
231 241 255
231 241 255
231 241 255
231 241 255
231 241 255
231 241 255
231 241 255
231 241 255
231 241 255
231 241 255
231 241 255
231 241 255
231 241 255
231 241 255
231 241 255
231 241 255
231 241 255
231 241 255
231 241 255
231 241 255
231 241 255
231 241 255
231 241 255
231 241 255
231 241 255
231 241 255
231 241 255
231 241 255
231 241 255
231 241 255
231 241 255
231 241 255
231 241 255
231 241 255
231 241 255
231 241 255
231 241 255
231 241 255
231 241 255
231 241 255
231 241 255
231 241 255
231 241 255
231 241 255
231 241 255
231 241 255
231 241 255
231 241 255
231 241 255
231 241 255
231 241 255
231 241 255
231 241 255
231 241 255
231 241 255
231 241 255
231 241 255
231 241 255
231 241 255
231 241 255
231 241 255
231 241 255
231 241 255
231 241 255
231 241 255
231 241 255
231 241 255
231 241 255
231 241 255
231 241 255
231 241 255
231 241 255
231 241 255
231 241 255
231 241 255
231 241 255
231 241 255
231 241 255
231 241 255
231 241 255
231 241 255
231 241 255
231 241 255
231 241 255
231 241 255
231 241 255
231 241 255
231 241 255
231 241 255
231 241 255
231 241 255
231 241 255
231 241 255
231 241 255
231 241 255
231 241 255
231 241 255
231 241 255
231 241 255
231 241 255
231 241 255
231 241 255
231 241 255
231 241 255
231 241 255
231 241 255
231 241 255
231 241 255
231 241 255
231 241 255
231 241 255
231 241 255
231 241 255
231 241 255
231 241 255
231 241 255
231 241 255
231 241 255
231 241 255
231 241 255
231 241 255
231 241 255
231 241 255
231 241 255
231 241 255
231 241 255
231 241 255
231 241 255
231 241 255
231 241 255
231 241 255
231 241 255
231 241 255
231 241 255
231 241 255
231 241 255
231 241 255
231 241 255
231 241 255
231 241 255
231 241 255
231 241 255
231 241 255
231 241 255
231 241 255
231 241 255
231 241 255
231 241 255
231 241 255
229 239 253
165 174 188
74 79 103
12 22 70
27 34 65
17 20 64
0 0 61
0 0 62
0 0 62
0 0 63
0 3 67
0 2 69
0 8 71
0 10 72
0 9 73
0 11 75
0 13 73
0 7 73
0 16 79
0 18 79
0 15 78
0 8 72
0 10 73
0 12 73
0 15 76
0 7 67
0 0 64
0 3 66
0 0 65
0 0 65
0 3 65
0 0 60
0 0 62
0 0 68
0 0 67
0 0 64
0 0 67
0 0 67
0 0 66
0 0 66
0 0 64
0 0 63
0 0 64
0 0 65
0 0 64
0 0 60
0 0 58
0 0 58
0 0 61
0 0 65
0 0 62
0 0 63
0 0 61
0 0 60
0 0 59
0 0 62
0 0 60
0 0 59
0 0 58
0 0 61
0 0 62
0 0 61
0 0 60
0 0 61
0 0 61
0 0 62
0 0 63
0 0 62
0 0 60
0 0 58
0 0 60
0 0 61
0 0 57
0 0 57
0 0 57
0 0 55
0 0 53
0 0 56
0 0 59
0 0 60
0 0 56
0 0 56
0 0 55
0 0 59
0 0 56
0 0 52
0 0 53
0 0 56
0 0 57
0 0 57
0 0 56
0 0 61
0 0 65
0 0 62
0 0 64
46 48 78
162 169 184
224 234 248
231 241 255
231 241 255
231 241 255
231 241 255
231 241 255
231 241 255
231 241 255
231 241 255
231 241 255
231 241 255
231 241 255
231 241 255
231 241 255
231 241 255
231 241 255
231 241 255
231 241 255
231 241 255
231 241 255
231 241 255
231 241 255
231 241 255
231 241 255
231 241 255
231 241 255
231 241 255
231 241 255
231 241 255
231 241 255
231 241 255
231 241 255
231 241 255
231 241 255
231 241 255
231 241 255
231 241 255
231 241 255
231 241 255
231 241 255
231 241 255
231 241 255
231 241 255
231 241 255
231 241 255
231 241 255
231 241 255
231 241 255
231 241 255
231 241 255
231 241 255
231 241 255
231 241 255
231 241 255
231 241 255
231 241 255
231 241 255
231 241 255
231 241 255
231 241 255
231 241 255
231 241 255
231 241 255
231 241 255
231 241 255
231 241 255
231 241 255
231 241 255
231 241 255
231 241 255
231 241 255
231 241 255
231 241 255
231 241 255
231 241 255
231 241 255
231 241 255
231 241 255
231 241 255
231 241 255
231 241 255
231 241 255
231 241 255
231 241 255
231 241 255
231 241 255
231 241 255
231 241 255
231 241 255
231 241 255
231 241 255
231 241 255
231 241 255
231 241 255
231 241 255
231 241 255
231 241 255
231 241 255
231 241 255
231 241 255
231 241 255
231 241 255
231 241 255
231 241 255
231 241 255
231 241 255
231 241 255
231 241 255
231 241 255
231 241 255
231 241 255
231 241 255
231 241 255
231 241 255
231 241 255
231 241 255
231 241 255
231 241 255
231 241 255
231 241 255
231 241 255
231 241 255
231 241 255
231 241 255
231 241 255
231 241 255
231 241 255
231 241 255
231 241 255
231 241 255
231 241 255
231 241 255
231 241 255
231 241 255
231 241 255
231 241 255
231 241 255
231 241 255
231 241 255
231 241 255
231 241 255
231 241 255
231 241 255
231 241 255
231 241 255
231 241 255
231 241 255
231 241 255
231 241 255
231 241 255
231 241 255
231 241 255
231 241 255
231 241 255
231 241 255
231 241 255
231 241 255
231 241 255
231 241 255
231 241 255
231 241 255
231 241 255
231 241 255
231 241 255
231 241 255
231 241 255
231 241 255
231 241 255
231 241 255
231 241 255
231 241 255
231 241 255
231 241 255
231 241 255
231 241 255
231 241 255
231 241 255
231 241 255
231 241 255
231 241 255
231 241 255
231 241 255
231 241 255
231 241 255
231 241 255
231 241 255
231 241 255
231 241 255
231 241 255
231 241 255
231 241 255
231 241 255
231 241 255
231 241 255
231 241 255
231 241 255
231 241 255
231 241 255
231 241 255
231 241 255
231 241 255
231 241 255
231 241 255
231 241 255
231 241 255
231 241 255
231 241 255
231 241 255
231 241 255
231 241 255
231 241 255
231 241 255
231 241 255
231 241 255
231 241 255
231 241 255
231 241 255
231 241 255
231 241 255
231 241 255
231 241 255
231 241 255
231 241 255
231 241 255
231 241 255
231 241 255
231 241 255
231 241 255
231 241 255
231 241 255
231 241 255
231 241 255
231 241 255
231 241 255
231 241 255
231 241 255
231 241 255
231 241 255
231 241 255
231 241 255
231 241 255
231 241 255
231 241 255
231 241 255
231 241 255
231 241 255
231 241 255
231 241 255
231 241 255
231 241 255
231 241 255
231 241 255
231 241 255
231 241 255
231 241 255
231 241 255
231 241 255
231 241 255
231 241 255
231 241 255
231 241 255
231 241 255
231 241 255
231 241 255
231 241 255
231 241 255
231 241 255
231 241 255
231 241 255
231 241 255
231 241 255
231 241 255
231 241 255
231 241 255
231 241 255
231 241 255
231 241 255
231 241 255
231 241 255
231 241 255
231 241 255
231 241 255
231 241 255
231 241 255
231 241 255
231 241 255
231 241 255
231 241 255
231 241 255
231 241 255
231 241 255
231 241 255
231 241 255
231 241 255
231 241 255
231 241 255
231 241 255
231 241 255
231 241 255
231 241 255
231 241 255
231 241 255
231 241 255
231 241 255
231 241 255
220 230 244
133 141 156
24 28 76
15 21 70
0 12 74
0 1 64
0 0 63
0 0 62
0 0 63
0 0 64
0 2 65
0 1 66
0 0 65
0 7 68
0 2 69
0 7 71
0 13 75
0 18 79
0 17 79
0 13 75
0 10 72
0 5 70
0 5 71
0 5 71
0 6 70
0 7 70
0 0 67
0 0 66
0 13 76
0 13 75
0 4 67
0 0 66
0 0 62
0 0 64
0 0 66
0 0 69
0 0 67
0 0 65
0 0 65
0 0 63
0 0 60
0 0 58
0 0 63
0 0 61
0 0 56
0 0 55
0 0 54
0 0 57
0 0 57
0 0 58
0 0 57
0 0 57
0 0 57
0 0 58
0 0 59
0 0 58
0 0 58
0 0 61
0 0 61
0 0 59
0 0 59
0 0 59
0 0 59
0 0 59
0 0 59
0 0 59
0 0 63
0 0 63
0 0 62
0 0 59
0 0 57
0 0 57
0 0 57
0 0 53
0 0 52
0 0 54
0 0 56
0 0 55
0 0 57
0 0 59
0 0 56
0 0 59
0 0 57
0 0 54
0 0 54
0 0 56
0 0 57
0 0 57
0 0 63
0 0 65
0 3 66
0 3 66
139 145 161
219 229 243
231 241 255
231 241 255
231 241 255
231 241 255
231 241 255
231 241 255
231 241 255
231 241 255
231 241 255
231 241 255
231 241 255
231 241 255
231 241 255
231 241 255
231 241 255
231 241 255
231 241 255
231 241 255
231 241 255
231 241 255
231 241 255
231 241 255
231 241 255
231 241 255
231 241 255
231 241 255
231 241 255
231 241 255
231 241 255
231 241 255
231 241 255
231 241 255
231 241 255
231 241 255
231 241 255
231 241 255
231 241 255
231 241 255
231 241 255
231 241 255
231 241 255
231 241 255
231 241 255
231 241 255
231 241 255
231 241 255
231 241 255
231 241 255
231 241 255
231 241 255
231 241 255
231 241 255
231 241 255
231 241 255
231 241 255
231 241 255
231 241 255
231 241 255
231 241 255
231 241 255
231 241 255
231 241 255
231 241 255
231 241 255
231 241 255
231 241 255
231 241 255
231 241 255
231 241 255
231 241 255
231 241 255
231 241 255
231 241 255
231 241 255
231 241 255
231 241 255
231 241 255
231 241 255
231 241 255
231 241 255
231 241 255
231 241 255
231 241 255
231 241 255
231 241 255
231 241 255
231 241 255
231 241 255
231 241 255
231 241 255
231 241 255
231 241 255
231 241 255
231 241 255
231 241 255
231 241 255
231 241 255
231 241 255
231 241 255
231 241 255
231 241 255
231 241 255
231 241 255
231 241 255
231 241 255
231 241 255
231 241 255
231 241 255
231 241 255
231 241 255
231 241 255
231 241 255
231 241 255
231 241 255
231 241 255
231 241 255
231 241 255
231 241 255
231 241 255
231 241 255
231 241 255
231 241 255
231 241 255
231 241 255
231 241 255
231 241 255
231 241 255
231 241 255
231 241 255
231 241 255
231 241 255
231 241 255
231 241 255
231 241 255
231 241 255
231 241 255
231 241 255
231 241 255
231 241 255
231 241 255
231 241 255
231 241 255
231 241 255
231 241 255
231 241 255
231 241 255
231 241 255
231 241 255
231 241 255
231 241 255
231 241 255
231 241 255
231 241 255
231 241 255
231 241 255
231 241 255
231 241 255
231 241 255
231 241 255
231 241 255
231 241 255
231 241 255
231 241 255
231 241 255
231 241 255
231 241 255
231 241 255
231 241 255
231 241 255
231 241 255
231 241 255
231 241 255
231 241 255
231 241 255
231 241 255
231 241 255
231 241 255
231 241 255
231 241 255
231 241 255
231 241 255
231 241 255
231 241 255
231 241 255
231 241 255
231 241 255
231 241 255
231 241 255
231 241 255
231 241 255
231 241 255
231 241 255
231 241 255
231 241 255
231 241 255
231 241 255
231 241 255
231 241 255
231 241 255
231 241 255
231 241 255
231 241 255
231 241 255
231 241 255
231 241 255
231 241 255
231 241 255
231 241 255
231 241 255
231 241 255
231 241 255
231 241 255
231 241 255
231 241 255
231 241 255
231 241 255
231 241 255
231 241 255
231 241 255
231 241 255
231 241 255
231 241 255
231 241 255
231 241 255
231 241 255
231 241 255
231 241 255
231 241 255
231 241 255
231 241 255
231 241 255
231 241 255
231 241 255
231 241 255
231 241 255
231 241 255
231 241 255
231 241 255
231 241 255
231 241 255
231 241 255
231 241 255
231 241 255
231 241 255
231 241 255
231 241 255
231 241 255
231 241 255
231 241 255
231 241 255
231 241 255
231 241 255
231 241 255
231 241 255
231 241 255
231 241 255
231 241 255
231 241 255
231 241 255
231 241 255
231 241 255
231 241 255
231 241 255
231 241 255
231 241 255
231 241 255
231 241 255
231 241 255
231 241 255
231 241 255
231 241 255
231 241 255
231 241 255
231 241 255
231 241 255
231 241 255
231 241 255
231 241 255
231 241 255
231 241 255
231 241 255
231 241 255
231 241 255
231 241 255
231 241 255
231 241 255
231 241 255
231 241 255
231 241 255
231 241 255
231 241 255
231 241 255
231 241 255
231 241 255
231 241 255
231 241 255
231 241 255
231 241 255
231 241 255
231 241 255
231 241 255
231 241 255
231 241 255
231 241 255
231 241 255
231 241 255
231 241 255
231 241 255
212 221 236
142 149 167
0 8 73
0 6 70
0 5 67
0 0 64
0 0 65
0 0 63
0 0 62
0 0 63
0 0 63
0 0 64
0 0 65
0 0 67
0 1 67
0 8 70
0 7 71
0 6 69
0 0 63
0 0 64
0 0 67
0 0 68
0 0 68
0 4 68
0 3 69
0 9 70
0 5 71
0 15 77
0 10 72
0 0 68
0 0 64
0 0 62
0 0 61
0 0 63
0 0 63
0 0 62
0 0 60
0 0 61
0 0 63
0 0 64
0 0 62
0 0 65
0 0 60
0 0 56
0 0 57
0 0 57
0 0 57
0 0 57
0 0 57
0 0 57
0 0 57
0 0 59
0 0 61
0 0 58
0 0 60
0 0 64
0 0 63
0 0 63
0 0 63
0 0 63
0 0 61
0 0 61
0 0 60
0 0 60
0 0 60
0 0 60
0 0 59
0 0 58
0 0 57
0 0 57
0 0 58
0 0 55
0 0 53
0 0 55
0 0 57
0 0 57
0 0 57
0 0 57
0 0 57
0 0 58
0 0 58
0 0 57
0 0 56
0 0 56
0 1 61
0 5 67
0 1 66
0 3 65
124 130 148
203 212 226
231 241 255
231 241 255
231 241 255
231 241 255
231 241 255
231 241 255
231 241 255
231 241 255
231 241 255
231 241 255
231 241 255
231 241 255
231 241 255
231 241 255
231 241 255
231 241 255
231 241 255
231 241 255
231 241 255
231 241 255
231 241 255
231 241 255
231 241 255
231 241 255
231 241 255
231 241 255
231 241 255
231 241 255
231 241 255
231 241 255
231 241 255
231 241 255
231 241 255
231 241 255
231 241 255
231 241 255
231 241 255
231 241 255
231 241 255
231 241 255
231 241 255
231 241 255
231 241 255
231 241 255
231 241 255
231 241 255
231 241 255
231 241 255
231 241 255
231 241 255
231 241 255
231 241 255
231 241 255
231 241 255
231 241 255
231 241 255
231 241 255
231 241 255
231 241 255
231 241 255
231 241 255
231 241 255
231 241 255
231 241 255
231 241 255
231 241 255
231 241 255
231 241 255
231 241 255
231 241 255
231 241 255
231 241 255
231 241 255
231 241 255
231 241 255
231 241 255
231 241 255
231 241 255
231 241 255
231 241 255
231 241 255
231 241 255
231 241 255
231 241 255
231 241 255
231 241 255
231 241 255
231 241 255
231 241 255
231 241 255
231 241 255
231 241 255
231 241 255
231 241 255
231 241 255
231 241 255
231 241 255
231 241 255
231 241 255
231 241 255
231 241 255
231 241 255
231 241 255
231 241 255
231 241 255
231 241 255
231 241 255
231 241 255
231 241 255
231 241 255
231 241 255
231 241 255
231 241 255
231 241 255
231 241 255
231 241 255
231 241 255
231 241 255
231 241 255
231 241 255
231 241 255
231 241 255
231 241 255
231 241 255
231 241 255
231 241 255
231 241 255
231 241 255
231 241 255
231 241 255
231 241 255
231 241 255
231 241 255
231 241 255
231 241 255
231 241 255
231 241 255
231 241 255
231 241 255
231 241 255
231 241 255
231 241 255
231 241 255
231 241 255
231 241 255
231 241 255
231 241 255
231 241 255
231 241 255
231 241 255
231 241 255
231 241 255
231 241 255
231 241 255
231 241 255
231 241 255
231 241 255
231 241 255
231 241 255
231 241 255
231 241 255
231 241 255
231 241 255
231 241 255
231 241 255
231 241 255
231 241 255
231 241 255
231 241 255
231 241 255
231 241 255
231 241 255
231 241 255
231 241 255
231 241 255
231 241 255
231 241 255
231 241 255
231 241 255
231 241 255
231 241 255
231 241 255
231 241 255
231 241 255
231 241 255
231 241 255
231 241 255
231 241 255
231 241 255
231 241 255
231 241 255
231 241 255
231 241 255
231 241 255
231 241 255
231 241 255
231 241 255
231 241 255
231 241 255
231 241 255
231 241 255
231 241 255
231 241 255
231 241 255
231 241 255
231 241 255
231 241 255
231 241 255
231 241 255
231 241 255
231 241 255
231 241 255
231 241 255
231 241 255
231 241 255
231 241 255
231 241 255
231 241 255
231 241 255
231 241 255
231 241 255
231 241 255
231 241 255
231 241 255
231 241 255
231 241 255
231 241 255
231 241 255
231 241 255
231 241 255
231 241 255
231 241 255
231 241 255
231 241 255
231 241 255
231 241 255
231 241 255
231 241 255
231 241 255
231 241 255
231 241 255
231 241 255
231 241 255
231 241 255
231 241 255
231 241 255
231 241 255
231 241 255
231 241 255
231 241 255
231 241 255
231 241 255
231 241 255
231 241 255
231 241 255
231 241 255
231 241 255
231 241 255
231 241 255
231 241 255
231 241 255
231 241 255
231 241 255
231 241 255
231 241 255
231 241 255
231 241 255
231 241 255
231 241 255
231 241 255
231 241 255
231 241 255
231 241 255
231 241 255
231 241 255
231 241 255
231 241 255
231 241 255
231 241 255
231 241 255
231 241 255
231 241 255
231 241 255
231 241 255
231 241 255
231 241 255
231 241 255
231 241 255
231 241 255
231 241 255
231 241 255
231 241 255
231 241 255
231 241 255
231 241 255
231 241 255
231 241 255
231 241 255
231 241 255
231 241 255
231 241 255
231 241 255
231 241 255
231 241 255
231 241 255
231 241 255
231 241 255
231 241 255
231 241 255
231 241 255
231 241 255
231 241 255
211 220 235
115 121 142
23 26 76
0 10 73
0 4 67
0 0 65
0 4 66
0 1 66
0 2 67
0 0 65
0 0 65
0 0 66
0 0 67
0 6 71
0 10 72
0 10 71
0 8 69
0 5 67
0 3 68
0 6 68
0 0 67
0 0 66
0 0 67
0 6 67
0 4 67
0 12 73
0 10 72
0 0 66
0 0 65
0 0 66
0 0 67
0 0 61
0 0 58
0 0 58
0 0 59
0 0 60
0 0 61
0 0 63
0 0 62
0 0 64
0 0 64
0 0 62
0 0 63
0 0 58
0 0 59
0 0 59
0 0 56
0 0 56
0 0 59
0 0 61
0 0 61
0 0 59
0 0 63
0 0 65
0 0 63
0 0 64
0 0 64
0 0 62
0 0 61
0 0 61
0 0 59
0 0 59
0 0 61
0 0 60
0 0 57
0 0 58
0 0 60
0 0 58
0 0 58
0 0 57
0 0 54
0 0 56
0 0 56
0 0 55
0 0 57
0 0 57
0 0 58
0 0 59
0 0 58
0 0 56
0 2 62
0 11 69
0 17 79
32 35 79
135 141 159
209 218 233
231 241 255
231 241 255
231 241 255
231 241 255
231 241 255
231 241 255
231 241 255
231 241 255
231 241 255
231 241 255
231 241 255
231 241 255
231 241 255
231 241 255
231 241 255
231 241 255
231 241 255
231 241 255
231 241 255
231 241 255
231 241 255
231 241 255
231 241 255
231 241 255
231 241 255
231 241 255
231 241 255
231 241 255
231 241 255
231 241 255
231 241 255
231 241 255
231 241 255
231 241 255
231 241 255
231 241 255
231 241 255
231 241 255
231 241 255
231 241 255
231 241 255
231 241 255
231 241 255
231 241 255
231 241 255
231 241 255
231 241 255
231 241 255
231 241 255
231 241 255
231 241 255
231 241 255
231 241 255
231 241 255
231 241 255
231 241 255
231 241 255
231 241 255
231 241 255
231 241 255
231 241 255
231 241 255
231 241 255
231 241 255
231 241 255
231 241 255
231 241 255
231 241 255
231 241 255
231 241 255
231 241 255
231 241 255
231 241 255
231 241 255
231 241 255
231 241 255
231 241 255
231 241 255
231 241 255
231 241 255
231 241 255
231 241 255
231 241 255
231 241 255
231 241 255
231 241 255
231 241 255
231 241 255
231 241 255
231 241 255
231 241 255
231 241 255
231 241 255
231 241 255
231 241 255
231 241 255
231 241 255
231 241 255
231 241 255
231 241 255
231 241 255
231 241 255
231 241 255
231 241 255
231 241 255
231 241 255
231 241 255
231 241 255
231 241 255
231 241 255
231 241 255
231 241 255
231 241 255
231 241 255
231 241 255
231 241 255
231 241 255
231 241 255
231 241 255
231 241 255
231 241 255
231 241 255
231 241 255
231 241 255
231 241 255
231 241 255
231 241 255
231 241 255
231 241 255
231 241 255
231 241 255
231 241 255
231 241 255
231 241 255
231 241 255
231 241 255
231 241 255
231 241 255
231 241 255
231 241 255
231 241 255
231 241 255
231 241 255
231 241 255
231 241 255
231 241 255
231 241 255
231 241 255
231 241 255
231 241 255
231 241 255
231 241 255
231 241 255
231 241 255
231 241 255
231 241 255
231 241 255
231 241 255
231 241 255
231 241 255
231 241 255
231 241 255
231 241 255
231 241 255
231 241 255
231 241 255
231 241 255
231 241 255
231 241 255
231 241 255
231 241 255
231 241 255
231 241 255
231 241 255
231 241 255
231 241 255
231 241 255
231 241 255
231 241 255
231 241 255
231 241 255
231 241 255
231 241 255
231 241 255
231 241 255
231 241 255
231 241 255
231 241 255
231 241 255
231 241 255
231 241 255
231 241 255
231 241 255
231 241 255
231 241 255
231 241 255
231 241 255
231 241 255
231 241 255
231 241 255
231 241 255
231 241 255
231 241 255
231 241 255
231 241 255
231 241 255
231 241 255
231 241 255
231 241 255
231 241 255
231 241 255
231 241 255
231 241 255
231 241 255
231 241 255
231 241 255
231 241 255
231 241 255
231 241 255
231 241 255
231 241 255
231 241 255
231 241 255
231 241 255
231 241 255
231 241 255
231 241 255
231 241 255
231 241 255
231 241 255
231 241 255
231 241 255
231 241 255
231 241 255
231 241 255
231 241 255
231 241 255
231 241 255
231 241 255
231 241 255
231 241 255
231 241 255
231 241 255
231 241 255
231 241 255
231 241 255
231 241 255
231 241 255
231 241 255
231 241 255
231 241 255
231 241 255
231 241 255
231 241 255
231 241 255
231 241 255
231 241 255
231 241 255
231 241 255
231 241 255
231 241 255
231 241 255
231 241 255
231 241 255
231 241 255
231 241 255
231 241 255
231 241 255
231 241 255
231 241 255
231 241 255
231 241 255
231 241 255
231 241 255
231 241 255
231 241 255
231 241 255
231 241 255
231 241 255
231 241 255
231 241 255
231 241 255
231 241 255
231 241 255
231 241 255
231 241 255
231 241 255
231 241 255
231 241 255
231 241 255
231 241 255
231 241 255
231 241 255
231 241 255
231 241 255
231 241 255
231 241 255
231 241 255
231 241 255
231 241 255
231 241 255
231 241 255
231 241 255
231 241 255
231 241 255
231 241 255
231 241 255
231 241 255
231 241 255
231 241 255
231 241 255
231 241 255
231 241 255
231 241 255
231 241 255
231 241 255
206 215 230
157 164 183
46 52 94
0 13 73
0 4 65
0 0 67
0 6 68
0 7 69
0 1 67
0 7 70
0 3 70
0 7 71
0 13 75
0 15 78
0 12 75
0 12 74
0 3 69
0 4 69
0 3 68
0 0 67
0 0 68
0 2 68
0 3 67
0 0 67
0 0 69
0 5 70
0 8 69
0 0 66
0 0 63
0 0 65
0 0 62
0 0 61
0 0 60
0 0 60
0 0 61
0 0 61
0 0 61
0 0 62
0 0 62
0 0 61
0 0 58
0 0 60
0 0 58
0 0 58
0 0 57
0 0 60
0 0 60
0 0 60
0 0 63
0 0 64
0 0 60
0 0 61
0 0 63
0 0 64
0 0 63
0 0 59
0 0 59
0 0 58
0 0 59
0 0 60
0 0 61
0 0 64
0 0 62
0 0 61
0 0 61
0 0 60
0 0 58
0 0 55
0 0 56
0 0 56
0 0 55
0 0 58
0 0 58
0 0 57
0 0 57
0 0 62
0 0 66
0 7 69
0 14 75
0 18 79
152 159 177
206 215 230
231 241 255
231 241 255
231 241 255
231 241 255
231 241 255
231 241 255
231 241 255
231 241 255
231 241 255
231 241 255
231 241 255
231 241 255
231 241 255
231 241 255
231 241 255
231 241 255
231 241 255
231 241 255
231 241 255
231 241 255
231 241 255
231 241 255
231 241 255
231 241 255
231 241 255
231 241 255
231 241 255
231 241 255
231 241 255
231 241 255
231 241 255
231 241 255
231 241 255
231 241 255
231 241 255
231 241 255
231 241 255
231 241 255
231 241 255
231 241 255
231 241 255
231 241 255
231 241 255
231 241 255
231 241 255
231 241 255
231 241 255
231 241 255
231 241 255
231 241 255
231 241 255
231 241 255
231 241 255
231 241 255
231 241 255
231 241 255
231 241 255
231 241 255
231 241 255
231 241 255
231 241 255
231 241 255
231 241 255
231 241 255
231 241 255
231 241 255
231 241 255
231 241 255
231 241 255
231 241 255
231 241 255
231 241 255
231 241 255
231 241 255
231 241 255
231 241 255
231 241 255
231 241 255
231 241 255
231 241 255
231 241 255
231 241 255
231 241 255
231 241 255
231 241 255
231 241 255
231 241 255
231 241 255
231 241 255
231 241 255
231 241 255
231 241 255
231 241 255
231 241 255
231 241 255
231 241 255
231 241 255
231 241 255
231 241 255
231 241 255
231 241 255
231 241 255
231 241 255
231 241 255
231 241 255
231 241 255
231 241 255
231 241 255
231 241 255
231 241 255
231 241 255
231 241 255
231 241 255
231 241 255
231 241 255
231 241 255
231 241 255
231 241 255
231 241 255
231 241 255
231 241 255
231 241 255
231 241 255
231 241 255
231 241 255
231 241 255
231 241 255
231 241 255
231 241 255
231 241 255
231 241 255
231 241 255
231 241 255
231 241 255
231 241 255
231 241 255
231 241 255
231 241 255
231 241 255
231 241 255
231 241 255
231 241 255
231 241 255
231 241 255
231 241 255
231 241 255
231 241 255
231 241 255
231 241 255
231 241 255
231 241 255
231 241 255
231 241 255
231 241 255
231 241 255
231 241 255
231 241 255
231 241 255
231 241 255
231 241 255
231 241 255
231 241 255
231 241 255
231 241 255
231 241 255
231 241 255
231 241 255
231 241 255
231 241 255
231 241 255
231 241 255
231 241 255
231 241 255
231 241 255
231 241 255
231 241 255
231 241 255
231 241 255
231 241 255
231 241 255
231 241 255
231 241 255
231 241 255
231 241 255
231 241 255
231 241 255
231 241 255
231 241 255
231 241 255
231 241 255
231 241 255
231 241 255
231 241 255
231 241 255
231 241 255
231 241 255
231 241 255
231 241 255
231 241 255
231 241 255
231 241 255
231 241 255
231 241 255
231 241 255
231 241 255
231 241 255
231 241 255
231 241 255
231 241 255
231 241 255
231 241 255
231 241 255
231 241 255
231 241 255
231 241 255
231 241 255
231 241 255
231 241 255
231 241 255
231 241 255
231 241 255
231 241 255
231 241 255
231 241 255
231 241 255
231 241 255
231 241 255
231 241 255
231 241 255
231 241 255
231 241 255
231 241 255
231 241 255
231 241 255
231 241 255
231 241 255
231 241 255
231 241 255
231 241 255
231 241 255
231 241 255
231 241 255
231 241 255
231 241 255
231 241 255
231 241 255
231 241 255
231 241 255
231 241 255
231 241 255
231 241 255
231 241 255
231 241 255
231 241 255
231 241 255
231 241 255
231 241 255
231 241 255
231 241 255
231 241 255
231 241 255
231 241 255
231 241 255
231 241 255
231 241 255
231 241 255
231 241 255
231 241 255
231 241 255
231 241 255
231 241 255
231 241 255
231 241 255
231 241 255
231 241 255
231 241 255
231 241 255
231 241 255
231 241 255
231 241 255
231 241 255
231 241 255
231 241 255
231 241 255
231 241 255
231 241 255
231 241 255
231 241 255
231 241 255
231 241 255
231 241 255
231 241 255
231 241 255
231 241 255
231 241 255
231 241 255
231 241 255
231 241 255
231 241 255
231 241 255
231 241 255
231 241 255
231 241 255
231 241 255
231 241 255
231 241 255
231 241 255
231 241 255
231 241 255
231 241 255
231 241 255
231 241 255
231 241 255
231 241 255
231 241 255
231 241 255
231 241 255
231 241 255
231 241 255
231 241 255
224 234 249
155 162 181
73 77 109
0 7 71
0 7 70
0 10 72
0 8 70
0 10 73
0 7 72
0 8 69
0 3 69
0 12 74
0 16 78
3 16 77
8 14 71
0 0 67
0 1 67
0 6 69
0 0 66
0 0 69
0 0 67
0 0 67
0 0 65
0 3 64
0 8 70
0 0 70
0 0 68
0 0 67
0 0 67
0 0 64
0 0 61
0 0 61
0 0 63
0 0 64
0 0 64
0 0 63
0 0 63
0 0 62
0 0 60
0 0 63
0 0 63
0 0 62
0 0 58
0 0 56
0 0 56
0 0 57
0 0 59
0 0 59
0 0 58
0 0 57
0 0 60
0 0 58
0 0 58
0 0 59
0 0 60
0 0 60
0 0 62
0 0 60
0 0 61
0 0 64
0 0 62
0 0 60
0 0 57
0 0 56
0 0 56
0 0 54
0 0 55
0 0 57
0 0 61
0 0 63
0 0 65
0 0 64
0 0 64
0 7 69
0 13 74
92 98 125
152 158 177
223 233 247
231 241 255
231 241 255
231 241 255
231 241 255
231 241 255
231 241 255
231 241 255
231 241 255
231 241 255
231 241 255
231 241 255
231 241 255
231 241 255
231 241 255
231 241 255
231 241 255
231 241 255
231 241 255
231 241 255
231 241 255
231 241 255
231 241 255
231 241 255
231 241 255
231 241 255
231 241 255
231 241 255
231 241 255
231 241 255
231 241 255
231 241 255
231 241 255
231 241 255
231 241 255
231 241 255
231 241 255
231 241 255
231 241 255
231 241 255
231 241 255
231 241 255
231 241 255
231 241 255
231 241 255
231 241 255
231 241 255
231 241 255
231 241 255
231 241 255
231 241 255
231 241 255
231 241 255
231 241 255
231 241 255
231 241 255
231 241 255
231 241 255
231 241 255
231 241 255
231 241 255
231 241 255
231 241 255
231 241 255
231 241 255
231 241 255
231 241 255
231 241 255
231 241 255
231 241 255
231 241 255
231 241 255
231 241 255
231 241 255
231 241 255
231 241 255
231 241 255
231 241 255
231 241 255
231 241 255
231 241 255
231 241 255
231 241 255
231 241 255
231 241 255
231 241 255
231 241 255
231 241 255
231 241 255
231 241 255
231 241 255
231 241 255
231 241 255
231 241 255
231 241 255
231 241 255
231 241 255
231 241 255
231 241 255
231 241 255
231 241 255
231 241 255
231 241 255
231 241 255
231 241 255
231 241 255
231 241 255
231 241 255
231 241 255
231 241 255
231 241 255
231 241 255
231 241 255
231 241 255
231 241 255
231 241 255
231 241 255
231 241 255
231 241 255
231 241 255
231 241 255
231 241 255
231 241 255
231 241 255
231 241 255
231 241 255
231 241 255
231 241 255
231 241 255
231 241 255
231 241 255
231 241 255
231 241 255
231 241 255
231 241 255
231 241 255
231 241 255
231 241 255
231 241 255
231 241 255
231 241 255
231 241 255
231 241 255
231 241 255
231 241 255
231 241 255
231 241 255
231 241 255
231 241 255
231 241 255
231 241 255
231 241 255
231 241 255
231 241 255
231 241 255
231 241 255
231 241 255
231 241 255
231 241 255
231 241 255
231 241 255
231 241 255
231 241 255
231 241 255
231 241 255
231 241 255
231 241 255
231 241 255
231 241 255
231 241 255
231 241 255
231 241 255
231 241 255
231 241 255
231 241 255
231 241 255
231 241 255
231 241 255
231 241 255
231 241 255
231 241 255
231 241 255
231 241 255
231 241 255
231 241 255
231 241 255
231 241 255
231 241 255
231 241 255
231 241 255
231 241 255
231 241 255
231 241 255
231 241 255
231 241 255
231 241 255
231 241 255
231 241 255
231 241 255
231 241 255
231 241 255
231 241 255
231 241 255
231 241 255
231 241 255
231 241 255
231 241 255
231 241 255
231 241 255
231 241 255
231 241 255
231 241 255
231 241 255
231 241 255
231 241 255
231 241 255
231 241 255
231 241 255
231 241 255
231 241 255
231 241 255
231 241 255
231 241 255
231 241 255
231 241 255
231 241 255
231 241 255
231 241 255
231 241 255
231 241 255
231 241 255
231 241 255
231 241 255
231 241 255
231 241 255
231 241 255
231 241 255
231 241 255
231 241 255
231 241 255
231 241 255
231 241 255
231 241 255
231 241 255
231 241 255
231 241 255
231 241 255
231 241 255
231 241 255
231 241 255
231 241 255
231 241 255
231 241 255
231 241 255
231 241 255
231 241 255
231 241 255
231 241 255
231 241 255
231 241 255
231 241 255
231 241 255
231 241 255
231 241 255
231 241 255
231 241 255
231 241 255
231 241 255
231 241 255
231 241 255
231 241 255
231 241 255
231 241 255
231 241 255
231 241 255
231 241 255
231 241 255
231 241 255
231 241 255
231 241 255
231 241 255
231 241 255
231 241 255
231 241 255
231 241 255
231 241 255
231 241 255
231 241 255
231 241 255
231 241 255
231 241 255
231 241 255
231 241 255
231 241 255
231 241 255
231 241 255
231 241 255
231 241 255
231 241 255
231 241 255
231 241 255
231 241 255
231 241 255
231 241 255
231 241 255
231 241 255
231 241 255
231 241 255
231 241 255
231 241 255
231 241 255
231 241 255
231 241 255
231 241 255
231 241 255
231 241 255
231 241 255
231 241 255
231 241 255
231 241 255
231 241 255
231 241 255
231 241 255
231 241 255
231 241 255
231 241 255
199 208 224
127 133 154
0 16 77
0 11 74
0 13 75
0 13 75
0 14 75
0 12 74
0 14 74
0 8 71
0 16 77
24 34 84
36 43 86
30 37 83
0 5 69
0 1 65
0 5 69
0 6 72
0 8 71
0 3 67
0 0 64
0 0 64
0 0 64
0 0 66
0 0 68
0 2 69
0 0 66
0 0 65
0 0 62
0 0 64
0 0 64
0 0 63
0 0 61
0 0 61
0 0 61
0 0 60
0 0 58
0 0 58
0 0 54
0 0 52
0 0 52
0 0 53
0 0 56
0 0 57
0 0 57
0 0 56
0 0 57
0 0 59
0 0 61
0 0 59
0 0 59
0 0 61
0 0 60
0 0 63
0 0 62
0 0 61
0 0 62
0 0 61
0 0 60
0 0 60
0 0 63
0 0 65
0 0 67
0 3 69
0 2 68
0 2 65
0 4 67
0 4 67
0 7 69
23 28 80
103 109 134
196 205 221
229 239 253
231 241 255
231 241 255
231 241 255
231 241 255
231 241 255
231 241 255
231 241 255
231 241 255
231 241 255
231 241 255
231 241 255
231 241 255
231 241 255
231 241 255
231 241 255
231 241 255
231 241 255
231 241 255
231 241 255
231 241 255
231 241 255
231 241 255
231 241 255
231 241 255
231 241 255
231 241 255
231 241 255
231 241 255
231 241 255
231 241 255
231 241 255
231 241 255
231 241 255
231 241 255
231 241 255
231 241 255
231 241 255
231 241 255
231 241 255
231 241 255
231 241 255
231 241 255
231 241 255
231 241 255
231 241 255
231 241 255
231 241 255
231 241 255
231 241 255
231 241 255
231 241 255
231 241 255
231 241 255
231 241 255
231 241 255
231 241 255
231 241 255
231 241 255
231 241 255
231 241 255
231 241 255
231 241 255
231 241 255
231 241 255
231 241 255
231 241 255
231 241 255
231 241 255
231 241 255
231 241 255
231 241 255
231 241 255
231 241 255
231 241 255
231 241 255
231 241 255
231 241 255
231 241 255
231 241 255
231 241 255
231 241 255
231 241 255
231 241 255
231 241 255
231 241 255
231 241 255
231 241 255
231 241 255
231 241 255
231 241 255
231 241 255
231 241 255
231 241 255
231 241 255
231 241 255
231 241 255
231 241 255
231 241 255
231 241 255
231 241 255
231 241 255
231 241 255
231 241 255
231 241 255
231 241 255
231 241 255
231 241 255
231 241 255
231 241 255
231 241 255
231 241 255
231 241 255
231 241 255
231 241 255
231 241 255
231 241 255
231 241 255
231 241 255
231 241 255
231 241 255
231 241 255
231 241 255
231 241 255
231 241 255
231 241 255
231 241 255
231 241 255
231 241 255
231 241 255
231 241 255
231 241 255
231 241 255
231 241 255
231 241 255
231 241 255
231 241 255
231 241 255
231 241 255
231 241 255
231 241 255
231 241 255
231 241 255
231 241 255
231 241 255
231 241 255
231 241 255
231 241 255
231 241 255
231 241 255
231 241 255
231 241 255
231 241 255
231 241 255
231 241 255
231 241 255
231 241 255
231 241 255
231 241 255
231 241 255
231 241 255
231 241 255
231 241 255
231 241 255
231 241 255
231 241 255
231 241 255
231 241 255
231 241 255
231 241 255
231 241 255
231 241 255
231 241 255
231 241 255
231 241 255
231 241 255
231 241 255
231 241 255
231 241 255
231 241 255
231 241 255
231 241 255
231 241 255
231 241 255
231 241 255
231 241 255
231 241 255
231 241 255
231 241 255
231 241 255
231 241 255
231 241 255
231 241 255
231 241 255
231 241 255
231 241 255
231 241 255
231 241 255
231 241 255
231 241 255
231 241 255
231 241 255
231 241 255
231 241 255
231 241 255
231 241 255
231 241 255
231 241 255
231 241 255
231 241 255
231 241 255
231 241 255
231 241 255
231 241 255
231 241 255
231 241 255
231 241 255
231 241 255
231 241 255
231 241 255
231 241 255
231 241 255
231 241 255
231 241 255
231 241 255
231 241 255
231 241 255
231 241 255
231 241 255
231 241 255
231 241 255
231 241 255
231 241 255
231 241 255
231 241 255
231 241 255
231 241 255
231 241 255
231 241 255
231 241 255
231 241 255
231 241 255
231 241 255
231 241 255
231 241 255
231 241 255
231 241 255
231 241 255
231 241 255
231 241 255
231 241 255
231 241 255
231 241 255
231 241 255
231 241 255
231 241 255
231 241 255
231 241 255
231 241 255
231 241 255
231 241 255
231 241 255
231 241 255
231 241 255
231 241 255
231 241 255
231 241 255
231 241 255
231 241 255
231 241 255
231 241 255
231 241 255
231 241 255
231 241 255
231 241 255
231 241 255
231 241 255
231 241 255
231 241 255
231 241 255
231 241 255
231 241 255
231 241 255
231 241 255
231 241 255
231 241 255
231 241 255
231 241 255
231 241 255
231 241 255
231 241 255
231 241 255
231 241 255
231 241 255
231 241 255
231 241 255
231 241 255
231 241 255
231 241 255
231 241 255
231 241 255
231 241 255
231 241 255
231 241 255
231 241 255
231 241 255
231 241 255
231 241 255
231 241 255
231 241 255
231 241 255
231 241 255
231 241 255
231 241 255
231 241 255
231 241 255
231 241 255
231 241 255
231 241 255
231 241 255
231 241 255
231 241 255
231 241 255
231 241 255
231 241 255
231 241 255
231 241 255
231 241 255
231 241 255
231 241 255
222 231 246
172 181 201
111 118 145
52 59 98
46 52 96
4 19 80
0 22 83
0 24 84
0 22 81
0 17 78
0 12 74
0 10 73
0 14 77
0 19 77
0 19 81
0 20 82
0 16 78
0 13 75
0 10 72
0 9 70
0 7 67
0 0 64
0 0 65
0 7 68
0 3 70
0 0 69
0 0 67
0 5 69
0 0 69
0 0 67
0 0 60
0 0 59
0 0 58
0 0 59
0 0 60
0 0 57
0 0 57
0 0 55
0 0 54
0 0 54
0 0 56
0 0 58
0 0 59
0 0 61
0 0 62
0 0 60
0 0 60
0 0 62
0 0 62
0 0 64
0 0 65
0 0 62
0 1 65
0 3 66
0 0 65
0 0 64
0 0 64
0 0 64
0 0 67
0 0 66
0 6 67
0 12 72
0 14 75
0 14 77
49 55 97
121 127 151
177 185 203
218 228 243
231 241 255
231 241 255
231 241 255
231 241 255
231 241 255
231 241 255
231 241 255
231 241 255
231 241 255
231 241 255
231 241 255
231 241 255
231 241 255
231 241 255
231 241 255
231 241 255
231 241 255
231 241 255
231 241 255
231 241 255
231 241 255
231 241 255
231 241 255
231 241 255
231 241 255
231 241 255
231 241 255
231 241 255
231 241 255
231 241 255
231 241 255
231 241 255
231 241 255
231 241 255
231 241 255
231 241 255
231 241 255
231 241 255
231 241 255
231 241 255
231 241 255
231 241 255
231 241 255
231 241 255
231 241 255
231 241 255
231 241 255
231 241 255
231 241 255
231 241 255
231 241 255
231 241 255
231 241 255
231 241 255
231 241 255
231 241 255
231 241 255
231 241 255
231 241 255
231 241 255
231 241 255
231 241 255
231 241 255
231 241 255
231 241 255
231 241 255
231 241 255
231 241 255
231 241 255
231 241 255
231 241 255
231 241 255
231 241 255
231 241 255
231 241 255
231 241 255
231 241 255
231 241 255
231 241 255
231 241 255
231 241 255
231 241 255
231 241 255
231 241 255
231 241 255
231 241 255
231 241 255
231 241 255
231 241 255
231 241 255
231 241 255
231 241 255
231 241 255
231 241 255
231 241 255
231 241 255
231 241 255
231 241 255
231 241 255
231 241 255
231 241 255
231 241 255
231 241 255
231 241 255
231 241 255
231 241 255
231 241 255
231 241 255
231 241 255
231 241 255
231 241 255
231 241 255
231 241 255
231 241 255
231 241 255
231 241 255
231 241 255
231 241 255
231 241 255
231 241 255
231 241 255
231 241 255
231 241 255
231 241 255
231 241 255
231 241 255
231 241 255
231 241 255
231 241 255
231 241 255
231 241 255
231 241 255
231 241 255
231 241 255
231 241 255
231 241 255
231 241 255
231 241 255
231 241 255
231 241 255
231 241 255
231 241 255
231 241 255
231 241 255
231 241 255
231 241 255
231 241 255
231 241 255
231 241 255
231 241 255
231 241 255
231 241 255
231 241 255
231 241 255
231 241 255
231 241 255
231 241 255
231 241 255
231 241 255
231 241 255
231 241 255
231 241 255
231 241 255
231 241 255
231 241 255
231 241 255
231 241 255
231 241 255
231 241 255
231 241 255
231 241 255
231 241 255
231 241 255
231 241 255
231 241 255
231 241 255
231 241 255
231 241 255
231 241 255
231 241 255
231 241 255
231 241 255
231 241 255
231 241 255
231 241 255
231 241 255
231 241 255
231 241 255
231 241 255
231 241 255
231 241 255
231 241 255
231 241 255
231 241 255
231 241 255
231 241 255
231 241 255
231 241 255
231 241 255
231 241 255
231 241 255
231 241 255
231 241 255
231 241 255
231 241 255
231 241 255
231 241 255
231 241 255
231 241 255
231 241 255
231 241 255
231 241 255
231 241 255
231 241 255
231 241 255
231 241 255
231 241 255
231 241 255
231 241 255
231 241 255
231 241 255
231 241 255
231 241 255
231 241 255
231 241 255
231 241 255
231 241 255
231 241 255
231 241 255
231 241 255
231 241 255
231 241 255
231 241 255
231 241 255
231 241 255
231 241 255
231 241 255
231 241 255
231 241 255
231 241 255
231 241 255
231 241 255
231 241 255
231 241 255
231 241 255
231 241 255
231 241 255
231 241 255
231 241 255
231 241 255
231 241 255
231 241 255
231 241 255
231 241 255
231 241 255
231 241 255
231 241 255
231 241 255
231 241 255
231 241 255
231 241 255
231 241 255
231 241 255
231 241 255
231 241 255
231 241 255
231 241 255
231 241 255
231 241 255
231 241 255
231 241 255
231 241 255
231 241 255
231 241 255
231 241 255
231 241 255
231 241 255
231 241 255
231 241 255
231 241 255
231 241 255
231 241 255
231 241 255
231 241 255
231 241 255
231 241 255
231 241 255
231 241 255
231 241 255
231 241 255
231 241 255
231 241 255
231 241 255
231 241 255
231 241 255
231 241 255
231 241 255
231 241 255
231 241 255
231 241 255
231 241 255
231 241 255
231 241 255
231 241 255
232 241 255
232 241 255
232 241 255
232 241 255
232 241 255
232 241 255
232 241 255
232 241 255
232 241 255
232 241 255
232 241 255
232 241 255
232 241 255
232 241 255
232 241 255
232 241 255
232 241 255
232 241 255
232 241 255
232 241 255
232 241 255
232 241 255
232 241 255
232 241 255
232 241 255
232 241 255
232 241 255
232 241 255
232 241 255
232 241 255
232 241 255
224 234 249
215 224 238
193 200 215
168 174 190
106 112 138
24 33 87
20 33 90
23 39 94
0 26 88
0 23 83
0 21 82
0 22 84
0 22 84
0 18 79
0 18 79
0 14 75
0 16 78
0 25 86
0 20 80
0 11 73
0 10 73
0 10 73
0 9 72
0 11 74
0 12 75
0 14 78
0 11 73
0 4 65
0 0 61
0 0 57
0 0 61
0 0 63
0 0 61
0 0 60
0 0 61
0 0 60
0 0 60
0 0 63
0 0 62
0 0 60
0 0 63
0 0 63
0 0 62
0 0 64
0 0 66
0 3 67
0 5 69
0 4 71
0 10 73
0 13 74
0 11 72
0 4 71
0 4 68
0 4 68
0 6 68
0 9 71
0 12 74
2 20 79
66 73 109
149 156 176
187 196 212
227 236 249
232 241 255
232 241 255
232 241 255
232 241 255
232 241 255
232 241 255
232 241 255
232 241 255
232 241 255
232 241 255
232 241 255
232 241 255
232 241 255
232 241 255
232 241 255
232 241 255
232 241 255
232 241 255
232 241 255
232 241 255
232 241 255
232 241 255
232 241 255
232 241 255
232 241 255
232 241 255
232 241 255
232 241 255
232 241 255
232 241 255
231 241 255
231 241 255
231 241 255
231 241 255
231 241 255
231 241 255
231 241 255
231 241 255
231 241 255
231 241 255
231 241 255
231 241 255
231 241 255
231 241 255
231 241 255
231 241 255
231 241 255
231 241 255
231 241 255
231 241 255
231 241 255
231 241 255
231 241 255
231 241 255
231 241 255
231 241 255
231 241 255
231 241 255
231 241 255
231 241 255
231 241 255
231 241 255
231 241 255
231 241 255
231 241 255
231 241 255
231 241 255
231 241 255
231 241 255
231 241 255
231 241 255
231 241 255
231 241 255
231 241 255
231 241 255
231 241 255
231 241 255
231 241 255
231 241 255
231 241 255
231 241 255
231 241 255
231 241 255
231 241 255
231 241 255
231 241 255
231 241 255
231 241 255
231 241 255
231 241 255
231 241 255
231 241 255
231 241 255
231 241 255
231 241 255
231 241 255
231 241 255
231 241 255
231 241 255
231 241 255
231 241 255
231 241 255
231 241 255
231 241 255
231 241 255
231 241 255
231 241 255
231 241 255
231 241 255
231 241 255
231 241 255
231 241 255
231 241 255
231 241 255
231 241 255
231 241 255
231 241 255
231 241 255
231 241 255
231 241 255
231 241 255
231 241 255
231 241 255
231 241 255
231 241 255
231 241 255
231 241 255
231 241 255
231 241 255
231 241 255
231 241 255
231 241 255
231 241 255
231 241 255
231 241 255
231 241 255
231 241 255
231 241 255
231 241 255
231 241 255
231 241 255
231 241 255
231 241 255
231 241 255
231 241 255
231 241 255
231 241 255
231 241 255
231 241 255
231 241 255
231 241 255
231 241 255
231 241 255
231 241 255
231 241 255
231 241 255
231 241 255
231 241 255
231 241 255
231 241 255
231 241 255
231 241 255
231 241 255
231 241 255
231 241 255
231 241 255
231 241 255
231 241 255
231 241 255
231 241 255
231 241 255
231 241 255
231 241 255
231 241 255
231 241 255
231 241 255
231 241 255
231 241 255
231 241 255
231 241 255
231 241 255
231 241 255
231 241 255
231 241 255
231 241 255
231 241 255
231 241 255
231 241 255
231 241 255
231 241 255
231 241 255
231 241 255
231 241 255
231 241 255
231 241 255
231 241 255
231 241 255
231 241 255
231 241 255
231 241 255
231 241 255
231 241 255
231 241 255
231 241 255
231 241 255
231 241 255
231 241 255
231 241 255
231 241 255
231 241 255
231 241 255
231 241 255
231 241 255
231 241 255
231 241 255
231 241 255
231 241 255
231 241 255
231 241 255
231 241 255
231 241 255
231 241 255
231 241 255
231 241 255
231 241 255
231 241 255
231 241 255
231 241 255
231 241 255
231 241 255
231 241 255
231 241 255
231 241 255
231 241 255
231 241 255
231 241 255
231 241 255
231 241 255
231 241 255
231 241 255
231 241 255
231 241 255
231 241 255
231 241 255
231 241 255
231 241 255
231 241 255
231 241 255
231 241 255
231 241 255
231 241 255
231 241 255
231 241 255
231 241 255
231 241 255
231 241 255
231 241 255
231 241 255
231 241 255
231 241 255
231 241 255
231 241 255
231 241 255
231 241 255
231 241 255
231 241 255
231 241 255
231 241 255
231 241 255
231 241 255
231 241 255
231 241 255
231 241 255
231 241 255
231 241 255
231 241 255
231 241 255
231 241 255
231 241 255
231 241 255
232 241 255
232 241 255
232 241 255
232 241 255
232 241 255
232 241 255
232 241 255
232 241 255
232 241 255
232 241 255
232 241 255
232 241 255
232 241 255
232 241 255
232 241 255
232 241 255
232 241 255
232 241 255
232 241 255
232 241 255
232 241 255
232 241 255
232 241 255
232 241 255
232 241 255
232 241 255
232 241 255
232 241 255
232 241 255
232 241 255
232 241 255
232 241 255
232 241 255
232 241 255
232 241 255
232 241 255
232 241 255
232 241 255
232 241 255
232 241 255
232 241 255
232 241 255
232 241 255
232 241 255
232 241 255
232 241 255
232 241 255
232 241 255
232 241 255
232 241 255
232 241 255
232 241 255
232 241 255
232 241 255
232 241 255
232 241 255
232 241 255
232 241 255
232 241 255
232 241 255
232 241 255
233 242 255
235 243 255
233 240 250
229 234 244
212 218 232
197 203 215
179 184 203
127 133 156
63 70 111
72 77 113
61 66 101
44 49 93
15 21 81
0 14 75
0 14 75
3 23 84
1 20 81
0 22 83
0 21 83
0 16 79
0 17 80
0 16 79
0 13 75
0 12 74
0 13 75
0 12 73
0 8 71
0 9 72
0 5 70
0 0 68
0 0 68
0 0 69
0 2 68
0 10 71
0 9 72
0 4 68
0 2 68
0 4 72
0 0 71
0 0 69
0 6 71
0 14 75
0 13 76
0 15 76
0 15 77
0 15 78
0 18 80
0 21 84
19 30 84
53 61 104
44 55 101
81 88 120
135 141 162
181 189 206
222 230 243
232 241 255
232 241 255
232 241 255
232 241 255
232 241 255
232 241 255
232 241 255
232 241 255
232 241 255
232 241 255
232 241 255
232 241 255
232 241 255
232 241 255
232 241 255
232 241 255
232 241 255
232 241 255
232 241 255
232 241 255
232 241 255
232 241 255
232 241 255
232 241 255
232 241 255
232 241 255
232 241 255
232 241 255
232 241 255
232 241 255
232 241 255
232 241 255
232 241 255
232 241 255
232 241 255
232 241 255
232 241 255
232 241 255
232 241 255
232 241 255
232 241 255
232 241 255
232 241 255
232 241 255
232 241 255
232 241 255
232 241 255
232 241 255
232 241 255
232 241 255
232 241 255
232 241 255
232 241 255
232 241 255
232 241 255
232 241 255
232 241 255
232 241 255
232 241 255
232 241 255
232 241 255
232 241 255
232 241 255
231 241 255
231 241 255
231 241 255
231 241 255
231 241 255
231 241 255
231 241 255
231 241 255
231 241 255
231 241 255
231 241 255
231 241 255
231 241 255
231 241 255
231 241 255
231 241 255
231 241 255
231 241 255
231 241 255
231 241 255
231 241 255
231 241 255
231 241 255
231 241 255
231 241 255
231 241 255
231 241 255
231 241 255
231 241 255
231 241 255
231 241 255
231 241 255
231 241 255
231 241 255
231 241 255
231 241 255
231 241 255
231 241 255
231 241 255
231 241 255
231 241 255
231 241 255
231 241 255
231 241 255
231 241 255
231 241 255
231 241 255
231 241 255
231 241 255
231 241 255
231 241 255
231 241 255
231 241 255
231 241 255
231 241 255
231 241 255
231 241 255
231 241 255
231 241 255
231 241 255
231 241 255
231 241 255
231 241 255
231 241 255
231 241 255
231 241 255
231 241 255
231 241 255
231 241 255
231 241 255
231 241 255
231 241 255
231 241 255
231 241 255
231 241 255
231 241 255
231 241 255
231 241 255
231 241 255
231 241 255
231 241 255
231 241 255
231 241 255
231 241 255
231 241 255
231 241 255
231 241 255
231 241 255
231 241 255
231 241 255
231 241 255
231 241 255
231 241 255
231 241 255
231 241 255
231 241 255
231 241 255
231 241 255
231 241 255
231 241 255
231 241 255
231 241 255
231 241 255
231 241 255
231 241 255
231 241 255
231 241 255
231 241 255
231 241 255
231 241 255
231 241 255
231 241 255
231 241 255
231 241 255
231 241 255
231 241 255
231 241 255
231 241 255
231 241 255
231 241 255
231 241 255
231 241 255
231 241 255
231 241 255
231 241 255
231 241 255
231 241 255
231 241 255
231 241 255
231 241 255
231 241 255
231 241 255
231 241 255
231 241 255
231 241 255
231 241 255
231 241 255
231 241 255
231 241 255
231 241 255
231 241 255
231 241 255
231 241 255
231 241 255
231 241 255
231 241 255
231 241 255
231 241 255
231 241 255
231 241 255
231 241 255
231 241 255
231 241 255
231 241 255
231 241 255
231 241 255
231 241 255
231 241 255
231 241 255
231 241 255
231 241 255
231 241 255
231 241 255
231 241 255
231 241 255
231 241 255
231 241 255
231 241 255
231 241 255
231 241 255
231 241 255
231 241 255
231 241 255
231 241 255
231 241 255
231 241 255
231 241 255
231 241 255
231 241 255
231 241 255
231 241 255
231 241 255
231 241 255
231 241 255
231 241 255
231 241 255
231 241 255
231 241 255
231 241 255
231 241 255
231 241 255
231 241 255
231 241 255
231 241 255
231 241 255
231 241 255
231 241 255
231 241 255
231 241 255
232 241 255
232 241 255
232 241 255
232 241 255
232 241 255
232 241 255
232 241 255
232 241 255
232 241 255
232 241 255
232 241 255
232 241 255
232 241 255
232 241 255
232 241 255
232 241 255
232 241 255
232 241 255
232 241 255
232 241 255
232 241 255
232 241 255
232 241 255
232 241 255
232 241 255
232 241 255
232 241 255
232 241 255
232 241 255
232 241 255
232 241 255
232 241 255
232 241 255
232 241 255
232 241 255
232 241 255
232 241 255
232 241 255
232 241 255
232 241 255
232 241 255
232 241 255
232 241 255
232 241 255
232 241 255
232 241 255
232 241 255
232 241 255
232 241 255
232 241 255
232 241 255
232 241 255
232 241 255
232 241 255
232 241 255
232 241 255
232 241 255
232 241 255
232 241 255
232 241 255
232 241 255
232 241 255
232 241 255
232 241 255
232 241 255
232 241 255
232 241 255
232 241 255
232 241 255
232 241 255
232 241 255
232 241 255
232 241 255
232 241 255
232 241 255
232 241 255
232 241 255
232 241 255
232 241 255
232 241 255
232 241 255
232 241 255
232 241 255
232 241 255
232 241 255
232 241 255
232 242 255
234 243 255
236 244 255
240 246 255
240 246 254
241 246 253
234 240 249
232 237 246
237 242 251
225 231 242
195 200 214
131 137 158
100 110 144
78 87 122
56 64 106
0 16 77
0 17 78
0 18 79
0 19 82
0 22 83
0 18 79
0 18 80
16 28 83
13 23 82
26 35 86
0 15 78
0 15 76
0 11 73
0 16 77
0 15 75
0 15 77
0 14 78
34 44 90
17 30 81
0 25 81
0 22 82
15 24 81
48 57 98
16 27 84
47 57 101
93 105 138
80 90 125
127 134 158
165 171 186
213 219 230
225 231 242
229 237 248
233 241 253
234 243 255
232 241 255
232 241 255
232 241 255
232 241 255
232 241 255
232 241 255
232 241 255
232 241 255
232 241 255
232 241 255
232 241 255
232 241 255
232 241 255
232 241 255
232 241 255
232 241 255
232 241 255
232 241 255
232 241 255
232 241 255
232 241 255
232 241 255
232 241 255
232 241 255
232 241 255
232 241 255
232 241 255
232 241 255
232 241 255
232 241 255
232 241 255
232 241 255
232 241 255
232 241 255
232 241 255
232 241 255
232 241 255
232 241 255
232 241 255
232 241 255
232 241 255
232 241 255
232 241 255
232 241 255
232 241 255
232 241 255
232 241 255
232 241 255
232 241 255
232 241 255
232 241 255
232 241 255
232 241 255
232 241 255
232 241 255
232 241 255
232 241 255
232 241 255
232 241 255
232 241 255
232 241 255
232 241 255
232 241 255
232 241 255
232 241 255
232 241 255
232 241 255
232 241 255
232 241 255
232 241 255
232 241 255
232 241 255
232 241 255
232 241 255
232 241 255
232 241 255
232 241 255
232 241 255
232 241 255
232 241 255
232 241 255
232 241 255
232 241 255
232 241 255
232 241 255
232 241 255
231 241 255
231 241 255
231 241 255
231 241 255
231 241 255
231 241 255
231 241 255
231 241 255
231 241 255
231 241 255
231 241 255
231 241 255
231 241 255
231 241 255
231 241 255
231 241 255
231 241 255
231 241 255
231 241 255
231 241 255
231 241 255
231 241 255
231 241 255
231 241 255
231 241 255
231 241 255
231 241 255
231 241 255
231 241 255
231 241 255
231 241 255
231 241 255
231 241 255
231 241 255
231 241 255
231 241 255
231 241 255
231 241 255
231 241 255
231 241 255
231 241 255
231 241 255
231 241 255
231 241 255
231 241 255
231 241 255
231 241 255
231 241 255
231 241 255
231 241 255
231 241 255
231 241 255
231 241 255
231 241 255
231 241 255
231 241 255
231 241 255
231 241 255
231 241 255
231 241 255
231 241 255
231 241 255
231 241 255
231 241 255
231 241 255
231 241 255
231 241 255
231 241 255
231 241 255
231 241 255
231 241 255
231 241 255
231 241 255
231 241 255
231 241 255
231 241 255
231 241 255
231 241 255
231 241 255
231 241 255
231 241 255
231 241 255
231 241 255
231 241 255
231 241 255
231 241 255
231 241 255
231 241 255
231 241 255
231 241 255
231 241 255
231 241 255
231 241 255
231 241 255
231 241 255
231 241 255
231 241 255
231 241 255
231 241 255
231 241 255
231 241 255
231 241 255
231 241 255
231 241 255
231 241 255
231 241 255
231 241 255
231 241 255
231 241 255
231 241 255
231 241 255
231 241 255
231 241 255
231 241 255
231 241 255
231 241 255
231 241 255
231 241 255
231 241 255
231 241 255
231 241 255
231 241 255
231 241 255
231 241 255
231 241 255
231 241 255
231 241 255
231 241 255
231 241 255
231 241 255
231 241 255
231 241 255
231 241 255
231 241 255
231 241 255
231 241 255
231 241 255
231 241 255
231 241 255
231 241 255
231 241 255
231 241 255
231 241 255
231 241 255
231 241 255
231 241 255
231 241 255
231 241 255
231 241 255
231 241 255
231 241 255
231 241 255
231 241 255
231 241 255
231 241 255
231 241 255
231 241 255
231 241 255
231 241 255
231 241 255
231 241 255
232 241 255
232 241 255
232 241 255
232 241 255
232 241 255
232 241 255
232 241 255
232 241 255
232 241 255
232 241 255
232 241 255
232 241 255
232 241 255
232 241 255
232 241 255
232 241 255
232 241 255
232 241 255
232 241 255
232 241 255
232 241 255
232 241 255
232 241 255
232 241 255
232 241 255
232 241 255
232 241 255
232 241 255
232 241 255
232 241 255
232 241 255
232 241 255
232 241 255
232 241 255
232 241 255
232 241 255
232 241 255
232 241 255
232 241 255
232 241 255
232 241 255
232 241 255
232 241 255
232 241 255
232 241 255
232 241 255
232 241 255
232 241 255
232 241 255
232 241 255
232 241 255
232 241 255
232 241 255
232 241 255
232 241 255
232 241 255
232 241 255
232 241 255
232 241 255
232 241 255
232 241 255
232 241 255
232 241 255
232 241 255
232 241 255
232 241 255
232 241 255
232 241 255
232 241 255
232 241 255
232 241 255
232 241 255
232 241 255
232 241 255
232 241 255
232 241 255
232 241 255
232 241 255
232 241 255
232 241 255
232 241 255
232 241 255
232 241 255
232 241 255
232 241 255
232 241 255
232 241 255
232 241 255
232 241 255
232 241 255
232 241 255
232 241 255
232 241 255
232 241 255
232 241 255
232 241 255
232 241 255
232 241 255
232 241 255
232 241 255
232 241 255
232 241 255
232 241 255
232 241 255
232 241 255
232 241 255
232 241 255
232 241 255
232 241 255
234 243 255
235 243 255
237 245 255
240 246 255
240 246 255
243 248 255
241 247 255
242 247 254
222 228 237
199 207 220
203 211 224
181 188 200
163 170 185
160 166 181
140 151 173
107 120 151
157 167 189
187 196 213
130 137 161
156 167 186
213 219 230
162 168 184
148 154 173
110 116 142
148 155 175
141 151 174
152 160 179
177 186 205
190 196 210
188 195 210
196 203 217
233 239 249
239 245 253
235 241 249
233 240 248
229 235 244
242 247 255
237 245 255
237 244 255
232 242 255
232 241 255
232 241 255
232 241 255
232 241 255
232 241 255
232 241 255
232 241 255
232 241 255
232 241 255
232 241 255
232 241 255
232 241 255
232 241 255
232 241 255
232 241 255
232 241 255
232 241 255
232 241 255
232 241 255
232 241 255
232 241 255
232 241 255
232 241 255
232 241 255
232 241 255
232 241 255
232 241 255
232 241 255
232 241 255
232 241 255
232 241 255
232 241 255
232 241 255
232 241 255
232 241 255
232 241 255
232 241 255
232 241 255
232 241 255
232 241 255
232 241 255
232 241 255
232 241 255
232 241 255
232 241 255
232 241 255
232 241 255
232 241 255
232 241 255
232 241 255
232 241 255
232 241 255
232 241 255
232 241 255
232 241 255
232 241 255
232 241 255
232 241 255
232 241 255
232 241 255
232 241 255
232 241 255
232 241 255
232 241 255
232 241 255
232 241 255
232 241 255
232 241 255
232 241 255
232 241 255
232 241 255
232 241 255
232 241 255
232 241 255
232 241 255
232 241 255
232 241 255
232 241 255
232 241 255
232 241 255
232 241 255
232 241 255
232 241 255
232 241 255
232 241 255
232 241 255
232 241 255
232 241 255
232 241 255
232 241 255
232 241 255
232 241 255
232 241 255
232 241 255
232 241 255
232 241 255
232 241 255
232 241 255
232 241 255
232 241 255
232 241 255
232 241 255
232 241 255
232 241 255
232 241 255
232 241 255
232 241 255
232 241 255
232 241 255
231 241 255
231 241 255
231 241 255
231 241 255
231 241 255
231 241 255
231 241 255
231 241 255
231 241 255
231 241 255
231 241 255
231 241 255
231 241 255
231 241 255
231 241 255
231 241 255
231 241 255
231 241 255
231 241 255
231 241 255
231 241 255
231 241 255
231 241 255
231 241 255
231 241 255
231 241 255
231 241 255
231 241 255
231 241 255
231 241 255
231 241 255
231 241 255
231 241 255
231 241 255
231 241 255
231 241 255
231 241 255
231 241 255
231 241 255
231 241 255
231 241 255
231 241 255
231 241 255
231 241 255
231 241 255
231 241 255
231 241 255
231 241 255
231 241 255
231 241 255
231 241 255
231 241 255
231 241 255
231 241 255
231 241 255
231 241 255
231 241 255
231 241 255
231 241 255
231 241 255
231 241 255
231 241 255
231 241 255
231 241 255
231 241 255
231 241 255
231 241 255
231 241 255
231 241 255
231 241 255
231 241 255
231 241 255
231 241 255
231 241 255
231 241 255
231 241 255
231 241 255
231 241 255
231 241 255
231 241 255
231 241 255
231 241 255
231 241 255
231 241 255
231 241 255
231 241 255
231 241 255
231 241 255
231 241 255
231 241 255
231 241 255
231 241 255
231 241 255
231 241 255
231 241 255
231 241 255
231 241 255
231 241 255
231 241 255
231 241 255
231 241 255
231 241 255
231 241 255
231 241 255
231 241 255
231 241 255
231 241 255
231 241 255
231 241 255
231 241 255
231 241 255
231 241 255
231 241 255
231 241 255
231 241 255
231 241 255
231 241 255
231 241 255
231 241 255
231 241 255
231 241 255
231 241 255
231 241 255
231 241 255
231 241 255
231 241 255
232 241 255
232 241 255
232 241 255
232 241 255
232 241 255
232 241 255
232 241 255
232 241 255
232 241 255
232 241 255
232 241 255
232 241 255
232 241 255
232 241 255
232 241 255
232 241 255
232 241 255
232 241 255
232 241 255
232 241 255
232 241 255
232 241 255
232 241 255
232 241 255
232 241 255
232 241 255
232 241 255
232 241 255
232 241 255
232 241 255
232 241 255
232 241 255
232 241 255
232 241 255
232 241 255
232 241 255
232 241 255
232 241 255
232 241 255
232 241 255
232 241 255
232 241 255
232 241 255
232 241 255
232 241 255
232 241 255
232 241 255
232 241 255
232 241 255
232 241 255
232 241 255
232 241 255
232 241 255
232 241 255
232 241 255
232 241 255
232 241 255
232 241 255
232 241 255
232 241 255
232 241 255
232 241 255
232 241 255
232 241 255
232 241 255
232 241 255
232 241 255
232 241 255
232 241 255
232 241 255
232 241 255
232 241 255
232 241 255
232 241 255
232 241 255
232 241 255
232 241 255
232 241 255
232 242 255
232 242 255
232 241 255
232 242 255
232 242 255
232 242 255
232 242 255
232 242 255
232 242 255
232 242 255
232 242 255
232 242 255
232 242 255
232 242 255
232 242 255
232 242 255
232 242 255
232 242 255
232 242 255
232 242 255
232 242 255
232 242 255
232 242 255
232 242 255
232 242 255
232 242 255
232 242 255
232 242 255
232 242 255
232 242 255
232 242 255
232 242 255
232 242 255
232 242 255
232 242 255
232 242 255
232 242 255
232 242 255
232 242 255
232 242 255
232 242 255
232 242 255
232 242 255
232 242 255
232 242 255
232 242 255
232 242 255
232 242 255
232 242 255
232 242 255
232 242 255
232 242 255
233 242 255
234 243 255
235 243 255
237 245 255
239 246 255
240 246 255
240 246 255
242 247 255
241 247 255
243 248 255
242 248 255
242 247 255
240 247 255
243 248 255
245 249 255
242 248 255
242 247 255
242 247 255
242 248 255
243 248 255
242 247 255
243 248 255
240 246 255
239 246 255
239 246 255
239 245 255
237 244 255
236 244 255
234 243 255
232 242 255
232 242 255
232 242 255
232 242 255
232 242 255
232 242 255
232 242 255
232 242 255
232 242 255
232 242 255
232 242 255
232 242 255
232 242 255
232 242 255
232 242 255
232 242 255
232 242 255
232 242 255
232 242 255
232 242 255
232 242 255
232 242 255
232 242 255
232 242 255
232 242 255
232 242 255
232 242 255
232 242 255
232 242 255
232 242 255
232 242 255
232 242 255
232 242 255
232 242 255
232 242 255
232 242 255
232 242 255
232 242 255
232 242 255
232 242 255
232 242 255
232 242 255
232 242 255
232 242 255
232 242 255
232 242 255
232 242 255
232 242 255
232 242 255
232 242 255
232 242 255
232 241 255
232 241 255
232 242 255
232 241 255
232 241 255
232 241 255
232 241 255
232 241 255
232 241 255
232 241 255
232 241 255
232 241 255
232 241 255
232 241 255
232 241 255
232 241 255
232 241 255
232 241 255
232 241 255
232 241 255
232 241 255
232 241 255
232 241 255
232 241 255
232 241 255
232 241 255
232 241 255
232 241 255
232 241 255
232 241 255
232 241 255
232 241 255
232 241 255
232 241 255
232 241 255
232 241 255
232 241 255
232 241 255
232 241 255
232 241 255
232 241 255
232 241 255
232 241 255
232 241 255
232 241 255
232 241 255
232 241 255
232 241 255
232 241 255
232 241 255
232 241 255
232 241 255
232 241 255
232 241 255
232 241 255
232 241 255
232 241 255
232 241 255
232 241 255
232 241 255
232 241 255
232 241 255
232 241 255
232 241 255
232 241 255
232 241 255
232 241 255
232 241 255
232 241 255
232 241 255
232 241 255
232 241 255
232 241 255
232 241 255
232 241 255
232 241 255
232 241 255
232 241 255
232 241 255
232 241 255
231 241 255
231 241 255
231 241 255
231 241 255
231 241 255
231 241 255
231 241 255
231 241 255
231 241 255
231 241 255
231 241 255
231 241 255
231 241 255
231 241 255
231 241 255
231 241 255
231 241 255
231 241 255
231 241 255
231 241 255
231 241 255
231 241 255
231 241 255
231 241 255
231 241 255
231 241 255
231 241 255
231 241 255
231 241 255
231 241 255
231 241 255
231 241 255
231 241 255
231 241 255
231 241 255
231 241 255
231 241 255
231 241 255
231 241 255
231 241 255
231 241 255
231 241 255
231 241 255
231 241 255
231 241 255
231 241 255
231 241 255
231 241 255
231 241 255
231 241 255
231 241 255
231 241 255
231 241 255
231 241 255
231 241 255
231 241 255
231 241 255
231 241 255
231 241 255
231 241 255
231 241 255
231 241 255
231 241 255
231 241 255
231 241 255
231 241 255
231 241 255
231 241 255
231 241 255
231 241 255
231 241 255
231 241 255
231 241 255
231 241 255
231 241 255
231 241 255
231 241 255
231 241 255
231 241 255
231 241 255
231 241 255
231 241 255
231 241 255
231 241 255
231 241 255
231 241 255
231 241 255
231 241 255
231 241 255
231 241 255
231 241 255
231 241 255
231 241 255
231 241 255
231 241 255
232 241 255
232 241 255
232 241 255
232 241 255
232 241 255
232 241 255
232 241 255
232 241 255
232 241 255
232 241 255
232 241 255
232 241 255
232 241 255
232 241 255
232 241 255
232 241 255
232 241 255
232 241 255
232 241 255
232 241 255
232 241 255
232 241 255
232 241 255
232 241 255
232 241 255
232 241 255
232 241 255
232 241 255
232 241 255
232 241 255
232 241 255
232 241 255
232 241 255
232 241 255
232 241 255
232 241 255
232 241 255
232 241 255
232 241 255
232 241 255
232 241 255
232 241 255
232 241 255
232 241 255
232 241 255
232 241 255
232 241 255
232 241 255
232 241 255
232 241 255
232 241 255
232 241 255
232 241 255
232 241 255
232 241 255
232 241 255
232 241 255
232 241 255
232 241 255
232 241 255
232 241 255
232 241 255
232 241 255
232 241 255
232 241 255
232 241 255
232 241 255
232 242 255
232 242 255
232 242 255
232 242 255
232 242 255
232 242 255
232 242 255
232 242 255
232 242 255
232 242 255
232 242 255
232 242 255
232 242 255
232 242 255
232 242 255
232 242 255
232 242 255
232 242 255
232 242 255
232 242 255
232 242 255
232 242 255
232 242 255
232 242 255
232 242 255
232 242 255
232 242 255
232 242 255
232 242 255
232 242 255
232 242 255
232 242 255
232 242 255
232 242 255
232 242 255
232 242 255
232 242 255
232 242 255
232 242 255
232 242 255
232 242 255
232 242 255
232 242 255
232 242 255
232 242 255
232 242 255
232 242 255
232 242 255
232 242 255
232 242 255
232 242 255
232 242 255
232 242 255
232 242 255
232 242 255
232 242 255
232 242 255
232 242 255
232 242 255
232 242 255
232 242 255
232 242 255
232 242 255
232 242 255
232 242 255
232 242 255
232 242 255
232 242 255
232 242 255
232 242 255
232 242 255
232 242 255
232 242 255
232 242 255
232 242 255
232 242 255
232 242 255
232 242 255
232 242 255
232 242 255
232 242 255
232 242 255
232 242 255
232 242 255
232 242 255
232 242 255
232 242 255
232 242 255
233 242 255
233 242 255
233 242 255
233 242 255
233 242 255
234 243 255
233 242 255
232 241 255
232 242 255
232 242 255
232 242 255
232 242 255
232 242 255
232 242 255
232 242 255
232 242 255
232 242 255
232 242 255
232 242 255
232 242 255
232 242 255
232 242 255
232 242 255
232 242 255
232 242 255
232 242 255
232 242 255
232 242 255
232 242 255
232 242 255
232 242 255
232 242 255
232 242 255
232 242 255
232 242 255
232 242 255
232 242 255
232 242 255
232 242 255
232 242 255
232 242 255
232 242 255
232 242 255
232 242 255
232 242 255
232 242 255
232 242 255
232 242 255
232 242 255
232 242 255
232 242 255
232 242 255
232 242 255
232 242 255
232 242 255
232 242 255
232 242 255
232 242 255
232 242 255
232 242 255
232 242 255
232 242 255
232 242 255
232 242 255
232 242 255
232 242 255
232 242 255
232 242 255
232 242 255
232 242 255
232 242 255
232 242 255
232 242 255
232 242 255
232 242 255
232 242 255
232 242 255
232 242 255
232 242 255
232 242 255
232 242 255
232 242 255
232 242 255
232 242 255
232 242 255
232 242 255
232 242 255
232 242 255
232 242 255
232 242 255
232 242 255
232 242 255
232 242 255
232 242 255
232 242 255
232 242 255
232 242 255
232 242 255
232 241 255
232 241 255
232 241 255
232 241 255
232 241 255
232 241 255
232 241 255
232 241 255
232 241 255
232 241 255
232 241 255
232 241 255
232 241 255
232 241 255
232 241 255
232 241 255
232 241 255
232 241 255
232 241 255
232 241 255
232 241 255
232 241 255
232 241 255
232 241 255
232 241 255
232 241 255
232 241 255
232 241 255
232 241 255
232 241 255
232 241 255
232 241 255
232 241 255
232 241 255
232 241 255
232 241 255
232 241 255
232 241 255
232 241 255
232 241 255
232 241 255
232 241 255
232 241 255
232 241 255
232 241 255
232 241 255
232 241 255
232 241 255
232 241 255
232 241 255
232 241 255
232 241 255
232 241 255
232 241 255
232 241 255
232 241 255
232 241 255
232 241 255
232 241 255
232 241 255
232 241 255
232 241 255
232 241 255
232 241 255
232 241 255
232 241 255
231 241 255
231 241 255
231 241 255
231 241 255
231 241 255
231 241 255
231 241 255
231 241 255
231 241 255
231 241 255
231 241 255
231 241 255
231 241 255
231 241 255
231 241 255
231 241 255
231 241 255
231 241 255
231 241 255
231 241 255
231 241 255
231 241 255
231 241 255
231 241 255
231 241 255
231 241 255
231 241 255
231 241 255
231 241 255
231 241 255
231 241 255
231 241 255
231 241 255
231 241 255
231 241 255
231 241 255
231 241 255
231 241 255
231 241 255
231 241 255
231 241 255
231 241 255
231 241 255
231 241 255
231 241 255
231 241 255
231 241 255
231 241 255
231 241 255
231 241 255
231 241 255
231 241 255
231 241 255
231 241 255
231 241 255
231 241 255
231 241 255
231 241 255
231 241 255
231 241 255
231 241 255
231 241 255
231 241 255
231 241 255
231 241 255
231 241 255
231 241 255
231 241 255
232 241 255
232 241 255
232 241 255
232 241 255
232 241 255
232 241 255
232 241 255
232 241 255
232 241 255
232 241 255
232 241 255
232 241 255
232 241 255
232 241 255
232 241 255
232 241 255
232 241 255
232 241 255
232 241 255
232 241 255
232 241 255
232 241 255
232 241 255
232 241 255
232 241 255
232 241 255
232 241 255
232 241 255
232 241 255
232 241 255
232 241 255
232 241 255
232 241 255
232 241 255
232 241 255
232 241 255
232 241 255
232 241 255
232 241 255
232 241 255
232 241 255
232 241 255
232 241 255
232 241 255
232 241 255
232 241 255
232 241 255
232 241 255
232 241 255
232 241 255
232 241 255
232 241 255
232 241 255
232 241 255
232 241 255
232 241 255
232 241 255
232 241 255
232 241 255
232 242 255
232 242 255
232 242 255
232 242 255
232 242 255
232 242 255
232 242 255
232 242 255
232 242 255
232 242 255
232 242 255
232 242 255
232 242 255
232 242 255
232 242 255
232 242 255
232 242 255
232 242 255
232 242 255
232 242 255
232 242 255
232 242 255
232 242 255
232 242 255
232 242 255
232 242 255
232 242 255
232 242 255
232 242 255
232 242 255
232 242 255
232 242 255
232 242 255
232 242 255
232 242 255
232 242 255
232 242 255
232 242 255
232 242 255
232 242 255
232 242 255
232 242 255
232 242 255
232 242 255
232 242 255
232 242 255
232 242 255
232 242 255
232 242 255
232 242 255
232 242 255
232 242 255
232 242 255
232 242 255
232 242 255
232 242 255
232 242 255
232 242 255
232 242 255
232 242 255
232 242 255
232 242 255
232 242 255
232 242 255
232 242 255
232 242 255
232 242 255
232 242 255
232 242 255
232 242 255
232 242 255
232 242 255
232 242 255
232 242 255
232 242 255
232 242 255
232 242 255
232 242 255
232 242 255
232 242 255
232 242 255
232 242 255
232 242 255
232 242 255
232 242 255
232 242 255
232 242 255
232 242 255
232 242 255
232 242 255
232 242 255
232 242 255
232 242 255
232 242 255
232 242 255
232 242 255
232 242 255
232 242 255
232 242 255
232 242 255
232 242 255
232 242 255
232 242 255
232 242 255
232 242 255
232 242 255
232 242 255
232 242 255
232 242 255
232 242 255
232 242 255
232 242 255
232 242 255
232 242 255
232 242 255
232 242 255
232 242 255
232 242 255
232 242 255
232 242 255
232 242 255
232 242 255
232 242 255
232 242 255
232 242 255
232 242 255
232 242 255
232 242 255
232 242 255
232 242 255
232 242 255
232 242 255
232 242 255
232 242 255
232 242 255
232 242 255
232 242 255
232 242 255
232 242 255
232 242 255
232 242 255
232 242 255
232 242 255
232 242 255
232 242 255
232 242 255
232 242 255
232 242 255
232 242 255
232 242 255
232 242 255
232 242 255
232 242 255
232 242 255
232 242 255
232 242 255
232 242 255
232 242 255
232 242 255
232 242 255
232 242 255
232 242 255
232 242 255
232 242 255
232 242 255
232 242 255
232 242 255
232 242 255
232 242 255
232 242 255
232 242 255
232 242 255
232 242 255
232 242 255
232 242 255
232 242 255
232 242 255
232 242 255
232 242 255
232 242 255
232 242 255
232 242 255
232 242 255
232 242 255
232 242 255
232 242 255
232 242 255
232 242 255
232 242 255
232 242 255
232 242 255
232 242 255
232 242 255
232 242 255
232 242 255
232 242 255
232 242 255
232 242 255
232 242 255
232 242 255
232 242 255
232 242 255
232 242 255
232 242 255
232 242 255
232 242 255
232 242 255
232 242 255
232 242 255
232 242 255
232 242 255
232 242 255
232 242 255
232 242 255
232 242 255
232 242 255
232 242 255
232 242 255
232 242 255
232 242 255
232 242 255
232 242 255
232 242 255
232 242 255
232 242 255
232 242 255
232 242 255
232 241 255
232 241 255
232 241 255
232 241 255
232 241 255
232 241 255
232 241 255
232 241 255
232 241 255
232 241 255
232 241 255
232 241 255
232 241 255
232 241 255
232 241 255
232 241 255
232 241 255
232 241 255
232 241 255
232 241 255
232 241 255
232 241 255
232 241 255
232 241 255
232 241 255
232 241 255
232 241 255
232 241 255
232 241 255
232 241 255
232 241 255
232 241 255
232 241 255
232 241 255
232 241 255
232 241 255
232 241 255
232 241 255
232 241 255
232 241 255
232 241 255
232 241 255
232 241 255
232 241 255
232 241 255
232 241 255
232 241 255
232 241 255
232 241 255
232 241 255
232 241 255
232 241 255
232 241 255
232 241 255
232 241 255
232 241 255
232 241 255
232 241 255
232 241 255
232 241 255
231 241 255
231 241 255
231 241 255
231 241 255
231 241 255
231 241 255
231 241 255
231 241 255
231 241 255
231 241 255
231 241 255
231 241 255
231 241 255
231 241 255
231 241 255
231 241 255
231 241 255
231 241 255
231 241 255
231 241 255
231 241 255
231 241 255
231 241 255
231 241 255
231 241 255
231 241 255
231 241 255
231 241 255
231 241 255
231 241 255
231 241 255
231 241 255
231 241 255
231 241 255
231 241 255
231 241 255
231 241 255
231 241 255
231 241 255
231 241 255
231 241 255
231 241 255
232 241 255
232 241 255
232 241 255
232 241 255
232 241 255
232 241 255
232 241 255
232 241 255
232 241 255
232 241 255
232 241 255
232 241 255
232 241 255
232 241 255
232 241 255
232 241 255
232 241 255
232 241 255
232 241 255
232 241 255
232 241 255
232 241 255
232 241 255
232 241 255
232 241 255
232 241 255
232 241 255
232 241 255
232 241 255
232 241 255
232 241 255
232 241 255
232 241 255
232 241 255
232 241 255
232 241 255
232 241 255
232 241 255
232 241 255
232 241 255
232 241 255
232 241 255
232 241 255
232 241 255
232 241 255
232 241 255
232 241 255
232 241 255
232 241 255
232 241 255
232 241 255
232 241 255
232 241 255
232 241 255
232 242 255
232 242 255
232 242 255
232 242 255
232 242 255
232 242 255
232 242 255
232 242 255
232 242 255
232 242 255
232 242 255
232 242 255
232 242 255
232 242 255
232 242 255
232 242 255
232 242 255
232 242 255
232 242 255
232 242 255
232 242 255
232 242 255
232 242 255
232 242 255
232 242 255
232 242 255
232 242 255
232 242 255
232 242 255
232 242 255
232 242 255
232 242 255
232 242 255
232 242 255
232 242 255
232 242 255
232 242 255
232 242 255
232 242 255
232 242 255
232 242 255
232 242 255
232 242 255
232 242 255
232 242 255
232 242 255
232 242 255
232 242 255
232 242 255
232 242 255
232 242 255
232 242 255
232 242 255
232 242 255
232 242 255
232 242 255
232 242 255
232 242 255
232 242 255
232 242 255
232 242 255
232 242 255
232 242 255
232 242 255
232 242 255
232 242 255
232 242 255
232 242 255
232 242 255
232 242 255
232 242 255
232 242 255
232 242 255
232 242 255
232 242 255
232 242 255
232 242 255
232 242 255
232 242 255
232 242 255
232 242 255
232 242 255
232 242 255
232 242 255
232 242 255
232 242 255
232 242 255
232 242 255
232 242 255
232 242 255
232 242 255
232 242 255
232 242 255
232 242 255
232 242 255
232 242 255
232 242 255
232 242 255
232 242 255
232 242 255
232 242 255
232 242 255
232 242 255
232 242 255
232 242 255
232 242 255
232 242 255
232 242 255
232 242 255
232 242 255
232 242 255
232 242 255
232 242 255
232 242 255
232 242 255
232 242 255
232 242 255
232 242 255
232 242 255
232 242 255
232 242 255
232 242 255
232 242 255
232 242 255
232 242 255
232 242 255
232 242 255
232 242 255
232 242 255
232 242 255
232 242 255
232 242 255
232 242 255
232 242 255
232 242 255
232 242 255
232 242 255
232 242 255
232 242 255
232 242 255
232 242 255
232 242 255
232 242 255
232 242 255
232 242 255
232 242 255
232 242 255
232 242 255
232 242 255
232 242 255
232 242 255
232 242 255
232 242 255
232 242 255
232 242 255
232 242 255
232 242 255
232 242 255
232 242 255
232 242 255
232 242 255
232 242 255
232 242 255
232 242 255
232 242 255
232 242 255
232 242 255
232 242 255
232 242 255
232 242 255
232 242 255
232 242 255
232 242 255
232 242 255
232 242 255
232 242 255
232 242 255
232 242 255
232 242 255
232 242 255
232 242 255
232 242 255
232 242 255
232 242 255
232 242 255
232 242 255
232 242 255
232 242 255
232 242 255
232 242 255
232 242 255
232 242 255
232 242 255
232 242 255
232 242 255
232 242 255
232 242 255
232 242 255
232 242 255
232 242 255
232 242 255
232 242 255
232 242 255
232 242 255
232 242 255
232 242 255
232 242 255
232 242 255
232 242 255
232 242 255
232 242 255
232 242 255
232 242 255
232 242 255
232 242 255
232 242 255
232 242 255
232 242 255
232 242 255
232 242 255
232 242 255
232 242 255
232 242 255
232 242 255
232 242 255
232 242 255
232 242 255
232 242 255
232 242 255
232 242 255
232 242 255
232 242 255
232 242 255
232 242 255
232 242 255
232 242 255
232 242 255
232 242 255
232 242 255
232 242 255
232 242 255
232 242 255
232 242 255
232 242 255
232 242 255
232 242 255
232 242 255
232 242 255
232 242 255
232 242 255
232 242 255
232 242 255
232 242 255
232 242 255
232 242 255
232 242 255
232 242 255
232 242 255
232 242 255
232 242 255
232 242 255
232 242 255
232 242 255
232 241 255
232 241 255
232 241 255
232 241 255
232 241 255
232 241 255
232 241 255
232 241 255
232 241 255
232 241 255
232 241 255
232 241 255
232 241 255
232 241 255
232 241 255
232 241 255
232 241 255
232 241 255
232 241 255
232 241 255
232 241 255
232 241 255
232 241 255
232 241 255
232 241 255
232 241 255
232 241 255
232 241 255
232 241 255
232 241 255
232 241 255
232 241 255
232 241 255
232 241 255
232 241 255
232 241 255
232 241 255
232 241 255
232 241 255
232 241 255
232 241 255
232 241 255
232 241 255
232 241 255
232 241 255
232 241 255
232 241 255
232 241 255
232 241 255
232 241 255
232 241 255
232 241 255
232 241 255
231 241 255
231 241 255
231 241 255
231 241 255
231 241 255
231 241 255
231 241 255
231 241 255
231 241 255
231 241 255
231 241 255
231 241 255
231 241 255
231 241 255
231 241 255
231 241 255
231 241 255
231 241 255
232 241 255
232 241 255
232 241 255
232 241 255
232 241 255
232 241 255
232 241 255
232 241 255
232 241 255
232 241 255
232 241 255
232 241 255
232 241 255
232 241 255
232 241 255
232 241 255
232 241 255
232 241 255
232 241 255
232 241 255
232 241 255
232 241 255
232 241 255
232 241 255
232 241 255
232 241 255
232 241 255
232 241 255
232 241 255
232 241 255
232 241 255
232 241 255
232 241 255
232 241 255
232 241 255
232 241 255
232 241 255
232 241 255
232 241 255
232 241 255
232 241 255
232 241 255
232 241 255
232 241 255
232 241 255
232 241 255
232 241 255
232 241 255
232 241 255
232 241 255
232 241 255
232 242 255
232 242 255
232 242 255
232 242 255
232 242 255
232 242 255
232 242 255
232 242 255
232 242 255
232 242 255
232 242 255
232 242 255
232 242 255
232 242 255
232 242 255
232 242 255
232 242 255
232 242 255
232 242 255
232 242 255
232 242 255
232 242 255
232 242 255
232 242 255
232 242 255
232 242 255
232 242 255
232 242 255
232 242 255
232 242 255
232 242 255
232 242 255
232 242 255
232 242 255
232 242 255
232 242 255
232 242 255
232 242 255
232 242 255
232 242 255
232 242 255
232 242 255
232 242 255
232 242 255
232 242 255
232 242 255
232 242 255
232 242 255
232 242 255
232 242 255
232 242 255
232 242 255
232 242 255
232 242 255
232 242 255
232 242 255
232 242 255
232 242 255
232 242 255
232 242 255
232 242 255
232 242 255
232 242 255
232 242 255
232 242 255
232 242 255
232 242 255
232 242 255
232 242 255
232 242 255
232 242 255
232 242 255
232 242 255
232 242 255
232 242 255
232 242 255
232 242 255
232 242 255
232 242 255
232 242 255
232 242 255
232 242 255
232 242 255
232 242 255
232 242 255
232 242 255
232 242 255
232 242 255
232 242 255
232 242 255
232 242 255
232 242 255
232 242 255
232 242 255
232 242 255
232 242 255
232 242 255
232 242 255
232 242 255
232 242 255
232 242 255
232 242 255
232 242 255
232 242 255
232 242 255
232 242 255
232 242 255
232 242 255
232 242 255
232 242 255
232 242 255
232 242 255
232 242 255
232 242 255
232 242 255
232 242 255
232 242 255
232 242 255
232 242 255
232 242 255
232 242 255
232 242 255
232 242 255
232 242 255
232 242 255
232 242 255
232 242 255
232 242 255
232 242 255
232 242 255
232 242 255
232 242 255
232 242 255
232 242 255
232 242 255
232 242 255
232 242 255
232 242 255
232 242 255
232 242 255
232 242 255
232 242 255
232 242 255
232 242 255
232 242 255
232 242 255
232 242 255
232 242 255
232 242 255
232 242 255
232 242 255
232 242 255
232 242 255
232 242 255
232 242 255
232 242 255
232 242 255
232 242 255
232 242 255
232 242 255
232 242 255
232 242 255
232 242 255
232 242 255
232 242 255
232 242 255
232 242 255
232 242 255
232 242 255
232 242 255
232 242 255
232 242 255
232 242 255
232 242 255
232 242 255
232 242 255
232 242 255
232 242 255
232 242 255
232 242 255
232 242 255
232 242 255
232 242 255
232 242 255
232 242 255
232 242 255
232 242 255
232 242 255
232 242 255
232 242 255
232 242 255
232 242 255
232 242 255
232 242 255
232 242 255
232 242 255
232 242 255
232 242 255
232 242 255
232 242 255
232 242 255
232 242 255
232 242 255
232 242 255
232 242 255
232 242 255
232 242 255
232 242 255
232 242 255
232 242 255
232 242 255
232 242 255
232 242 255
232 242 255
232 242 255
232 242 255
232 242 255
232 242 255
232 242 255
232 242 255
232 242 255
232 242 255
232 242 255
232 242 255
232 242 255
232 242 255
232 242 255
232 242 255
232 242 255
232 242 255
232 242 255
232 242 255
232 242 255
232 242 255
232 242 255
232 242 255
232 242 255
232 242 255
232 242 255
232 242 255
232 242 255
232 242 255
232 242 255
232 242 255
232 242 255
232 242 255
232 242 255
232 242 255
232 242 255
232 242 255
232 242 255
232 242 255
232 242 255
232 242 255
232 242 255
232 242 255
232 242 255
232 242 255
232 242 255
232 242 255
232 242 255
232 242 255
232 242 255
232 242 255
232 242 255
232 242 255
232 242 255
232 242 255
232 242 255
232 242 255
232 242 255
232 242 255
232 242 255
232 242 255
232 242 255
232 242 255
232 242 255
232 242 255
232 242 255
232 242 255
232 242 255
232 242 255
232 242 255
232 242 255
232 242 255
232 242 255
232 242 255
232 242 255
232 242 255
232 242 255
232 242 255
232 242 255
232 242 255
232 241 255
232 241 255
232 241 255
232 241 255
232 241 255
232 241 255
232 241 255
232 241 255
232 241 255
232 241 255
232 241 255
232 241 255
232 241 255
232 241 255
232 241 255
232 241 255
232 241 255
232 241 255
232 241 255
232 241 255
232 241 255
232 241 255
232 241 255
232 241 255
232 241 255
232 241 255
232 241 255
232 241 255
232 241 255
232 241 255
232 241 255
232 241 255
232 241 255
232 241 255
232 241 255
232 241 255
232 241 255
232 241 255
232 241 255
232 241 255
232 241 255
232 241 255
232 241 255
232 241 255
232 241 255
232 241 255
232 241 255
232 241 255
232 241 255
232 241 255
231 241 255
231 241 255
231 241 255
232 241 255
232 241 255
232 241 255
232 241 255
232 241 255
232 241 255
232 241 255
232 241 255
232 241 255
232 241 255
232 241 255
232 241 255
232 241 255
232 241 255
232 241 255
232 241 255
232 241 255
232 241 255
232 241 255
232 241 255
232 241 255
232 241 255
232 241 255
232 241 255
232 241 255
232 241 255
232 241 255
232 241 255
232 241 255
232 241 255
232 241 255
232 241 255
232 241 255
232 241 255
232 241 255
232 241 255
232 241 255
232 241 255
232 241 255
232 241 255
232 242 255
232 242 255
232 242 255
232 242 255
232 242 255
232 242 255
232 242 255
232 242 255
232 242 255
232 242 255
232 242 255
232 242 255
232 242 255
232 242 255
232 242 255
232 242 255
232 242 255
232 242 255
232 242 255
232 242 255
232 242 255
232 242 255
232 242 255
232 242 255
232 242 255
232 242 255
232 242 255
232 242 255
232 242 255
232 242 255
232 242 255
232 242 255
232 242 255
232 242 255
232 242 255
232 242 255
232 242 255
232 242 255
232 242 255
232 242 255
232 242 255
232 242 255
232 242 255
232 242 255
232 242 255
232 242 255
232 242 255
232 242 255
232 242 255
232 242 255
232 242 255
232 242 255
232 242 255
232 242 255
232 242 255
232 242 255
232 242 255
232 242 255
232 242 255
232 242 255
232 242 255
232 242 255
232 242 255
232 242 255
232 242 255
232 242 255
232 242 255
232 242 255
232 242 255
232 242 255
232 242 255
232 242 255
232 242 255
232 242 255
232 242 255
232 242 255
232 242 255
232 242 255
232 242 255
232 242 255
232 242 255
232 242 255
232 242 255
232 242 255
232 242 255
232 242 255
232 242 255
232 242 255
232 242 255
232 242 255
232 242 255
232 242 255
232 242 255
232 242 255
232 242 255
232 242 255
232 242 255
232 242 255
232 242 255
232 242 255
232 242 255
232 242 255
232 242 255
232 242 255
232 242 255
232 242 255
232 242 255
232 242 255
232 242 255
232 242 255
232 242 255
232 242 255
232 242 255
232 242 255
232 242 255
232 242 255
232 242 255
232 242 255
232 242 255
232 242 255
232 242 255
232 242 255
232 242 255
232 242 255
232 242 255
232 242 255
232 242 255
232 242 255
232 242 255
232 242 255
232 242 255
232 242 255
232 242 255
232 242 255
232 242 255
232 242 255
232 242 255
232 242 255
232 242 255
232 242 255
232 242 255
232 242 255
232 242 255
232 242 255
232 242 255
232 242 255
232 242 255
232 242 255
232 242 255
232 242 255
232 242 255
232 242 255
232 242 255
232 242 255
232 242 255
232 242 255
232 242 255
232 242 255
232 242 255
232 242 255
232 242 255
232 242 255
232 242 255
232 242 255
232 242 255
232 242 255
232 242 255
232 242 255
232 242 255
232 242 255
232 242 255
232 242 255
232 242 255
232 242 255
232 242 255
232 242 255
232 242 255
232 242 255
232 242 255
232 242 255
232 242 255
232 242 255
232 242 255
232 242 255
232 242 255
232 242 255
232 242 255
232 242 255
232 242 255
232 242 255
232 242 255
232 242 255
232 242 255
232 242 255
232 242 255
232 242 255
232 242 255
232 242 255
232 242 255
232 242 255
232 242 255
232 242 255
232 242 255
232 242 255
232 242 255
232 242 255
232 242 255
232 242 255
232 242 255
232 242 255
232 242 255
232 242 255
232 242 255
232 242 255
232 242 255
232 242 255
232 242 255
232 242 255
232 242 255
232 242 255
232 242 255
232 242 255
232 242 255
232 242 255
232 242 255
232 242 255
232 242 255
232 242 255
232 242 255
232 242 255
232 242 255
232 242 255
232 242 255
232 242 255
232 242 255
232 242 255
232 242 255
232 242 255
232 242 255
232 242 255
232 242 255
232 242 255
232 242 255
232 242 255
232 242 255
232 242 255
232 242 255
232 242 255
232 242 255
232 242 255
232 242 255
232 242 255
232 242 255
232 242 255
232 242 255
232 242 255
232 242 255
232 242 255
232 242 255
232 242 255
232 242 255
232 242 255
232 242 255
232 242 255
232 242 255
232 242 255
232 242 255
232 242 255
232 242 255
232 242 255
232 242 255
232 242 255
232 242 255
232 242 255
232 242 255
232 242 255
232 242 255
232 242 255
232 242 255
232 242 255
232 242 255
232 242 255
232 242 255
232 242 255
232 242 255
232 242 255
232 242 255
232 242 255
232 242 255
232 242 255
232 242 255
232 242 255
232 242 255
232 242 255
232 242 255
232 242 255
232 242 255
232 242 255
232 242 255
232 242 255
232 242 255
232 242 255
232 242 255
232 242 255
232 242 255
232 242 255
232 242 255
232 242 255
232 242 255
232 242 255
232 242 255
232 242 255
232 242 255
232 242 255
232 242 255
232 242 255
232 242 255
232 242 255
232 242 255
232 242 255
232 242 255
232 241 255
232 241 255
232 241 255
232 241 255
232 241 255
232 241 255
232 241 255
232 241 255
232 241 255
232 241 255
232 241 255
232 241 255
232 241 255
232 241 255
232 241 255
232 241 255
232 241 255
232 241 255
232 241 255
232 241 255
232 241 255
232 241 255
232 241 255
232 241 255
232 241 255
232 241 255
232 241 255
232 241 255
232 241 255
232 241 255
232 241 255
232 241 255
232 241 255
232 241 255
232 241 255
232 241 255
232 241 255
232 241 255
232 241 255
232 241 255
232 241 255
232 241 255
232 241 255
232 241 255
232 241 255
232 241 255
232 241 255
232 241 255
232 241 255
232 241 255
232 241 255
232 241 255
232 241 255
232 241 255
232 241 255
232 241 255
232 241 255
232 241 255
232 241 255
232 241 255
232 241 255
232 241 255
232 241 255
232 241 255
232 241 255
232 241 255
232 242 255
232 242 255
232 242 255
232 242 255
232 242 255
232 242 255
232 242 255
232 242 255
232 242 255
232 242 255
232 242 255
232 242 255
232 242 255
232 242 255
232 242 255
232 242 255
232 242 255
232 242 255
232 242 255
232 242 255
232 242 255
232 242 255
232 242 255
232 242 255
232 242 255
232 242 255
232 242 255
232 242 255
232 242 255
232 242 255
232 242 255
232 242 255
232 242 255
232 242 255
232 242 255
232 242 255
232 242 255
232 242 255
232 242 255
232 242 255
232 242 255
232 242 255
232 242 255
232 242 255
232 242 255
232 242 255
232 242 255
232 242 255
232 242 255
232 242 255
232 242 255
232 242 255
232 242 255
232 242 255
232 242 255
232 242 255
232 242 255
232 242 255
232 242 255
232 242 255
232 242 255
232 242 255
232 242 255
232 242 255
232 242 255
232 242 255
232 242 255
232 242 255
232 242 255
232 242 255
232 242 255
232 242 255
232 242 255
232 242 255
232 242 255
232 242 255
232 242 255
232 242 255
232 242 255
232 242 255
232 242 255
232 242 255
232 242 255
232 242 255
232 242 255
232 242 255
232 242 255
232 242 255
232 242 255
232 242 255
232 242 255
232 242 255
232 242 255
232 242 255
232 242 255
232 242 255
232 242 255
232 242 255
232 242 255
232 242 255
232 242 255
232 242 255
232 242 255
232 242 255
232 242 255
232 242 255
232 242 255
232 242 255
232 242 255
232 242 255
232 242 255
232 242 255
232 242 255
232 242 255
232 242 255
232 242 255
232 242 255
232 242 255
232 242 255
232 242 255
232 242 255
232 242 255
232 242 255
232 242 255
232 242 255
232 242 255
232 242 255
232 242 255
232 242 255
232 242 255
232 242 255
232 242 255
232 242 255
232 242 255
232 242 255
232 242 255
232 242 255
232 242 255
232 242 255
232 242 255
232 242 255
232 242 255
232 242 255
232 242 255
232 242 255
232 242 255
232 242 255
232 242 255
232 242 255
232 242 255
232 242 255
232 242 255
232 242 255
232 242 255
232 242 255
232 242 255
232 242 255
232 242 255
232 242 255
232 242 255
232 242 255
232 242 255
232 242 255
232 242 255
232 242 255
232 242 255
232 242 255
232 242 255
232 242 255
232 242 255
232 242 255
232 242 255
232 242 255
232 242 255
232 242 255
232 242 255
232 242 255
232 242 255
232 242 255
232 242 255
232 242 255
232 242 255
232 242 255
232 242 255
232 242 255
232 242 255
232 242 255
232 242 255
232 242 255
232 242 255
232 242 255
232 242 255
232 242 255
232 242 255
232 242 255
232 242 255
232 242 255
232 242 255
232 242 255
232 242 255
232 242 255
232 242 255
232 242 255
232 242 255
232 242 255
232 242 255
232 242 255
232 242 255
232 242 255
232 242 255
232 242 255
232 242 255
232 242 255
232 242 255
232 242 255
232 242 255
232 242 255
232 242 255
232 242 255
232 242 255
232 242 255
232 242 255
232 242 255
232 242 255
232 242 255
232 242 255
232 242 255
232 242 255
232 242 255
232 242 255
232 242 255
232 242 255
232 242 255
232 242 255
232 242 255
232 242 255
232 242 255
232 242 255
232 242 255
232 242 255
232 242 255
232 242 255
232 242 255
232 242 255
232 242 255
232 242 255
232 242 255
232 242 255
232 242 255
232 242 255
232 242 255
232 242 255
232 242 255
232 242 255
232 242 255
232 242 255
232 242 255
232 242 255
232 242 255
232 242 255
232 242 255
232 242 255
232 242 255
232 242 255
232 242 255
232 242 255
232 242 255
232 242 255
232 242 255
232 242 255
232 242 255
232 242 255
232 242 255
232 242 255
232 242 255
232 242 255
232 242 255
232 242 255
232 242 255
232 242 255
232 242 255
232 242 255
232 242 255
232 242 255
232 242 255
232 242 255
232 242 255
232 242 255
232 242 255
232 242 255
232 242 255
232 242 255
232 242 255
232 242 255
232 242 255
232 242 255
232 242 255
232 242 255
232 242 255
232 242 255
232 242 255
232 242 255
232 242 255
232 242 255
232 242 255
232 242 255
232 242 255
232 242 255
232 242 255
232 242 255
232 242 255
232 242 255
232 242 255
232 242 255
232 242 255
232 242 255
232 242 255
232 242 255
232 242 255
232 242 255
232 242 255
232 242 255
232 242 255
232 242 255
232 242 255
232 242 255
232 242 255
232 242 255
232 242 255
232 242 255
232 242 255
232 242 255
232 242 255
232 242 255
232 242 255
232 242 255
232 242 255
232 242 255
232 242 255
232 242 255
232 242 255
232 242 255
232 242 255
232 242 255
232 242 255
232 242 255
232 241 255
232 241 255
232 241 255
232 241 255
232 241 255
232 241 255
232 241 255
232 241 255
232 241 255
232 241 255
232 241 255
232 241 255
232 241 255
232 241 255
232 241 255
232 241 255
232 241 255
232 241 255
232 241 255
232 241 255
232 241 255
232 241 255
232 241 255
232 241 255
232 241 255
232 241 255
232 241 255
232 241 255
232 241 255
232 241 255
232 241 255
232 241 255
232 241 255
232 241 255
232 241 255
232 241 255
232 241 255
232 241 255
232 241 255
232 241 255
232 241 255
232 241 255
232 242 255
232 242 255
232 242 255
232 242 255
232 242 255
232 242 255
232 242 255
232 242 255
232 242 255
232 242 255
232 242 255
232 242 255
232 242 255
232 242 255
232 242 255
232 242 255
232 242 255
232 242 255
232 242 255
232 242 255
232 242 255
232 242 255
232 242 255
232 242 255
232 242 255
232 242 255
232 242 255
232 242 255
232 242 255
232 242 255
232 242 255
232 242 255
232 242 255
232 242 255
232 242 255
232 242 255
232 242 255
232 242 255
232 242 255
232 242 255
232 242 255
232 242 255
232 242 255
232 242 255
232 242 255
232 242 255
232 242 255
232 242 255
232 242 255
232 242 255
232 242 255
232 242 255
232 242 255
232 242 255
232 242 255
232 242 255
232 242 255
232 242 255
232 242 255
232 242 255
232 242 255
232 242 255
232 242 255
232 242 255
232 242 255
232 242 255
232 242 255
232 242 255
232 242 255
232 242 255
232 242 255
232 242 255
232 242 255
232 242 255
232 242 255
232 242 255
232 242 255
232 242 255
232 242 255
232 242 255
232 242 255
232 242 255
232 242 255
232 242 255
232 242 255
232 242 255
232 242 255
232 242 255
232 242 255
232 242 255
232 242 255
232 242 255
232 242 255
232 242 255
232 242 255
232 242 255
232 242 255
232 242 255
232 242 255
232 242 255
232 242 255
232 242 255
232 242 255
232 242 255
232 242 255
232 242 255
232 242 255
232 242 255
232 242 255
232 242 255
232 242 255
232 242 255
232 242 255
232 242 255
232 242 255
232 242 255
232 242 255
232 242 255
232 242 255
232 242 255
232 242 255
232 242 255
232 242 255
232 242 255
232 242 255
232 242 255
232 242 255
232 242 255
232 242 255
232 242 255
232 242 255
232 242 255
232 242 255
232 242 255
232 242 255
232 242 255
232 242 255
232 242 255
232 242 255
232 242 255
232 242 255
232 242 255
232 242 255
232 242 255
232 242 255
232 242 255
232 242 255
232 242 255
232 242 255
232 242 255
232 242 255
232 242 255
232 242 255
232 242 255
232 242 255
232 242 255
232 242 255
232 242 255
232 242 255
232 242 255
232 242 255
232 242 255
232 242 255
232 242 255
232 242 255
232 242 255
232 242 255
232 242 255
232 242 255
232 242 255
232 242 255
232 242 255
232 242 255
232 242 255
232 242 255
232 242 255
232 242 255
232 242 255
232 242 255
232 242 255
232 242 255
232 242 255
232 242 255
232 242 255
232 242 255
232 242 255
232 242 255
232 242 255
232 242 255
232 242 255
232 242 255
232 242 255
232 242 255
232 242 255
232 242 255
232 242 255
232 242 255
232 242 255
232 242 255
232 242 255
232 242 255
232 242 255
232 242 255
232 242 255
232 242 255
232 242 255
232 242 255
232 242 255
232 242 255
232 242 255
232 242 255
232 242 255
232 242 255
232 242 255
232 242 255
232 242 255
232 242 255
232 242 255
232 242 255
232 242 255
232 242 255
232 242 255
232 242 255
232 242 255
232 242 255
232 242 255
232 242 255
232 242 255
232 242 255
232 242 255
232 242 255
232 242 255
232 242 255
232 242 255
232 242 255
232 242 255
232 242 255
232 242 255
232 242 255
232 242 255
232 242 255
232 242 255
232 242 255
232 242 255
232 242 255
232 242 255
232 242 255
232 242 255
232 242 255
232 242 255
232 242 255
232 242 255
232 242 255
232 242 255
232 242 255
232 242 255
232 242 255
232 242 255
232 242 255
232 242 255
232 242 255
232 242 255
232 242 255
232 242 255
232 242 255
232 242 255
232 242 255
232 242 255
232 242 255
232 242 255
232 242 255
232 242 255
232 242 255
232 242 255
232 242 255
232 242 255
232 242 255
232 242 255
232 242 255
232 242 255
232 242 255
232 242 255
232 242 255
232 242 255
232 242 255
232 242 255
232 242 255
232 242 255
232 242 255
232 242 255
232 242 255
232 242 255
232 242 255
232 242 255
232 242 255
232 242 255
232 242 255
232 242 255
232 242 255
232 242 255
232 242 255
232 242 255
232 242 255
232 242 255
232 242 255
232 242 255
232 242 255
232 242 255
232 242 255
232 242 255
232 242 255
232 242 255
232 242 255
232 242 255
232 242 255
232 242 255
232 242 255
232 242 255
232 242 255
232 242 255
232 242 255
232 242 255
232 242 255
232 242 255
232 242 255
232 242 255
232 242 255
232 242 255
232 242 255
232 242 255
232 242 255
232 242 255
232 242 255
232 242 255
232 242 255
232 242 255
232 242 255
232 242 255
232 242 255
232 242 255
232 242 255
232 242 255
232 242 255
232 242 255
232 242 255
232 242 255
232 242 255
232 242 255
232 242 255
232 242 255
232 242 255
232 242 255
232 242 255
232 242 255
232 242 255
232 242 255
232 242 255
232 242 255
232 242 255
232 242 255
232 242 255
232 242 255
232 242 255
232 242 255
232 242 255
232 242 255
232 242 255
232 242 255
232 242 255
232 242 255
232 241 255
232 241 255
232 241 255
232 241 255
232 241 255
232 241 255
232 241 255
232 241 255
232 241 255
232 241 255
232 241 255
232 241 255
232 241 255
232 241 255
232 241 255
232 241 255
232 241 255
232 241 255
232 242 255
232 242 255
232 242 255
232 242 255
232 242 255
232 242 255
232 242 255
232 242 255
232 242 255
232 242 255
232 242 255
232 242 255
232 242 255
232 242 255
232 242 255
232 242 255
232 242 255
232 242 255
232 242 255
232 242 255
232 242 255
232 242 255
232 242 255
232 242 255
232 242 255
232 242 255
232 242 255
232 242 255
232 242 255
232 242 255
232 242 255
232 242 255
232 242 255
232 242 255
232 242 255
232 242 255
232 242 255
232 242 255
232 242 255
232 242 255
232 242 255
232 242 255
232 242 255
232 242 255
232 242 255
232 242 255
232 242 255
232 242 255
232 242 255
232 242 255
232 242 255
232 242 255
232 242 255
232 242 255
232 242 255
232 242 255
232 242 255
232 242 255
232 242 255
232 242 255
232 242 255
232 242 255
232 242 255
232 242 255
232 242 255
232 242 255
232 242 255
232 242 255
232 242 255
232 242 255
232 242 255
232 242 255
232 242 255
232 242 255
232 242 255
232 242 255
232 242 255
232 242 255
232 242 255
232 242 255
232 242 255
232 242 255
232 242 255
232 242 255
232 242 255
232 242 255
232 242 255
232 242 255
232 242 255
232 242 255
232 242 255
232 242 255
232 242 255
232 242 255
232 242 255
232 242 255
232 242 255
232 242 255
232 242 255
232 242 255
232 242 255
232 242 255
232 242 255
232 242 255
232 242 255
232 242 255
232 242 255
232 242 255
232 242 255
232 242 255
232 242 255
232 242 255
232 242 255
232 242 255
232 242 255
232 242 255
232 242 255
232 242 255
232 242 255
232 242 255
232 242 255
232 242 255
232 242 255
232 242 255
232 242 255
232 242 255
232 242 255
232 242 255
232 242 255
232 242 255
232 242 255
232 242 255
232 242 255
232 242 255
232 242 255
232 242 255
232 242 255
232 242 255
232 242 255
232 242 255
232 242 255
232 242 255
232 242 255
232 242 255
232 242 255
232 242 255
232 242 255
232 242 255
232 242 255
232 242 255
232 242 255
232 242 255
232 242 255
232 242 255
232 242 255
232 242 255
232 242 255
232 242 255
232 242 255
232 242 255
232 242 255
232 242 255
232 242 255
232 242 255
232 242 255
232 242 255
232 242 255
232 242 255
232 242 255
232 242 255
232 242 255
232 242 255
232 242 255
232 242 255
232 242 255
232 242 255
232 242 255
232 242 255
232 242 255
232 242 255
232 242 255
232 242 255
232 242 255
232 242 255
232 242 255
232 242 255
232 242 255
232 242 255
232 242 255
232 242 255
232 242 255
232 242 255
232 242 255
232 242 255
232 242 255
232 242 255
232 242 255
232 242 255
232 242 255
232 242 255
232 242 255
232 242 255
232 242 255
232 242 255
232 242 255
232 242 255
232 242 255
232 242 255
232 242 255
232 242 255
232 242 255
232 242 255
232 242 255
232 242 255
232 242 255
232 242 255
232 242 255
232 242 255
232 242 255
232 242 255
232 242 255
232 242 255
232 242 255
232 242 255
232 242 255
232 242 255
232 242 255
232 242 255
232 242 255
232 242 255
232 242 255
232 242 255
232 242 255
232 242 255
232 242 255
232 242 255
232 242 255
232 242 255
232 242 255
232 242 255
232 242 255
232 242 255
232 242 255
232 242 255
232 242 255
232 242 255
232 242 255
232 242 255
232 242 255
232 242 255
232 242 255
232 242 255
232 242 255
232 242 255
232 242 255
232 242 255
232 242 255
232 242 255
232 242 255
232 242 255
232 242 255
232 242 255
232 242 255
232 242 255
232 242 255
232 242 255
232 242 255
232 242 255
232 242 255
232 242 255
232 242 255
232 242 255
232 242 255
232 242 255
232 242 255
232 242 255
232 242 255
232 242 255
232 242 255
232 242 255
232 242 255
232 242 255
232 242 255
232 242 255
232 242 255
232 242 255
232 242 255
232 242 255
232 242 255
232 242 255
232 242 255
232 242 255
232 242 255
232 242 255
232 242 255
232 242 255
232 242 255
232 242 255
232 242 255
232 242 255
232 242 255
232 242 255
232 242 255
232 242 255
232 242 255
232 242 255
232 242 255
232 242 255
232 242 255
232 242 255
232 242 255
232 242 255
232 242 255
232 242 255
232 242 255
232 242 255
232 242 255
232 242 255
232 242 255
232 242 255
232 242 255
232 242 255
232 242 255
232 242 255
232 242 255
232 242 255
232 242 255
232 242 255
232 242 255
232 242 255
232 242 255
232 242 255
232 242 255
232 242 255
232 242 255
232 242 255
232 242 255
232 242 255
232 242 255
232 242 255
232 242 255
232 242 255
232 242 255
232 242 255
232 242 255
232 242 255
232 242 255
232 242 255
232 242 255
232 242 255
232 242 255
232 242 255
232 242 255
232 242 255
232 242 255
232 242 255
232 242 255
232 242 255
232 242 255
232 242 255
232 242 255
232 242 255
232 242 255
232 242 255
232 242 255
232 242 255
232 242 255
232 242 255
232 242 255
232 242 255
232 242 255
232 242 255
232 242 255
232 242 255
232 242 255
232 242 255
232 242 255
232 242 255
232 242 255
232 242 255
232 242 255
232 242 255
232 242 255
232 242 255
232 242 255
232 242 255
232 242 255
232 242 255
232 242 255
232 242 255
232 242 255
232 242 255
232 242 255
232 242 255
232 241 255
232 241 255
232 241 255
232 242 255
232 242 255
232 242 255
232 242 255
232 242 255
232 242 255
232 242 255
232 242 255
232 242 255
232 242 255
232 242 255
232 242 255
232 242 255
232 242 255
232 242 255
232 242 255
232 242 255
232 242 255
232 242 255
232 242 255
232 242 255
232 242 255
232 242 255
232 242 255
232 242 255
232 242 255
232 242 255
232 242 255
232 242 255
232 242 255
232 242 255
232 242 255
232 242 255
232 242 255
232 242 255
232 242 255
232 242 255
232 242 255
232 242 255
232 242 255
232 242 255
232 242 255
232 242 255
232 242 255
232 242 255
232 242 255
232 242 255
232 242 255
232 242 255
232 242 255
232 242 255
232 242 255
232 242 255
232 242 255
232 242 255
232 242 255
232 242 255
232 242 255
232 242 255
232 242 255
232 242 255
232 242 255
232 242 255
232 242 255
232 242 255
232 242 255
232 242 255
232 242 255
232 242 255
232 242 255
232 242 255
232 242 255
232 242 255
232 242 255
232 242 255
232 242 255
232 242 255
232 242 255
232 242 255
232 242 255
232 242 255
232 242 255
232 242 255
232 242 255
232 242 255
232 242 255
232 242 255
232 242 255
232 242 255
232 242 255
232 242 255
232 242 255
232 242 255
232 242 255
232 242 255
232 242 255
232 242 255
232 242 255
232 242 255
232 242 255
232 242 255
232 242 255
232 242 255
232 242 255
232 242 255
232 242 255
232 242 255
232 242 255
232 242 255
232 242 255
232 242 255
232 242 255
232 242 255
232 242 255
232 242 255
232 242 255
232 242 255
232 242 255
232 242 255
232 242 255
232 242 255
232 242 255
232 242 255
232 242 255
232 242 255
232 242 255
232 242 255
232 242 255
232 242 255
232 242 255
232 242 255
232 242 255
232 242 255
232 242 255
232 242 255
232 242 255
232 242 255
232 242 255
232 242 255
232 242 255
232 242 255
232 242 255
232 242 255
232 242 255
232 242 255
232 242 255
232 242 255
232 242 255
232 242 255
232 242 255
232 242 255
232 242 255
232 242 255
232 242 255
232 242 255
232 242 255
232 242 255
232 242 255
232 242 255
232 242 255
232 242 255
232 242 255
232 242 255
232 242 255
232 242 255
232 242 255
232 242 255
232 242 255
232 242 255
232 242 255
232 242 255
232 242 255
232 242 255
232 242 255
232 242 255
232 242 255
232 242 255
232 242 255
232 242 255
232 242 255
232 242 255
232 242 255
232 242 255
232 242 255
232 242 255
232 242 255
232 242 255
232 242 255
232 242 255
232 242 255
232 242 255
232 242 255
232 242 255
232 242 255
232 242 255
232 242 255
232 242 255
232 242 255
232 242 255
232 242 255
232 242 255
232 242 255
232 242 255
232 242 255
232 242 255
232 242 255
232 242 255
232 242 255
232 242 255
232 242 255
232 242 255
232 242 255
232 242 255
232 242 255
232 242 255
232 242 255
232 242 255
232 242 255
232 242 255
232 242 255
232 242 255
232 242 255
232 242 255
232 242 255
232 242 255
232 242 255
232 242 255
232 242 255
232 242 255
232 242 255
232 242 255
232 242 255
232 242 255
232 242 255
232 242 255
232 242 255
232 242 255
232 242 255
232 242 255
232 242 255
232 242 255
232 242 255
232 242 255
232 242 255
232 242 255
232 242 255
232 242 255
232 242 255
232 242 255
232 242 255
232 242 255
232 242 255
232 242 255
232 242 255
232 242 255
232 242 255
232 242 255
232 242 255
232 242 255
232 242 255
232 242 255
232 242 255
232 242 255
232 242 255
232 242 255
232 242 255
232 242 255
232 242 255
232 242 255
232 242 255
232 242 255
232 242 255
232 242 255
232 242 255
232 242 255
232 242 255
232 242 255
232 242 255
232 242 255
232 242 255
232 242 255
232 242 255
232 242 255
232 242 255
232 242 255
232 242 255
232 242 255
232 242 255
232 242 255
232 242 255
232 242 255
232 242 255
232 242 255
232 242 255
232 242 255
232 242 255
232 242 255
232 242 255
232 242 255
232 242 255
232 242 255
232 242 255
232 242 255
232 242 255
232 242 255
232 242 255
232 242 255
232 242 255
232 242 255
232 242 255
232 242 255
232 242 255
232 242 255
232 242 255
232 242 255
232 242 255
232 242 255
232 242 255
232 242 255
232 242 255
232 242 255
232 242 255
232 242 255
232 242 255
232 242 255
232 242 255
232 242 255
232 242 255
232 242 255
232 242 255
232 242 255
232 242 255
232 242 255
232 242 255
232 242 255
232 242 255
232 242 255
232 242 255
232 242 255
232 242 255
232 242 255
232 242 255
232 242 255
232 242 255
232 242 255
232 242 255
232 242 255
232 242 255
232 242 255
232 242 255
232 242 255
232 242 255
232 242 255
232 242 255
232 242 255
232 242 255
232 242 255
232 242 255
232 242 255
232 242 255
232 242 255
232 242 255
232 242 255
232 242 255
232 242 255
232 242 255
232 242 255
232 242 255
232 242 255
232 242 255
232 242 255
232 242 255
232 242 255
232 242 255
232 242 255
232 242 255
232 242 255
232 242 255
232 242 255
232 242 255
232 242 255
232 242 255
232 242 255
232 242 255
232 242 255
232 242 255
232 242 255
232 242 255
232 242 255
232 242 255
232 242 255
232 242 255
232 242 255
232 242 255
232 242 255
232 242 255
232 242 255
232 242 255
232 242 255
232 242 255
232 242 255
232 242 255
232 242 255
232 242 255
232 242 255
232 242 255
232 242 255
232 242 255
232 242 255
232 242 255
232 242 255
232 242 255
232 242 255
232 242 255
232 242 255
232 242 255
232 242 255
232 242 255
232 242 255
232 242 255
232 242 255
232 242 255
232 242 255
232 242 255
232 242 255
232 242 255
232 242 255
232 242 255
232 242 255
232 242 255
232 242 255
232 242 255
232 242 255
232 242 255
232 242 255
232 242 255
232 242 255
232 242 255
232 242 255
232 242 255
232 242 255
232 242 255
232 242 255
232 242 255
232 242 255
232 242 255
232 242 255
232 242 255
232 242 255
232 242 255
232 242 255
232 242 255
232 242 255
232 242 255
232 242 255
232 242 255
232 242 255
232 242 255
232 242 255
232 242 255
232 242 255
232 242 255
232 242 255
232 242 255
232 242 255
232 242 255
232 242 255
232 242 255
232 242 255
232 242 255
232 242 255
232 242 255
232 242 255
232 242 255
232 242 255
232 242 255
232 242 255
232 242 255
232 242 255
232 242 255
232 242 255
232 242 255
232 242 255
232 242 255
232 242 255
232 242 255
232 242 255
232 242 255
232 242 255
232 242 255
232 242 255
232 242 255
232 242 255
232 242 255
232 242 255
232 242 255
232 242 255
232 242 255
232 242 255
232 242 255
232 242 255
232 242 255
232 242 255
232 242 255
232 242 255
232 242 255
232 242 255
232 242 255
232 242 255
232 242 255
232 242 255
232 242 255
232 242 255
232 242 255
232 242 255
232 242 255
232 242 255
232 242 255
232 242 255
232 242 255
232 242 255
232 242 255
232 242 255
232 242 255
232 242 255
232 242 255
232 242 255
232 242 255
232 242 255
232 242 255
232 242 255
232 242 255
232 242 255
232 242 255
232 242 255
232 242 255
232 242 255
232 242 255
232 242 255
232 242 255
232 242 255
232 242 255
232 242 255
232 242 255
232 242 255
232 242 255
232 242 255
232 242 255
232 242 255
232 242 255
232 242 255
232 242 255
232 242 255
232 242 255
232 242 255
232 242 255
232 242 255
232 242 255
232 242 255
232 242 255
232 242 255
232 242 255
232 242 255
232 242 255
232 242 255
232 242 255
232 242 255
232 242 255
232 242 255
232 242 255
232 242 255
232 242 255
232 242 255
232 242 255
232 242 255
232 242 255
232 242 255
232 242 255
232 242 255
232 242 255
232 242 255
232 242 255
232 242 255
232 242 255
232 242 255
232 242 255
232 242 255
232 242 255
232 242 255
232 242 255
232 242 255
232 242 255
232 242 255
232 242 255
232 242 255
232 242 255
232 242 255
232 242 255
232 242 255
232 242 255
232 242 255
232 242 255
232 242 255
232 242 255
232 242 255
232 242 255
232 242 255
232 242 255
232 242 255
232 242 255
232 242 255
232 242 255
232 242 255
232 242 255
232 242 255
232 242 255
232 242 255
232 242 255
232 242 255
232 242 255
232 242 255
232 242 255
232 242 255
232 242 255
232 242 255
232 242 255
232 242 255
232 242 255
232 242 255
232 242 255
232 242 255
232 242 255
232 242 255
232 242 255
232 242 255
232 242 255
232 242 255
232 242 255
232 242 255
232 242 255
232 242 255
232 242 255
232 242 255
232 242 255
232 242 255
232 242 255
232 242 255
232 242 255
232 242 255
232 242 255
232 242 255
232 242 255
232 242 255
232 242 255
232 242 255
232 242 255
232 242 255
232 242 255
232 242 255
232 242 255
232 242 255
232 242 255
232 242 255
232 242 255
232 242 255
232 242 255
232 242 255
232 242 255
232 242 255
232 242 255
232 242 255
232 242 255
232 242 255
232 242 255
232 242 255
232 242 255
232 242 255
232 242 255
232 242 255
232 242 255
232 242 255
232 242 255
232 242 255
232 242 255
232 242 255
232 242 255
232 242 255
232 242 255
232 242 255
232 242 255
232 242 255
232 242 255
232 242 255
232 242 255
232 242 255
232 242 255
232 242 255
232 242 255
232 242 255
232 242 255
232 242 255
232 242 255
232 242 255
232 242 255
232 242 255
232 242 255
232 242 255
232 242 255
232 242 255
232 242 255
232 242 255
232 242 255
232 242 255
232 242 255
232 242 255
232 242 255
232 242 255
232 242 255
232 242 255
232 242 255
232 242 255
232 242 255
232 242 255
232 242 255
232 242 255
232 242 255
232 242 255
232 242 255
232 242 255
232 242 255
232 242 255
232 242 255
232 242 255
232 242 255
232 242 255
232 242 255
232 242 255
232 242 255
232 242 255
232 242 255
232 242 255
232 242 255
232 242 255
232 242 255
232 242 255
232 242 255
232 242 255
232 242 255
232 242 255
232 242 255
232 242 255
232 242 255
232 242 255
232 242 255
232 242 255
232 242 255
232 242 255
232 242 255
232 242 255
232 242 255
232 242 255
232 242 255
232 242 255
232 242 255
232 242 255
232 242 255
232 242 255
232 242 255
232 242 255
232 242 255
232 242 255
232 242 255
232 242 255
232 242 255
232 242 255
232 242 255
232 242 255
232 242 255
232 242 255
232 242 255
232 242 255
232 242 255
232 242 255
232 242 255
232 242 255
232 242 255
232 242 255
232 242 255
232 242 255
232 242 255
232 242 255
232 242 255
232 242 255
232 242 255
232 242 255
232 242 255
232 242 255
232 242 255
232 242 255
232 242 255
232 242 255
232 242 255
232 242 255
232 242 255
232 242 255
232 242 255
232 242 255
232 242 255
232 242 255
232 242 255
232 242 255
232 242 255
232 242 255
232 242 255
232 242 255
232 242 255
232 242 255
232 242 255
232 242 255
232 242 255
232 242 255
232 242 255
232 242 255
232 242 255
232 242 255
232 242 255
232 242 255
232 242 255
232 242 255
232 242 255
232 242 255
232 242 255
232 242 255
232 242 255
232 242 255
232 242 255
232 242 255
232 242 255
232 242 255
232 242 255
232 242 255
232 242 255
232 242 255
232 242 255
232 242 255
232 242 255
232 242 255
232 242 255
232 242 255
232 242 255
232 242 255
232 242 255
232 242 255
232 242 255
232 242 255
232 242 255
232 242 255
232 242 255
232 242 255
232 242 255
232 242 255
232 242 255
232 242 255
232 242 255
232 242 255
232 242 255
232 242 255
232 242 255
232 242 255
232 242 255
232 242 255
232 242 255
232 242 255
232 242 255
232 242 255
232 242 255
232 242 255
232 242 255
232 242 255
232 242 255
232 242 255
232 242 255
232 242 255
232 242 255
232 242 255
232 242 255
232 242 255
232 242 255
232 242 255
232 242 255
232 242 255
232 242 255
232 242 255
232 242 255
232 242 255
232 242 255
232 242 255
232 242 255
232 242 255
232 242 255
232 242 255
232 242 255
232 242 255
232 242 255
232 242 255
232 242 255
232 242 255
232 242 255
232 242 255
232 242 255
232 242 255
232 242 255
232 242 255
232 242 255
232 242 255
232 242 255
232 242 255
232 242 255
232 242 255
232 242 255
232 242 255
232 242 255
232 242 255
232 242 255
232 242 255
232 242 255
232 242 255
232 242 255
232 242 255
232 242 255
232 242 255
232 242 255
232 242 255
232 242 255
232 242 255
232 242 255
232 242 255
232 242 255
232 242 255
232 242 255
232 242 255
232 242 255
232 242 255
232 242 255
232 242 255
232 242 255
232 242 255
232 242 255
232 242 255
232 242 255
232 242 255
232 242 255
232 242 255
232 242 255
232 242 255
232 242 255
232 242 255
232 242 255
232 242 255
232 242 255
232 242 255
232 242 255
232 242 255
232 242 255
232 242 255
232 242 255
232 242 255
232 242 255
232 242 255
232 242 255
232 242 255
232 242 255
232 242 255
232 242 255
232 242 255
232 242 255
232 242 255
232 242 255
232 242 255
232 242 255
232 242 255
232 242 255
232 242 255
232 242 255
232 242 255
232 242 255
232 242 255
232 242 255
232 242 255
232 242 255
232 242 255
232 242 255
232 242 255
232 242 255
232 242 255
232 242 255
232 242 255
232 242 255
232 242 255
232 242 255
232 242 255
232 242 255
232 242 255
232 242 255
232 242 255
232 242 255
232 242 255
232 242 255
232 242 255
232 242 255
232 242 255
232 242 255
232 242 255
232 242 255
232 242 255
232 242 255
232 242 255
232 242 255
232 242 255
232 242 255
232 242 255
232 242 255
232 242 255
232 242 255
232 242 255
232 242 255
232 242 255
232 242 255
232 242 255
232 242 255
232 242 255
232 242 255
232 242 255
232 242 255
232 242 255
232 242 255
232 242 255
232 242 255
232 242 255
232 242 255
232 242 255
232 242 255
232 242 255
232 242 255
232 242 255
232 242 255
232 242 255
232 242 255
232 242 255
232 242 255
232 242 255
232 242 255
232 242 255
232 242 255
232 242 255
232 242 255
232 242 255
232 242 255
232 242 255
232 242 255
232 242 255
232 242 255
232 242 255
232 242 255
232 242 255
232 242 255
232 242 255
232 242 255
232 242 255
232 242 255
232 242 255
232 242 255
232 242 255
232 242 255
232 242 255
232 242 255
232 242 255
232 242 255
232 242 255
232 242 255
232 242 255
232 242 255
232 242 255
232 242 255
232 242 255
232 242 255
232 242 255
232 242 255
232 242 255
232 242 255
232 242 255
232 242 255
232 242 255
232 242 255
232 242 255
232 242 255
232 242 255
232 242 255
232 242 255
232 242 255
232 242 255
232 242 255
232 242 255
232 242 255
232 242 255
232 242 255
232 242 255
232 242 255
232 242 255
232 242 255
232 242 255
232 242 255
232 242 255
232 242 255
232 242 255
232 242 255
232 242 255
232 242 255
232 242 255
232 242 255
232 242 255
232 242 255
232 242 255
232 242 255
232 242 255
232 242 255
232 242 255
232 242 255
232 242 255
232 242 255
232 242 255
232 242 255
232 242 255
232 242 255
232 242 255
232 242 255
232 242 255
232 242 255
232 242 255
232 242 255
232 242 255
232 242 255
232 242 255
232 242 255
232 242 255
232 242 255
232 242 255
232 242 255
232 242 255
232 242 255
232 242 255
232 242 255
232 242 255
232 242 255
232 242 255
232 242 255
232 242 255
232 242 255
232 242 255
232 242 255
232 242 255
232 242 255
232 242 255
232 242 255
232 242 255
232 242 255
232 242 255
232 242 255
232 242 255
232 242 255
232 242 255
232 242 255
232 242 255
232 242 255
232 242 255
232 242 255
232 242 255
232 242 255
232 242 255
232 242 255
232 242 255
232 242 255
232 242 255
232 242 255
232 242 255
232 242 255
232 242 255
232 242 255
232 242 255
232 242 255
232 242 255
232 242 255
232 242 255
232 242 255
232 242 255
232 242 255
232 242 255
232 242 255
232 242 255
232 242 255
232 242 255
232 242 255
232 242 255
232 242 255
232 242 255
232 242 255
232 242 255
232 242 255
232 242 255
232 242 255
232 242 255
232 242 255
232 242 255
232 242 255
232 242 255
232 242 255
232 242 255
232 242 255
232 242 255
232 242 255
232 242 255
232 242 255
232 242 255
232 242 255
232 242 255
232 242 255
232 242 255
232 242 255
232 242 255
232 242 255
232 242 255
232 242 255
232 242 255
232 242 255
232 242 255
232 242 255
232 242 255
232 242 255
232 242 255
232 242 255
232 242 255
232 242 255
232 242 255
232 242 255
232 242 255
232 242 255
232 242 255
232 242 255
232 242 255
232 242 255
232 242 255
232 242 255
232 242 255
232 242 255
232 242 255
232 242 255
232 242 255
232 242 255
232 242 255
232 242 255
232 242 255
232 242 255
232 242 255
232 242 255
232 242 255
232 242 255
232 242 255
232 242 255
232 242 255
232 242 255
232 242 255
232 242 255
232 242 255
232 242 255
232 242 255
232 242 255
232 242 255
232 242 255
232 242 255
232 242 255
232 242 255
232 242 255
232 242 255
232 242 255
232 242 255
232 242 255
232 242 255
232 242 255
232 242 255
232 242 255
232 242 255
232 242 255
232 242 255
232 242 255
232 242 255
232 242 255
232 242 255
232 242 255
232 242 255
232 242 255
232 242 255
232 242 255
232 242 255
232 242 255
232 242 255
232 242 255
232 242 255
232 242 255
232 242 255
232 242 255
232 242 255
232 242 255
232 242 255
232 242 255
232 242 255
232 242 255
232 242 255
232 242 255
232 242 255
232 242 255
232 242 255
232 242 255
232 242 255
232 242 255
232 242 255
232 242 255
232 242 255
232 242 255
232 242 255
232 242 255
232 242 255
232 242 255
232 242 255
232 242 255
232 242 255
232 242 255
232 242 255
232 242 255
232 242 255
232 242 255
232 242 255
232 242 255
232 242 255
232 242 255
232 242 255
232 242 255
232 242 255
232 242 255
232 242 255
232 242 255
232 242 255
232 242 255
232 242 255
232 242 255
232 242 255
232 242 255
232 242 255
232 242 255
232 242 255
232 242 255
232 242 255
232 242 255
232 242 255
232 242 255
232 242 255
232 242 255
232 242 255
232 242 255
232 242 255
232 242 255
232 242 255
232 242 255
232 242 255
232 242 255
232 242 255
232 242 255
232 242 255
232 242 255
232 242 255
232 242 255
232 242 255
232 242 255
232 242 255
232 242 255
232 242 255
232 242 255
232 242 255
232 242 255
232 242 255
232 242 255
232 242 255
232 242 255
232 242 255
232 242 255
232 242 255
232 242 255
232 242 255
232 242 255
232 242 255
232 242 255
232 242 255
232 242 255
232 242 255
232 242 255
232 242 255
232 242 255
232 242 255
232 242 255
232 242 255
232 242 255
232 242 255
232 242 255
232 242 255
232 242 255
232 242 255
232 242 255
232 242 255
232 242 255
232 242 255
232 242 255
232 242 255
232 242 255
232 242 255
232 242 255
232 242 255
232 242 255
232 242 255
232 242 255
232 242 255
232 242 255
232 242 255
232 242 255
232 242 255
232 242 255
232 242 255
232 242 255
232 242 255
232 242 255
232 242 255
232 242 255
232 242 255
232 242 255
232 242 255
232 242 255
232 242 255
232 242 255
232 242 255
232 242 255
232 242 255
232 242 255
232 242 255
232 242 255
232 242 255
232 242 255
232 242 255
232 242 255
232 242 255
232 242 255
232 242 255
232 242 255
232 242 255
232 242 255
232 242 255
232 242 255
232 242 255
232 242 255
232 242 255
232 242 255
232 242 255
232 242 255
232 242 255
232 242 255
232 242 255
232 242 255
232 242 255
232 242 255
232 242 255
232 242 255
232 242 255
232 242 255
232 242 255
232 242 255
232 242 255
232 242 255
232 242 255
232 242 255
232 242 255
232 242 255
232 242 255
232 242 255
232 242 255
232 242 255
232 242 255
232 242 255
232 242 255
232 242 255
232 242 255
232 242 255
232 242 255
232 242 255
232 242 255
232 242 255
232 242 255
232 242 255
232 242 255
232 242 255
232 242 255
232 242 255
232 242 255
232 242 255
232 242 255
232 242 255
232 242 255
232 242 255
232 242 255
232 242 255
232 242 255
232 242 255
232 242 255
232 242 255
232 242 255
232 242 255
232 242 255
232 242 255
232 242 255
232 242 255
232 242 255
232 242 255
232 242 255
232 242 255
232 242 255
232 242 255
232 242 255
232 242 255
232 242 255
232 242 255
232 242 255
232 242 255
232 242 255
232 242 255
232 242 255
232 242 255
232 242 255
232 242 255
232 242 255
232 242 255
232 242 255
232 242 255
232 242 255
232 242 255
232 242 255
232 242 255
232 242 255
232 242 255
232 242 255
232 242 255
232 242 255
232 242 255
232 242 255
232 242 255
232 242 255
232 242 255
232 242 255
232 242 255
232 242 255
232 242 255
232 242 255
232 242 255
232 242 255
232 242 255
232 242 255
232 242 255
232 242 255
232 242 255
232 242 255
232 242 255
232 242 255
232 242 255
232 242 255
232 242 255
232 242 255
232 242 255
232 242 255
232 242 255
232 242 255
232 242 255
232 242 255
232 242 255
232 242 255
232 242 255
232 242 255
232 242 255
232 242 255
232 242 255
232 242 255
232 242 255
232 242 255
232 242 255
232 242 255
232 242 255
232 242 255
232 242 255
232 242 255
232 242 255
232 242 255
232 242 255
232 242 255
232 242 255
232 242 255
232 242 255
232 242 255
232 242 255
232 242 255
232 242 255
232 242 255
232 242 255
232 242 255
232 242 255
232 242 255
232 242 255
232 242 255
232 242 255
232 242 255
232 242 255
232 242 255
232 242 255
232 242 255
232 242 255
232 242 255
232 242 255
232 242 255
232 242 255
232 242 255
232 242 255
232 242 255
232 242 255
232 242 255
232 242 255
232 242 255
232 242 255
232 242 255
232 242 255
232 242 255
232 242 255
232 242 255
232 242 255
232 242 255
232 242 255
232 242 255
232 242 255
232 242 255
232 242 255
232 242 255
232 242 255
232 242 255
232 242 255
232 242 255
232 242 255
232 242 255
232 242 255
232 242 255
232 242 255
232 242 255
232 242 255
232 242 255
232 242 255
232 242 255
232 242 255
232 242 255
232 242 255
232 242 255
232 242 255
232 242 255
232 242 255
232 242 255
232 242 255
232 242 255
232 242 255
232 242 255
232 242 255
232 242 255
232 242 255
232 242 255
232 242 255
232 242 255
232 242 255
232 242 255
232 242 255
232 242 255
232 242 255
232 242 255
232 242 255
232 242 255
232 242 255
232 242 255
232 242 255
232 242 255
232 242 255
232 242 255
232 242 255
232 242 255
232 242 255
232 242 255
232 242 255
232 242 255
232 242 255
232 242 255
232 242 255
232 242 255
232 242 255
232 242 255
232 242 255
232 242 255
232 242 255
232 242 255
232 242 255
232 242 255
232 242 255
232 242 255
232 242 255
232 242 255
232 242 255
232 242 255
232 242 255
232 242 255
232 242 255
232 242 255
232 242 255
232 242 255
232 242 255
232 242 255
232 242 255
232 242 255
232 242 255
232 242 255
232 242 255
232 242 255
232 242 255
232 242 255
232 242 255
232 242 255
232 242 255
232 242 255
232 242 255
232 242 255
232 242 255
232 242 255
232 242 255
232 242 255
232 242 255
232 242 255
232 242 255
232 242 255
232 242 255
232 242 255
232 242 255
232 242 255
232 242 255
232 242 255
232 242 255
232 242 255
232 242 255
232 242 255
232 242 255
232 242 255
232 242 255
232 242 255
232 242 255
232 242 255
232 242 255
232 242 255
232 242 255
232 242 255
232 242 255
232 242 255
232 242 255
232 242 255
232 242 255
232 242 255
232 242 255
232 242 255
232 242 255
232 242 255
232 242 255
232 242 255
232 242 255
232 242 255
232 242 255
232 242 255
232 242 255
232 242 255
232 242 255
232 242 255
232 242 255
232 242 255
232 242 255
232 242 255
232 242 255
232 242 255
232 242 255
232 242 255
232 242 255
232 242 255
232 242 255
232 242 255
232 242 255
232 242 255
232 242 255
232 242 255
232 242 255
232 242 255
232 242 255
232 242 255
232 242 255
232 242 255
232 242 255
232 242 255
232 242 255
232 242 255
232 242 255
232 242 255
232 242 255
232 242 255
232 242 255
232 242 255
232 242 255
232 242 255
232 242 255
232 242 255
232 242 255
232 242 255
232 242 255
232 242 255
232 242 255
232 242 255
232 242 255
232 242 255
232 242 255
232 242 255
232 242 255
232 242 255
232 242 255
232 242 255
232 242 255
232 242 255
232 242 255
232 242 255
232 242 255
232 242 255
232 242 255
232 242 255
232 242 255
232 242 255
232 242 255
232 242 255
232 242 255
232 242 255
232 242 255
232 242 255
232 242 255
232 242 255
232 242 255
232 242 255
232 242 255
232 242 255
232 242 255
232 242 255
232 242 255
232 242 255
232 242 255
232 242 255
232 242 255
232 242 255
232 242 255
232 242 255
232 242 255
232 242 255
232 242 255
232 242 255
232 242 255
232 242 255
232 242 255
232 242 255
232 242 255
232 242 255
232 242 255
232 242 255
232 242 255
232 242 255
232 242 255
232 242 255
232 242 255
232 242 255
232 242 255
232 242 255
232 242 255
232 242 255
232 242 255
232 242 255
232 242 255
232 242 255
232 242 255
232 242 255
232 242 255
232 242 255
232 242 255
232 242 255
232 242 255
232 242 255
232 242 255
232 242 255
232 242 255
232 242 255
232 242 255
232 242 255
232 242 255
232 242 255
232 242 255
232 242 255
232 242 255
232 242 255
232 242 255
232 242 255
232 242 255
232 242 255
232 242 255
232 242 255
232 242 255
232 242 255
232 242 255
232 242 255
232 242 255
232 242 255
232 242 255
232 242 255
232 242 255
232 242 255
232 242 255
232 242 255
232 242 255
232 242 255
232 242 255
232 242 255
232 242 255
232 242 255
232 242 255
232 242 255
232 242 255
232 242 255
232 242 255
232 242 255
232 242 255
232 242 255
232 242 255
232 242 255
232 242 255
232 242 255
232 242 255
232 242 255
232 242 255
232 242 255
232 242 255
232 242 255
232 242 255
232 242 255
232 242 255
232 242 255
232 242 255
232 242 255
232 242 255
232 242 255
232 242 255
232 242 255
232 242 255
232 242 255
232 242 255
232 242 255
232 242 255
232 242 255
232 242 255
232 242 255
232 242 255
232 242 255
232 242 255
232 242 255
232 242 255
232 242 255
232 242 255
232 242 255
232 242 255
232 242 255
232 242 255
232 242 255
232 242 255
232 242 255
232 242 255
232 242 255
232 242 255
232 242 255
232 242 255
232 242 255
232 242 255
232 242 255
232 242 255
232 242 255
232 242 255
232 242 255
232 242 255
232 242 255
232 242 255
232 242 255
232 242 255
232 242 255
232 242 255
232 242 255
232 242 255
232 242 255
232 242 255
232 242 255
232 242 255
232 242 255
232 242 255
232 242 255
232 242 255
232 242 255
232 242 255
232 242 255
232 242 255
232 242 255
232 242 255
232 242 255
232 242 255
232 242 255
232 242 255
232 242 255
232 242 255
232 242 255
232 242 255
232 242 255
232 242 255
232 242 255
232 242 255
232 242 255
232 242 255
232 242 255
232 242 255
232 242 255
232 242 255
232 242 255
232 242 255
232 242 255
232 242 255
232 242 255
232 242 255
232 242 255
232 242 255
232 242 255
232 242 255
232 242 255
232 242 255
232 242 255
232 242 255
232 242 255
232 242 255
232 242 255
232 242 255
232 242 255
232 242 255
232 242 255
232 242 255
232 242 255
232 242 255
232 242 255
232 242 255
232 242 255
232 242 255
232 242 255
232 242 255
232 242 255
232 242 255
232 242 255
232 242 255
232 242 255
232 242 255
232 242 255
232 242 255
232 242 255
232 242 255
232 242 255
232 242 255
232 242 255
232 242 255
232 242 255
232 242 255
232 242 255
232 242 255
232 242 255
232 242 255
232 242 255
232 242 255
232 242 255
232 242 255
232 242 255
232 242 255
232 242 255
232 242 255
232 242 255
232 242 255
232 242 255
232 242 255
232 242 255
232 242 255
232 242 255
232 242 255
232 242 255
232 242 255
232 242 255
232 242 255
232 242 255
232 242 255
232 242 255
232 242 255
232 242 255
232 242 255
232 242 255
232 242 255
232 242 255
232 242 255
232 242 255
232 242 255
232 242 255
232 242 255
232 242 255
232 242 255
232 242 255
232 242 255
232 242 255
232 242 255
232 242 255
232 242 255
232 242 255
232 242 255
232 242 255
232 242 255
232 242 255
232 242 255
232 242 255
232 242 255
232 242 255
232 242 255
232 242 255
232 242 255
232 242 255
232 242 255
232 242 255
232 242 255
232 242 255
232 242 255
232 242 255
232 242 255
232 242 255
232 242 255
232 242 255
232 242 255
232 242 255
232 242 255
232 242 255
232 242 255
232 242 255
232 242 255
232 242 255
232 242 255
232 242 255
232 242 255
232 242 255
232 242 255
232 242 255
232 242 255
232 242 255
232 242 255
232 242 255
232 242 255
232 242 255
232 242 255
232 242 255
232 242 255
232 242 255
232 242 255
232 242 255
232 242 255
232 242 255
232 242 255
232 242 255
232 242 255
232 242 255
232 242 255
232 242 255
232 242 255
232 242 255
232 242 255
232 242 255
232 242 255
232 242 255
232 242 255
232 242 255
232 242 255
232 242 255
232 242 255
232 242 255
232 242 255
232 242 255
232 242 255
232 242 255
232 242 255
232 242 255
232 242 255
232 242 255
232 242 255
232 242 255
232 242 255
232 242 255
232 242 255
232 242 255
232 242 255
232 242 255
232 242 255
232 242 255
232 242 255
232 242 255
232 242 255
232 242 255
232 242 255
232 242 255
232 242 255
232 242 255
232 242 255
232 242 255
232 242 255
232 242 255
232 242 255
232 242 255
232 242 255
232 242 255
232 242 255
232 242 255
232 242 255
232 242 255
232 242 255
232 242 255
232 242 255
232 242 255
232 242 255
232 242 255
232 242 255
232 242 255
232 242 255
232 242 255
232 242 255
232 242 255
232 242 255
232 242 255
232 242 255
232 242 255
232 242 255
232 242 255
232 242 255
232 242 255
232 242 255
232 242 255
232 242 255
232 242 255
232 242 255
232 242 255
232 242 255
232 242 255
232 242 255
232 242 255
232 242 255
232 242 255
232 242 255
232 242 255
232 242 255
232 242 255
232 242 255
232 242 255
232 242 255
232 242 255
232 242 255
232 242 255
232 242 255
232 242 255
232 242 255
232 242 255
232 242 255
232 242 255
232 242 255
232 242 255
232 242 255
232 242 255
232 242 255
232 242 255
232 242 255
232 242 255
232 242 255
232 242 255
232 242 255
232 242 255
232 242 255
232 242 255
232 242 255
232 242 255
232 242 255
232 242 255
232 242 255
232 242 255
232 242 255
232 242 255
232 242 255
232 242 255
232 242 255
232 242 255
232 242 255
232 242 255
232 242 255
232 242 255
232 242 255
232 242 255
232 242 255
232 242 255
232 242 255
232 242 255
232 242 255
232 242 255
232 242 255
232 242 255
232 242 255
232 242 255
232 242 255
232 242 255
232 242 255
232 242 255
232 242 255
232 242 255
232 242 255
232 242 255
232 242 255
232 242 255
232 242 255
232 242 255
232 242 255
232 242 255
232 242 255
232 242 255
232 242 255
232 242 255
232 242 255
232 242 255
232 242 255
232 242 255
232 242 255
232 242 255
232 242 255
232 242 255
232 242 255
232 242 255
232 242 255
232 242 255
232 242 255
232 242 255
232 242 255
232 242 255
232 242 255
232 242 255
232 242 255
232 242 255
232 242 255
232 242 255
232 242 255
232 242 255
232 242 255
232 242 255
232 242 255
232 242 255
232 242 255
232 242 255
232 242 255
232 242 255
232 242 255
232 242 255
232 242 255
232 242 255
232 242 255
232 242 255
232 242 255
232 242 255
232 242 255
232 242 255
232 242 255
232 242 255
232 242 255
232 242 255
232 242 255
232 242 255
232 242 255
232 242 255
232 242 255
232 242 255
232 242 255
232 242 255
232 242 255
232 242 255
232 242 255
232 242 255
232 242 255
232 242 255
232 242 255
232 242 255
232 242 255
232 242 255
232 242 255
232 242 255
232 242 255
232 242 255
232 242 255
232 242 255
232 242 255
232 242 255
232 242 255
232 242 255
232 242 255
232 242 255
232 242 255
232 242 255
232 242 255
232 242 255
232 242 255
232 242 255
232 242 255
232 242 255
232 242 255
232 242 255
232 242 255
232 242 255
232 242 255
232 242 255
232 242 255
232 242 255
232 242 255
232 242 255
232 242 255
232 242 255
232 242 255
232 242 255
232 242 255
232 242 255
232 242 255
232 242 255
232 242 255
232 242 255
232 242 255
232 242 255
232 242 255
232 242 255
232 242 255
232 242 255
232 242 255
232 242 255
232 242 255
232 242 255
232 242 255
232 242 255
232 242 255
232 242 255
232 242 255
232 242 255
232 242 255
232 242 255
232 242 255
232 242 255
232 242 255
232 242 255
232 242 255
232 242 255
232 242 255
232 242 255
232 242 255
232 242 255
232 242 255
232 242 255
232 242 255
232 242 255
232 242 255
232 242 255
232 242 255
232 242 255
232 242 255
232 242 255
232 242 255
232 242 255
232 242 255
232 242 255
232 242 255
232 242 255
232 242 255
232 242 255
232 242 255
232 242 255
232 242 255
232 242 255
232 242 255
232 242 255
232 242 255
232 242 255
232 242 255
232 242 255
232 242 255
232 242 255
232 242 255
232 242 255
232 242 255
232 242 255
232 242 255
232 242 255
232 242 255
232 242 255
232 242 255
232 242 255
232 242 255
232 242 255
232 242 255
232 242 255
232 242 255
232 242 255
232 242 255
232 242 255
232 242 255
232 242 255
232 242 255
232 242 255
232 242 255
232 242 255
232 242 255
232 242 255
232 242 255
232 242 255
232 242 255
232 242 255
232 242 255
232 242 255
232 242 255
232 242 255
232 242 255
232 242 255
232 242 255
232 242 255
232 242 255
232 242 255
232 242 255
232 242 255
232 242 255
233 242 255
232 242 255
233 242 255
233 242 255
233 242 255
233 242 255
233 242 255
233 242 255
233 242 255
233 242 255
233 242 255
233 242 255
233 242 255
233 242 255
233 242 255
233 242 255
233 242 255
233 242 255
233 242 255
233 242 255
233 242 255
233 242 255
233 242 255
233 242 255
233 242 255
233 242 255
233 242 255
233 242 255
233 242 255
233 242 255
233 242 255
233 242 255
233 242 255
233 242 255
233 242 255
233 242 255
233 242 255
233 242 255
233 242 255
233 242 255
233 242 255
233 242 255
233 242 255
233 242 255
233 242 255
233 242 255
233 242 255
233 242 255
233 242 255
233 242 255
233 242 255
233 242 255
233 242 255
233 242 255
233 242 255
233 242 255
233 242 255
233 242 255
233 242 255
233 242 255
233 242 255
233 242 255
233 242 255
233 242 255
233 242 255
233 242 255
233 242 255
233 242 255
233 242 255
233 242 255
233 242 255
233 242 255
233 242 255
233 242 255
233 242 255
233 242 255
233 242 255
233 242 255
232 242 255
232 242 255
232 242 255
232 242 255
232 242 255
232 242 255
232 242 255
232 242 255
232 242 255
232 242 255
232 242 255
232 242 255
232 242 255
232 242 255
232 242 255
232 242 255
232 242 255
232 242 255
232 242 255
232 242 255
232 242 255
232 242 255
232 242 255
232 242 255
232 242 255
232 242 255
232 242 255
232 242 255
232 242 255
232 242 255
232 242 255
232 242 255
232 242 255
232 242 255
232 242 255
232 242 255
232 242 255
232 242 255
232 242 255
232 242 255
232 242 255
232 242 255
232 242 255
232 242 255
232 242 255
232 242 255
232 242 255
232 242 255
232 242 255
232 242 255
232 242 255
232 242 255
232 242 255
232 242 255
232 242 255
232 242 255
232 242 255
232 242 255
232 242 255
232 242 255
232 242 255
232 242 255
232 242 255
232 242 255
232 242 255
232 242 255
232 242 255
232 242 255
232 242 255
232 242 255
232 242 255
232 242 255
232 242 255
232 242 255
232 242 255
232 242 255
232 242 255
232 242 255
232 242 255
232 242 255
232 242 255
232 242 255
232 242 255
232 242 255
232 242 255
232 242 255
232 242 255
232 242 255
232 242 255
232 242 255
232 242 255
232 242 255
232 242 255
232 242 255
232 242 255
232 242 255
232 242 255
232 242 255
232 242 255
232 242 255
232 242 255
232 242 255
232 242 255
232 242 255
232 242 255
232 242 255
232 242 255
232 242 255
232 242 255
232 242 255
232 242 255
232 242 255
232 242 255
232 242 255
232 242 255
232 242 255
232 242 255
232 242 255
232 242 255
232 242 255
232 242 255
232 242 255
232 242 255
232 242 255
232 242 255
232 242 255
232 242 255
232 242 255
232 242 255
232 242 255
232 242 255
232 242 255
232 242 255
232 242 255
232 242 255
232 242 255
232 242 255
232 242 255
232 242 255
232 242 255
232 242 255
232 242 255
232 242 255
232 242 255
232 242 255
232 242 255
232 242 255
232 242 255
232 242 255
232 242 255
232 242 255
232 242 255
232 242 255
232 242 255
232 242 255
232 242 255
232 242 255
232 242 255
232 242 255
232 242 255
232 242 255
232 242 255
232 242 255
232 242 255
232 242 255
232 242 255
232 242 255
232 242 255
232 242 255
232 242 255
232 242 255
232 242 255
232 242 255
232 242 255
232 242 255
232 242 255
232 242 255
232 242 255
232 242 255
232 242 255
232 242 255
232 242 255
232 242 255
232 242 255
232 242 255
232 242 255
232 242 255
232 242 255
232 242 255
232 242 255
232 242 255
232 242 255
232 242 255
232 242 255
232 242 255
232 242 255
232 242 255
232 242 255
232 242 255
232 242 255
232 242 255
232 242 255
232 242 255
232 242 255
232 242 255
232 242 255
232 242 255
232 242 255
232 242 255
232 242 255
232 242 255
232 242 255
232 242 255
232 242 255
232 242 255
232 242 255
232 242 255
232 242 255
232 242 255
232 242 255
232 242 255
232 242 255
232 242 255
232 242 255
232 242 255
232 242 255
232 242 255
232 242 255
232 242 255
232 242 255
232 242 255
232 242 255
232 242 255
232 242 255
232 242 255
232 242 255
232 242 255
232 242 255
232 242 255
232 242 255
232 242 255
232 242 255
232 242 255
232 242 255
232 242 255
232 242 255
232 242 255
232 242 255
232 242 255
232 242 255
232 242 255
232 242 255
232 242 255
232 242 255
232 242 255
232 242 255
232 242 255
232 242 255
232 242 255
232 242 255
232 242 255
232 242 255
232 242 255
232 242 255
232 242 255
232 242 255
232 242 255
232 242 255
232 242 255
232 242 255
232 242 255
232 242 255
232 242 255
232 242 255
232 242 255
232 242 255
232 242 255
232 242 255
232 242 255
232 242 255
232 242 255
232 242 255
232 242 255
232 242 255
232 242 255
232 242 255
232 242 255
232 242 255
233 242 255
233 242 255
233 242 255
233 242 255
233 242 255
233 242 255
233 242 255
233 242 255
233 242 255
233 242 255
233 242 255
233 242 255
233 242 255
233 242 255
233 242 255
233 242 255
233 242 255
233 242 255
233 242 255
233 242 255
233 242 255
233 242 255
233 242 255
233 242 255
233 242 255
233 242 255
233 242 255
233 242 255
233 242 255
233 242 255
233 242 255
233 242 255
233 242 255
233 242 255
233 242 255
233 242 255
233 242 255
233 242 255
233 242 255
233 242 255
233 242 255
233 242 255
233 242 255
233 242 255
233 242 255
233 242 255
233 242 255
233 242 255
233 242 255
233 242 255
233 242 255
233 242 255
233 242 255
233 242 255
233 242 255
233 242 255
233 242 255
233 242 255
233 242 255
233 242 255
233 242 255
233 242 255
233 242 255
233 242 255
233 242 255
233 242 255
233 242 255
233 242 255
233 242 255
233 242 255
233 242 255
233 242 255
233 242 255
233 242 255
233 242 255
233 242 255
233 242 255
233 242 255
233 242 255
233 242 255
233 242 255
233 242 255
233 242 255
233 242 255
233 242 255
233 242 255
233 242 255
233 242 255
233 242 255
233 242 255
233 242 255
233 242 255
233 242 255
233 242 255
233 242 255
233 242 255
233 242 255
233 242 255
233 242 255
233 242 255
233 242 255
233 242 255
233 242 255
233 242 255
233 242 255
233 242 255
233 242 255
233 242 255
233 242 255
233 242 255
233 242 255
233 242 255
233 242 255
233 242 255
233 242 255
233 242 255
233 242 255
233 242 255
233 242 255
233 242 255
233 242 255
233 242 255
233 242 255
233 242 255
233 242 255
233 242 255
233 242 255
233 242 255
233 242 255
233 242 255
233 242 255
233 242 255
233 242 255
233 242 255
233 242 255
233 242 255
233 242 255
233 242 255
233 242 255
233 242 255
233 242 255
233 242 255
233 242 255
233 242 255
233 242 255
233 242 255
232 242 255
232 242 255
232 242 255
232 242 255
232 242 255
232 242 255
232 242 255
232 242 255
232 242 255
232 242 255
232 242 255
232 242 255
232 242 255
232 242 255
232 242 255
232 242 255
232 242 255
232 242 255
232 242 255
232 242 255
232 242 255
232 242 255
232 242 255
232 242 255
232 242 255
232 242 255
232 242 255
232 242 255
232 242 255
232 242 255
232 242 255
232 242 255
232 242 255
232 242 255
232 242 255
232 242 255
232 242 255
232 242 255
232 242 255
232 242 255
232 242 255
232 242 255
232 242 255
232 242 255
232 242 255
232 242 255
232 242 255
232 242 255
232 242 255
232 242 255
232 242 255
232 242 255
232 242 255
232 242 255
232 242 255
232 242 255
232 242 255
232 242 255
232 242 255
232 242 255
232 242 255
232 242 255
232 242 255
232 242 255
232 242 255
232 242 255
232 242 255
232 242 255
232 242 255
232 242 255
232 242 255
232 242 255
232 242 255
232 242 255
232 242 255
232 242 255
232 242 255
232 242 255
232 242 255
232 242 255
232 242 255
232 242 255
232 242 255
232 242 255
232 242 255
232 242 255
232 242 255
232 242 255
232 242 255
232 242 255
232 242 255
232 242 255
232 242 255
232 242 255
232 242 255
232 242 255
232 242 255
232 242 255
232 242 255
232 242 255
232 242 255
232 242 255
232 242 255
232 242 255
232 242 255
232 242 255
232 242 255
232 242 255
232 242 255
232 242 255
232 242 255
232 242 255
232 242 255
232 242 255
232 242 255
232 242 255
232 242 255
232 242 255
232 242 255
232 242 255
232 242 255
232 242 255
232 242 255
232 242 255
232 242 255
232 242 255
232 242 255
232 242 255
232 242 255
232 242 255
232 242 255
232 242 255
232 242 255
232 242 255
232 242 255
232 242 255
232 242 255
232 242 255
232 242 255
232 242 255
232 242 255
232 242 255
232 242 255
232 242 255
232 242 255
232 242 255
232 242 255
232 242 255
232 242 255
232 242 255
232 242 255
232 242 255
232 242 255
232 242 255
232 242 255
232 242 255
232 242 255
232 242 255
232 242 255
232 242 255
232 242 255
232 242 255
232 242 255
232 242 255
232 242 255
232 242 255
232 242 255
232 242 255
232 242 255
232 242 255
232 242 255
232 242 255
232 242 255
232 242 255
232 242 255
232 242 255
232 242 255
232 242 255
232 242 255
232 242 255
232 242 255
232 242 255
232 242 255
232 242 255
232 242 255
232 242 255
232 242 255
232 242 255
232 242 255
232 242 255
232 242 255
232 242 255
232 242 255
232 242 255
232 242 255
232 242 255
232 242 255
232 242 255
232 242 255
232 242 255
232 242 255
232 242 255
232 242 255
232 242 255
232 242 255
232 242 255
232 242 255
232 242 255
232 242 255
232 242 255
232 242 255
232 242 255
232 242 255
232 242 255
232 242 255
232 242 255
232 242 255
232 242 255
232 242 255
232 242 255
232 242 255
232 242 255
232 242 255
232 242 255
232 242 255
232 242 255
232 242 255
232 242 255
232 242 255
232 242 255
232 242 255
232 242 255
233 242 255
233 242 255
233 242 255
233 242 255
233 242 255
233 242 255
233 242 255
233 242 255
233 242 255
233 242 255
233 242 255
233 242 255
233 242 255
233 242 255
233 242 255
233 242 255
233 242 255
233 242 255
233 242 255
233 242 255
233 242 255
233 242 255
233 242 255
233 242 255
233 242 255
233 242 255
233 242 255
233 242 255
233 242 255
233 242 255
233 242 255
233 242 255
233 242 255
233 242 255
233 242 255
233 242 255
233 242 255
233 242 255
233 242 255
233 242 255
233 242 255
233 242 255
233 242 255
233 242 255
233 242 255
233 242 255
233 242 255
233 242 255
233 242 255
233 242 255
233 242 255
233 242 255
233 242 255
233 242 255
233 242 255
233 242 255
233 242 255
233 242 255
233 242 255
233 242 255
233 242 255
233 242 255
233 242 255
233 242 255
233 242 255
233 242 255
233 242 255
233 242 255
233 242 255
233 242 255
233 242 255
233 242 255
233 242 255
233 242 255
233 242 255
233 242 255
233 242 255
233 242 255
233 242 255
233 242 255
233 242 255
233 242 255
233 242 255
233 242 255
233 242 255
233 242 255
233 242 255
233 242 255
233 242 255
233 242 255
233 242 255
233 242 255
233 242 255
233 242 255
233 242 255
233 242 255
233 242 255
233 242 255
233 242 255
233 242 255
233 242 255
233 242 255
233 242 255
233 242 255
233 242 255
233 242 255
233 242 255
233 242 255
233 242 255
233 242 255
233 242 255
233 242 255
233 242 255
233 242 255
233 242 255
233 242 255
233 242 255
233 242 255
233 242 255
233 242 255
233 242 255
233 242 255
233 242 255
233 242 255
233 242 255
233 242 255
233 242 255
233 242 255
233 242 255
233 242 255
233 242 255
233 242 255
233 242 255
233 242 255
233 242 255
233 242 255
233 242 255
233 242 255
233 242 255
233 242 255
233 242 255
233 242 255
233 242 255
233 242 255
233 242 255
233 242 255
233 242 255
233 242 255
233 242 255
233 242 255
233 242 255
233 242 255
233 242 255
233 242 255
233 242 255
233 242 255
233 242 255
233 242 255
233 242 255
233 242 255
233 242 255
233 242 255
233 242 255
233 242 255
233 242 255
233 242 255
233 242 255
233 242 255
233 242 255
233 242 255
233 242 255
233 242 255
233 242 255
233 242 255
233 242 255
233 242 255
233 242 255
233 242 255
233 242 255
233 242 255
233 242 255
233 242 255
233 242 255
233 242 255
233 242 255
233 242 255
233 242 255
233 242 255
233 242 255
233 242 255
233 242 255
232 242 255
232 242 255
232 242 255
232 242 255
232 242 255
232 242 255
232 242 255
232 242 255
232 242 255
232 242 255
232 242 255
232 242 255
232 242 255
232 242 255
232 242 255
232 242 255
232 242 255
232 242 255
232 242 255
232 242 255
232 242 255
232 242 255
232 242 255
232 242 255
232 242 255
232 242 255
232 242 255
232 242 255
232 242 255
232 242 255
232 242 255
232 242 255
232 242 255
232 242 255
232 242 255
232 242 255
232 242 255
232 242 255
232 242 255
232 242 255
232 242 255
232 242 255
232 242 255
232 242 255
232 242 255
232 242 255
232 242 255
232 242 255
232 242 255
232 242 255
232 242 255
232 242 255
232 242 255
232 242 255
232 242 255
232 242 255
232 242 255
232 242 255
232 242 255
232 242 255
232 242 255
232 242 255
232 242 255
232 242 255
232 242 255
232 242 255
232 242 255
232 242 255
232 242 255
232 242 255
232 242 255
232 242 255
232 242 255
232 242 255
232 242 255
232 242 255
232 242 255
232 242 255
232 242 255
232 242 255
232 242 255
232 242 255
232 242 255
232 242 255
232 242 255
232 242 255
232 242 255
232 242 255
232 242 255
232 242 255
232 242 255
232 242 255
232 242 255
232 242 255
232 242 255
232 242 255
232 242 255
232 242 255
232 242 255
232 242 255
232 242 255
232 242 255
232 242 255
232 242 255
232 242 255
